; generated by PrusaSlicer 2.7.4+win64 on 2024-06-04 at 06:42:03 UTC


;
;
; 

; external perimeters extrusion width = 0.42mm
; perimeters extrusion width = 0.45mm
; infill extrusion width = 0.45mm
; solid infill extrusion width = 0.42mm
; top infill extrusion width = 0.42mm
; support material extrusion width = 0.42mm
; first layer extrusion width = 0.50mm

;TYPE:Custom
G9111 bedTemp=65 extruderTemp=230
M117
M900 K0.05
G21 ; set units to millimeters
G90 ; use absolute coordinates
M83 ; use relative distances for extrusion
M107
;LAYER_CHANGE
;Z:0.24
;HEIGHT:0.24
G1 E-.8 F4800
G1 Z.24 F21000
G1 X102.339 Y121.478
G1 Z.24
G1 E.8 F4800
M204 S5000
;TYPE:External perimeter
;WIDTH:0.5
G1 F3600
G1 X102.48 Y121.362 E.00752
G1 X102.66 Y121.252 E.00869
G1 X102.957 Y121.14 E.01307
G1 X103.294 Y121.087 E.01405
G1 X126.674 Y119.662 E.96436
G1 X127.566 Y119.638 E.03674
G1 X128.453 Y119.665 E.03654
G1 X129.43 Y119.757 E.0404
G1 X130.304 Y119.897 E.03644
G1 X131.237 Y120.107 E.03937
G1 X132.149 Y120.375 E.03914
G1 X133.183 Y120.76 E.04543
G1 X133.9 Y121.08 E.03233
G1 X134.938 Y121.632 E.0484
G1 X135.872 Y122.224 E.04553
G1 X136.568 Y122.736 E.03557
G1 X137.362 Y123.401 E.04264
G1 X138.032 Y124.042 E.03818
G1 X138.639 Y124.703 E.03695
G1 X139.317 Y125.548 E.0446
G1 X139.792 Y126.223 E.03398
G1 X140.28 Y127.029 E.03879
G1 X140.361 Y127.254 E.00985
G1 X140.391 Y127.471 E.00902
G1 X140.377 Y127.672 E.0083
G1 X140.282 Y127.967 E.01276
G1 X139.987 Y128.471 E.02404
G1 X139.562 Y129.114 E.03173
G1 X139.152 Y129.671 E.02847
G1 X138.747 Y130.172 E.02652
G1 X138.196 Y130.785 E.03393
G1 X137.731 Y131.256 E.02725
G1 X136.882 Y132.013 E.04683
G1 X136.255 Y132.502 E.03274
G1 X135.745 Y132.863 E.02573
G1 X135.227 Y133.194 E.02531
G1 X134.583 Y133.568 E.03066
G1 X133.683 Y134.021 E.04148
G1 X132.859 Y134.371 E.03686
G1 X132.124 Y134.633 E.03213
G1 X131.16 Y134.913 E.04133
G1 X130.297 Y135.105 E.0364
G1 X129.405 Y135.246 E.03718
G1 X128.438 Y135.337 E.03999
G1 X127.429 Y135.363 E.04156
G1 X126.189 Y135.308 E.0511
G1 X103.176 Y133.903 E.94923
G1 X102.796 Y133.808 E.01613
G1 X102.502 Y133.655 E.01365
G1 X102.269 Y133.453 E.0127
G1 X102.079 Y133.194 E.01322
G1 X101.99 Y133.011 E.00838
G1 X101.923 Y132.807 E.00884
G1 X101.881 Y132.588 E.00918
G1 X101.868 Y132.375 E.00879
G1 X101.871 Y122.538 E.405
G1 X101.899 Y122.301 E.00983
G1 X101.952 Y122.096 E.00872
G1 X102.103 Y121.765 E.01498
G1 X102.199 Y121.628 E.00689
G1 X102.298 Y121.522 E.00597
M204 S15000
;WIPE_START
G1 F16800
G1 X102.339 Y121.478 E-.01632
G1 X102.48 Y121.362 E-.04956
G1 X102.66 Y121.252 E-.05726
G1 X102.957 Y121.14 E-.08616
G1 X103.294 Y121.087 E-.0926
G1 X105.126 Y120.975 E-.4981
;WIPE_END
M204 S10000
G1 X105.918 Y128.882 F21000
G1 E.8 F4800
M204 S5000
G1 F3600
G1 X106.116 Y128.806 E.00873
G1 X106.288 Y128.787 E.00712
G1 X106.592 Y128.837 E.01268
G1 X106.823 Y128.953 E.01064
G1 X107.035 Y129.175 E.01264
G1 X107.127 Y129.469 E.01268
G1 X107.081 Y129.672 E.00857
G1 X107.001 Y129.858 E.00834
G1 X106.84 Y130.104 E.0121
G1 X106.628 Y130.323 E.01255
G1 X106.378 Y130.503 E.01268
G1 X106.086 Y130.643 E.01333
G1 X105.766 Y130.739 E.01375
G1 X105.523 Y130.782 E.01016
G1 X105.129 Y130.805 E.01625
G1 X104.703 Y130.784 E.01756
G1 X104.44 Y130.739 E.01099
G1 X104.16 Y130.662 E.01196
G1 X103.921 Y130.567 E.01059
G1 X103.505 Y130.329 E.01973
G1 X103.219 Y130.092 E.01529
G1 X103.042 Y129.906 E.01057
G1 X102.761 Y129.509 E.02002
G1 X102.641 Y129.272 E.01094
G1 X102.504 Y128.909 E.01597
G1 X102.376 Y128.351 E.02357
G1 X102.335 Y128.026 E.01349
G1 X102.31 Y127.488 E.02217
G1 X102.349 Y126.779 E.02923
G1 X102.469 Y126.142 E.02669
G1 X102.56 Y125.859 E.01224
G1 X102.668 Y125.608 E.01125
G1 X102.856 Y125.275 E.01574
G1 X103.009 Y125.066 E.01066
G1 X103.258 Y124.801 E.01497
G1 X103.452 Y124.639 E.01041
G1 X103.757 Y124.443 E.01493
G1 X103.986 Y124.332 E.01048
G1 X104.45 Y124.186 E.02003
G1 X104.828 Y124.132 E.01572
G1 X105.104 Y124.123 E.01137
G1 X105.458 Y124.14 E.01459
G1 X105.842 Y124.207 E.01605
G1 X106.25 Y124.359 E.01793
G1 X106.544 Y124.54 E.01421
G1 X106.791 Y124.751 E.01337
G1 X106.954 Y124.951 E.01062
G1 X107.036 Y125.099 E.00697
G1 X107.094 Y125.316 E.00925
G1 X107.084 Y125.507 E.00787
G1 X107.041 Y125.665 E.00674
G1 X106.923 Y125.875 E.00992
G1 X106.746 Y126.041 E.00999
G1 X106.529 Y126.136 E.00975
G1 X106.308 Y126.149 E.00911
G1 X106.081 Y126.095 E.00961
G1 X105.911 Y126.022 E.00762
G1 X105.425 Y125.729 E.02336
G1 X105.262 Y125.654 E.00739
G1 X105.111 Y125.622 E.00635
G1 X104.979 Y125.619 E.00544
G1 X104.774 Y125.649 E.00853
G1 X104.565 Y125.719 E.00907
G1 X104.381 Y125.821 E.00866
G1 X104.232 Y125.949 E.00809
G1 X104.066 Y126.171 E.01141
G1 X103.967 Y126.389 E.00986
G1 X103.886 Y126.658 E.01157
G1 X103.835 Y126.989 E.01379
G1 X103.81 Y127.423 E.0179
G1 X103.829 Y127.894 E.01941
G1 X103.879 Y128.236 E.01423
G1 X103.959 Y128.525 E.01235
G1 X104.11 Y128.83 E.01401
G1 X104.28 Y129.027 E.01071
G1 X104.501 Y129.177 E.011
G1 X104.78 Y129.28 E.01224
G1 X105.001 Y129.313 E.0092
G1 X105.145 Y129.311 E.00593
G1 X105.448 Y129.258 E.01266
G1 X105.582 Y129.202 E.00598
G1 X105.629 Y129.17 E.00234
G1 X105.796 Y128.974 E.0106
G1 X105.87 Y128.918 E.00382
M204 S15000
;WIPE_START
G1 F16800
G1 X105.918 Y128.882 E-.01629
G1 X106.116 Y128.806 E-.05757
G1 X106.288 Y128.787 E-.04697
G1 X106.592 Y128.837 E-.08362
G1 X106.823 Y128.953 E-.07016
G1 X107.035 Y129.175 E-.08332
G1 X107.127 Y129.469 E-.08362
G1 X107.081 Y129.672 E-.0565
G1 X107.001 Y129.858 E-.05496
G1 X106.84 Y130.104 E-.0798
G1 X106.628 Y130.323 E-.08273
G1 X106.378 Y130.503 E-.08362
G1 X106.375 Y130.504 E-.00084
;WIPE_END
M204 S10000
G1 X111.008 Y125.76 F21000
G1 E.8 F4800
M204 S5000
G1 F3600
G1 X111.003 Y125.761 E.00021
G1 X110.974 Y125.961 E.00832
G1 X110.976 Y129.025 E.12615
G1 X110.992 Y129.868 E.03471
G1 X110.945 Y130.124 E.01072
G1 X110.854 Y130.336 E.0095
G1 X110.698 Y130.514 E.00974
G1 X110.496 Y130.623 E.00945
G1 X110.204 Y130.661 E.01212
G1 X110.026 Y130.64 E.00738
G1 X109.854 Y130.584 E.00745
G1 X109.626 Y130.415 E.01168
G1 X109.52 Y130.163 E.01126
G1 X109.51 Y129.925 E.00981
G1 X109.55 Y129.424 E.02069
G1 X109.532 Y126.644 E.11446
G1 X109.567 Y126.083 E.02314
G1 X109.544 Y125.921 E.00674
G1 X109.481 Y125.823 E.0048
G1 X109.392 Y125.764 E.0044
G1 X109.242 Y125.723 E.0064
G1 X109.048 Y125.719 E.00799
G1 X108.391 Y125.796 E.02723
G1 X108.153 Y125.774 E.00984
G1 X107.913 Y125.657 E.01099
G1 X107.764 Y125.481 E.00949
G1 X107.674 Y125.263 E.00971
G1 X107.644 Y125.021 E.01004
G1 X107.678 Y124.778 E.0101
G1 X107.781 Y124.563 E.00982
G1 X107.938 Y124.393 E.00953
G1 X108.114 Y124.302 E.00816
G1 X108.331 Y124.261 E.00909
G1 X108.986 Y124.305 E.02703
G1 X112.296 Y124.295 E.13628
G1 X112.456 Y124.322 E.00668
G1 X112.637 Y124.401 E.00813
G1 X112.755 Y124.511 E.00664
G1 X112.86 Y124.697 E.00879
G1 X112.909 Y125.005 E.01284
G1 X112.864 Y125.284 E.01164
G1 X112.755 Y125.489 E.00956
G1 X112.542 Y125.651 E.01102
G1 X112.321 Y125.719 E.00952
G1 X111.987 Y125.755 E.01383
G1 X111.064 Y125.74 E.03801
M204 S15000
;WIPE_START
G1 F16800
G1 X111.008 Y125.76 E-.01614
G1 X111.003 Y125.761 E-.00138
G1 X110.974 Y125.961 E-.05485
G1 X110.976 Y128.641 E-.72763
;WIPE_END
M204 S10000
G1 X116.59 Y127.006 F21000
G1 E.8 F4800
M204 S5000
G1 F3600
G1 X116.678 Y127.035 E.00381
G1 X116.888 Y127.163 E.01013
G1 X117.057 Y127.339 E.01005
G1 X117.213 Y127.633 E.0137
G1 X117.345 Y128.046 E.01785
G1 X117.433 Y128.415 E.01562
G1 X117.461 Y128.733 E.01314
G1 X117.418 Y129.143 E.01697
G1 X117.316 Y129.474 E.01426
G1 X117.102 Y129.89 E.01926
G1 X116.814 Y130.236 E.01853
G1 X116.467 Y130.502 E.018
G1 X116.163 Y130.654 E.01399
G1 X115.738 Y130.768 E.01812
G1 X115.228 Y130.807 E.02106
G1 X114.817 Y130.788 E.01694
G1 X114.45 Y130.72 E.01537
G1 X114.164 Y130.626 E.01239
G1 X113.918 Y130.496 E.01146
G1 X113.716 Y130.326 E.01087
G1 X113.572 Y130.136 E.00982
G1 X113.48 Y129.901 E.01039
G1 X113.447 Y129.641 E.01079
G1 X113.511 Y129.329 E.01311
G1 X113.695 Y129.095 E.01226
G1 X113.961 Y128.966 E.01217
G1 X114.212 Y128.933 E.01042
G1 X114.465 Y128.962 E.01048
G1 X114.674 Y129.04 E.00918
G1 X115.107 Y129.349 E.0219
G1 X115.203 Y129.399 E.00446
G1 X115.327 Y129.416 E.00515
G1 X115.441 Y129.397 E.00476
G1 X115.574 Y129.339 E.00597
G1 X115.687 Y129.254 E.00582
G1 X115.805 Y129.097 E.00809
G1 X115.855 Y128.97 E.00562
G1 X115.876 Y128.765 E.00848
G1 X115.851 Y128.632 E.00557
G1 X115.752 Y128.41 E.01001
G1 X115.633 Y128.255 E.00805
G1 X115.484 Y128.12 E.00828
G1 X115.244 Y127.988 E.01128
G1 X115.032 Y127.927 E.00908
G1 X114.619 Y127.855 E.01726
G1 X114.424 Y127.779 E.00862
G1 X114.304 Y127.697 E.00598
G1 X114.203 Y127.566 E.00681
G1 X114.131 Y127.311 E.01091
G1 X114.137 Y127.136 E.00721
G1 X114.194 Y126.905 E.0098
G1 X114.274 Y126.742 E.00748
G1 X114.431 Y126.56 E.0099
G1 X114.687 Y126.437 E.01169
G1 X115.238 Y126.329 E.02312
G1 X115.365 Y126.262 E.00591
G1 X115.467 Y126.172 E.0056
G1 X115.537 Y126.069 E.00513
G1 X115.579 Y125.927 E.0061
G1 X115.565 Y125.783 E.00596
G1 X115.524 Y125.686 E.00434
G1 X115.46 Y125.608 E.00415
G1 X115.39 Y125.561 E.00347
G1 X115.299 Y125.534 E.00391
G1 X115.082 Y125.544 E.00894
G1 X114.876 Y125.633 E.00924
G1 X114.47 Y125.894 E.01987
G1 X114.315 Y125.957 E.00689
G1 X114.111 Y125.974 E.00843
G1 X113.905 Y125.907 E.00892
G1 X113.696 Y125.744 E.01091
G1 X113.549 Y125.54 E.01035
G1 X113.459 Y125.298 E.01063
G1 X113.465 Y125.012 E.01178
G1 X113.561 Y124.802 E.00951
G1 X113.715 Y124.62 E.00982
G1 X113.93 Y124.457 E.01111
G1 X114.214 Y124.31 E.01317
G1 X114.528 Y124.204 E.01364
G1 X114.88 Y124.142 E.01472
G1 X115.214 Y124.12 E.01378
G1 X115.77 Y124.157 E.02294
G1 X116.103 Y124.228 E.01402
G1 X116.315 Y124.302 E.00924
G1 X116.583 Y124.447 E.01255
G1 X116.747 Y124.574 E.00854
G1 X116.947 Y124.79 E.01212
G1 X117.098 Y125.039 E.01199
G1 X117.2 Y125.381 E.01469
G1 X117.219 Y125.687 E.01262
G1 X117.181 Y126.184 E.02052
G1 X117.09 Y126.516 E.01417
G1 X116.961 Y126.732 E.01036
G1 X116.78 Y126.894 E.01
G1 X116.642 Y126.975 E.00659
M204 S15000
;WIPE_START
G1 F16800
G1 X116.59 Y127.006 E-.01643
G1 X116.678 Y127.035 E-.02515
G1 X116.888 Y127.163 E-.06675
G1 X117.057 Y127.339 E-.06623
G1 X117.213 Y127.633 E-.09034
G1 X117.345 Y128.046 E-.11769
G1 X117.433 Y128.415 E-.10297
G1 X117.461 Y128.733 E-.08665
G1 X117.418 Y129.143 E-.1119
G1 X117.316 Y129.474 E-.09401
G1 X117.279 Y129.546 E-.02188
;WIPE_END
M204 S10000
G1 X118.434 Y124.619 F21000
G1 E.8 F4800
M204 S5000
G1 F3600
G1 X118.628 Y124.428 E.01121
G1 X118.922 Y124.316 E.01295
G1 X119.226 Y124.285 E.01258
G1 X120.841 Y124.319 E.06651
G1 X121.424 Y124.406 E.02427
G1 X121.776 Y124.504 E.01504
G1 X122.153 Y124.69 E.01731
G1 X122.337 Y124.822 E.00932
G1 X122.55 Y125.015 E.01183
G1 X122.709 Y125.194 E.00986
G1 X122.852 Y125.398 E.01026
G1 X123.085 Y125.836 E.02043
G1 X123.181 Y126.096 E.01141
G1 X123.284 Y126.501 E.01721
G1 X123.362 Y127.131 E.02614
G1 X123.366 Y127.657 E.02166
G1 X123.34 Y128.009 E.01453
G1 X123.228 Y128.625 E.02578
G1 X123.036 Y129.153 E.02313
G1 X122.847 Y129.495 E.01609
G1 X122.696 Y129.705 E.01065
G1 X122.355 Y130.054 E.02009
G1 X122.063 Y130.261 E.01474
G1 X121.854 Y130.37 E.0097
G1 X121.646 Y130.456 E.00927
G1 X121.412 Y130.522 E.01001
G1 X120.876 Y130.608 E.02235
G1 X120.351 Y130.635 E.02164
G1 X119.534 Y130.625 E.03364
G1 X119.087 Y130.668 E.01849
G1 X118.865 Y130.648 E.00918
G1 X118.679 Y130.567 E.00835
G1 X118.567 Y130.463 E.00629
G1 X118.456 Y130.282 E.00874
G1 X118.385 Y130.046 E.01015
G1 X118.362 Y129.768 E.01148
G1 X118.38 Y129.163 E.02492
G1 X118.384 Y125.552 E.14867
G1 X118.341 Y124.938 E.02534
G1 X118.363 Y124.782 E.00649
G1 X118.41 Y124.674 E.00485
M204 S15000
;WIPE_START
G1 F16800
G1 X118.434 Y124.619 E-.01629
G1 X118.628 Y124.428 E-.07389
G1 X118.922 Y124.316 E-.08539
G1 X119.226 Y124.285 E-.08294
G1 X120.841 Y124.319 E-.43845
G1 X121.217 Y124.375 E-.10304
;WIPE_END
M204 S10000
G1 X123.019 Y129.756 F21000
G1 E.8 F4800
M204 S5000
G1 F3600
G1 X123.062 Y129.534 E.00931
G1 X123.137 Y129.33 E.00895
G1 X123.25 Y129.137 E.00921
G1 X123.393 Y128.972 E.00899
G1 X123.564 Y128.83 E.00915
G1 X123.758 Y128.721 E.00916
G1 X123.97 Y128.65 E.0092
G1 X124.249 Y128.614 E.01158
G1 X124.516 Y128.639 E.01104
G1 X124.823 Y128.741 E.01332
G1 X125.017 Y128.862 E.00941
G1 X125.181 Y129.009 E.00907
G1 X125.319 Y129.184 E.00918
G1 X125.421 Y129.38 E.0091
G1 X125.49 Y129.595 E.0093
G1 X125.52 Y129.915 E.01323
G1 X125.489 Y130.141 E.00939
G1 X125.421 Y130.35 E.00905
G1 X125.316 Y130.551 E.00934
G1 X125.105 Y130.795 E.01328
G1 X124.925 Y130.929 E.00924
G1 X124.721 Y131.031 E.00939
G1 X124.412 Y131.108 E.01311
G1 X124.183 Y131.113 E.00943
G1 X123.959 Y131.077 E.00934
G1 X123.662 Y130.959 E.01316
G1 X123.475 Y130.831 E.00933
G1 X123.317 Y130.678 E.00906
G1 X123.189 Y130.498 E.00909
G1 X123.095 Y130.299 E.00906
G1 X123.034 Y130.081 E.00932
G1 X123.022 Y129.816 E.01092
M204 S15000
;WIPE_START
G1 F16800
G1 X123.019 Y129.756 E-.01631
G1 X123.062 Y129.534 E-.06138
G1 X123.137 Y129.33 E-.05899
G1 X123.25 Y129.137 E-.0607
G1 X123.393 Y128.972 E-.05926
G1 X123.564 Y128.83 E-.06033
G1 X123.758 Y128.721 E-.0604
G1 X123.97 Y128.65 E-.06068
G1 X124.249 Y128.614 E-.07636
G1 X124.516 Y128.639 E-.07279
G1 X124.823 Y128.741 E-.08781
G1 X125.017 Y128.862 E-.06206
G1 X125.181 Y129.009 E-.05978
G1 X125.188 Y129.018 E-.00315
;WIPE_END
M204 S10000
G1 X102.652 Y121.812 F21000
G1 E.8 F4800
M204 S5000
;TYPE:Perimeter
G1 F3600
G1 X102.74 Y121.729 E.00498
G1 X102.858 Y121.657 E.00569
G1 X103.072 Y121.576 E.00942
G1 X103.343 Y121.533 E.0113
G1 X126.693 Y120.11 E.96313
G1 X127.565 Y120.087 E.03591
G1 X128.425 Y120.112 E.03542
G1 X129.374 Y120.202 E.03925
G1 X130.219 Y120.338 E.03524
G1 X131.124 Y120.542 E.03819
G1 X132.008 Y120.801 E.03793
G1 X133.013 Y121.175 E.04415
G1 X133.703 Y121.483 E.03111
G1 X134.713 Y122.02 E.04709
G1 X135.618 Y122.595 E.04414
G1 X136.291 Y123.089 E.03437
G1 X137.063 Y123.735 E.04144
G1 X137.711 Y124.356 E.03695
G1 X138.299 Y124.996 E.03578
G1 X138.958 Y125.818 E.04338
G1 X139.416 Y126.469 E.03277
G1 X139.873 Y127.224 E.03633
G1 X139.923 Y127.362 E.00604
G1 X139.934 Y127.586 E.00923
G1 X139.87 Y127.783 E.00853
G1 X139.607 Y128.234 E.02149
G1 X139.194 Y128.857 E.03077
G1 X138.64 Y129.59 E.03783
G1 X138.423 Y129.263 E.01616
G1 X138.182 Y129.088 E.01226
G1 X137.802 Y128.945 E.01672
G1 X137.35 Y128.893 E.01873
G1 X138.178 Y127.729 E.05881
G1 X138.495 Y127.229 E.02437
G1 X138.625 Y126.856 E.01626
G1 X138.66 Y126.503 E.0146
G1 X138.634 Y126.224 E.01154
G1 X138.51 Y125.859 E.01587
G1 X138.335 Y125.618 E.01226
G1 X138.036 Y125.391 E.01546
G1 X137.609 Y125.287 E.01809
G1 X135.455 Y125.281 E.08868
G1 X135.119 Y125.301 E.01386
G1 X134.799 Y125.37 E.01348
G1 X134.482 Y125.523 E.01449
G1 X134.258 Y125.758 E.01337
G1 X134.068 Y125.547 E.01169
G1 X133.762 Y125.355 E.01487
G1 X133.386 Y125.268 E.01589
G1 X133.03 Y125.342 E.01497
G1 X132.781 Y125.476 E.01164
G1 X132.542 Y125.708 E.01371
G1 X132.341 Y126.001 E.01463
G1 X132.175 Y126.349 E.01587
G1 X132.029 Y126.768 E.01827
G1 X131.864 Y126.191 E.02471
G1 X131.731 Y125.894 E.0134
G1 X131.509 Y125.616 E.01465
G1 X131.201 Y125.417 E.0151
G1 X130.887 Y125.308 E.01368
G1 X130.528 Y125.279 E.01483
G1 X130.186 Y125.346 E.01435
G1 X129.894 Y125.505 E.01369
G1 X129.648 Y125.821 E.01649
G1 X129.477 Y125.585 E.012
G1 X129.106 Y125.346 E.01817
G1 X128.806 Y125.277 E.01267
G1 X128.503 Y125.299 E.01251
G1 X128.139 Y125.454 E.01629
G1 X127.927 Y125.619 E.01106
G1 X127.669 Y125.9 E.01571
G1 X127.575 Y125.764 E.00681
G1 X127.398 Y125.579 E.01054
G1 X127.122 Y125.388 E.01382
G1 X126.798 Y125.287 E.01397
G1 X126.491 Y125.28 E.01264
G1 X126.041 Y125.42 E.0194
G1 X125.663 Y125.741 E.02042
G1 X125.466 Y126.189 E.02015
G1 X125.489 Y126.655 E.01921
G1 X125.608 Y126.999 E.01499
G1 X126.201 Y128.071 E.05044
G1 X126.326 Y128.26 E.00933
G1 X126.112 Y128.561 E.01521
G1 X125.79 Y129.117 E.02645
G1 X125.697 Y128.94 E.00823
G1 X125.509 Y128.701 E.01252
G1 X125.287 Y128.503 E.01225
G1 X125.016 Y128.333 E.01317
G1 X124.608 Y128.197 E.01771
G1 X124.241 Y128.163 E.01517
G1 X123.868 Y128.211 E.01548
G1 X123.752 Y128.25 E.00504
