; generated by PrusaSlicer 2.7.4+win64 on 2024-06-04 at 06:44:47 UTC


;
;
; 

; external perimeters extrusion width = 0.42mm
; perimeters extrusion width = 0.45mm
; infill extrusion width = 0.45mm
; solid infill extrusion width = 0.42mm
; top infill extrusion width = 0.42mm
; support material extrusion width = 0.42mm
; first layer extrusion width = 0.50mm

; external perimeters extrusion width = 0.42mm
; perimeters extrusion width = 0.45mm
; infill extrusion width = 0.45mm
; solid infill extrusion width = 0.42mm
; top infill extrusion width = 0.42mm
; support material extrusion width = 0.42mm
; first layer extrusion width = 0.50mm

;TYPE:Custom
G9111 bedTemp=65 extruderTemp=230
M117
M900 K0.05
G21 ; set units to millimeters
G90 ; use absolute coordinates
M83 ; use relative distances for extrusion
T0
M107
;LAYER_CHANGE
;Z:0.24
;HEIGHT:0.24
G1 E-.8 F4800
G1 Z.24 F21000
G1 X90.927 Y116.793
G1 Z.24
G1 E.8 F4800
M204 S5000
;TYPE:External perimeter
;WIDTH:0.5
;HEIGHT:0.24
G1 F3600
G1 X171.963 Y123.885 E3.34908
G1 X172.473 Y124.733 E.04074
G1 X172.934 Y125.407 E.03362
G1 X173.448 Y126.113 E.03595
G1 X174.038 Y126.83 E.03823
G1 X174.277 Y127.172 E.01718
G1 X174.491 Y127.53 E.01717
G1 X174.909 Y127.945 E.02425
G1 X175.343 Y128.689 E.03546
G1 X175.457 Y128.844 E.00792
G1 X175.66 Y129.473 E.02721
G1 X175.833 Y129.759 E.01376
G1 X175.956 Y130.497 E.0308
G1 X175.952 Y130.62 E.00507
G1 X175.537 Y131.393 E.03612
G1 X175.115 Y131.613 E.01959
G1 X174.726 Y131.974 E.02185
G1 X174.412 Y132.086 E.01373
G1 X173.797 Y132.426 E.02893
G1 X173.56 Y132.498 E.0102
G1 X172.786 Y132.795 E.03413
G1 X171.634 Y133.141 E.04952
G1 X169.593 Y133.576 E.08592
G1 X165.317 Y134.527 E.18035
G1 X164.269 Y134.783 E.04442
G1 X163.23 Y135.076 E.04445
G1 X162.203 Y135.422 E.04462
G1 X161.188 Y135.83 E.04504
G1 X159.646 Y136.554 E.07014
G1 X159.196 Y136.812 E.02136
G1 X158.759 Y136.998 E.01955
G1 X158.178 Y137.318 E.02731
G1 X157.126 Y137.739 E.04665
G1 X156.025 Y138.068 E.04731
G1 X153.771 Y138.625 E.09559
G1 X152.643 Y138.868 E.04751
G1 X151.567 Y139.074 E.0451
G1 X150.387 Y139.256 E.04916
G1 X149.259 Y139.404 E.04684
G1 X148.076 Y139.532 E.04899
G1 X147.017 Y139.624 E.04376
G1 X145.91 Y139.694 E.04567
G1 X144.657 Y139.739 E.05162
G1 X143.742 Y139.748 E.03767
G1 X142.691 Y139.727 E.04328
G1 X140.675 Y139.628 E.0831
G1 X138.782 Y139.494 E.07813
G1 X138.146 Y139.407 E.02643
G1 X137.809 Y139.429 E.0139
G1 X137.159 Y139.434 E.02676
G1 X136.409 Y139.646 E.03209
G1 X135.782 Y140.03 E.03027
G1 X135.597 Y140.185 E.00994
G1 X135.143 Y140.658 E.02699
G1 X134.793 Y141.141 E.02456
G1 X134.401 Y141.805 E.03175
G1 X133.617 Y143.271 E.06845
G1 X133.164 Y144.049 E.03707
G1 X132.645 Y144.837 E.03885
G1 X132.052 Y145.619 E.04041
G1 X131.39 Y146.386 E.04171
G1 X130.673 Y147.141 E.04287
G1 X129.932 Y147.856 E.04239
G1 X129.103 Y148.593 E.04567
G1 X128.254 Y149.261 E.04448
G1 X127.337 Y149.83 E.04443
G1 X126.111 Y150.436 E.05631
G1 X124.994 Y150.873 E.04938
G1 X124.394 Y151.061 E.02589
G1 X123.955 Y151.161 E.01854
G1 X123.42 Y151.316 E.02293
G1 X122.517 Y151.478 E.03777
G1 X121.711 Y151.563 E.03337
G1 X121.042 Y151.58 E.02755
G1 X120.53 Y151.547 E.02112
G1 X120.179 Y151.473 E.01477
G1 X119.988 Y151.367 E.00899
G1 X119.917 Y151.262 E.00522
G1 X119.908 Y151.102 E.0066
G1 X120.042 Y150.73 E.01628
G1 X120.525 Y149.878 E.04032
G1 X120.908 Y149.263 E.02983
G1 X121.384 Y148.614 E.03314
G1 X123.022 Y146.589 E.10723
G1 X124.044 Y145.204 E.07087
G1 X124.533 Y144.508 E.03502
G1 X124.965 Y143.769 E.03524
G1 X125.286 Y142.965 E.03564
G1 X125.477 Y142.118 E.03575
G1 X125.637 Y140.52 E.06612
G1 X125.634 Y140.393 E.00523
G1 X125.788 Y140.216 E.00966
G1 X125.688 Y139.699 E.02168
G1 X125.162 Y139.069 E.03379
G1 X124.612 Y138.826 E.02476
G1 X124.407 Y138.974 E.01041
G1 X124.189 Y138.956 E.00901
G1 X123.615 Y138.848 E.02405
G1 X123.158 Y138.984 E.01963
G1 X123.085 Y138.983 E.00301
G1 X121.906 Y138.777 E.04928
G1 X120.616 Y138.464 E.05465
G1 X119.382 Y138.101 E.05296
G1 X118.164 Y137.702 E.05277
G1 X115.755 Y136.837 E.10538
G1 X113.331 Y135.902 E.10697
G1 X112.215 Y135.509 E.04871
G1 X109.952 Y134.629 E.09997
G1 X108.421 Y133.979 E.06848
G1 X106.906 Y133.293 E.06847
G1 X104.794 Y132.238 E.0972
G1 X103.892 Y131.723 E.04276
G1 X102.732 Y131.109 E.05404
G1 X102.001 Y130.653 E.03547
G1 X100.729 Y129.898 E.0609
G1 X99.5 Y129.057 E.06131
G1 X98.723 Y128.494 E.0395
G1 X97.608 Y127.62 E.05833
G1 X97.121 Y127.125 E.02859
G1 X96.902 Y126.964 E.01119
G1 X96.433 Y126.505 E.02702
G1 X95.725 Y125.935 E.03742
G1 X94.792 Y125.081 E.05207
G1 X93.675 Y124.012 E.06365
G1 X92.955 Y123.226 E.04389
G1 X92.564 Y122.703 E.02688
G1 X91.593 Y121.725 E.05674
G1 X90.864 Y121.076 E.04018
G1 X90.112 Y120.511 E.03873
G1 X89.332 Y120.049 E.03732
G1 X88.514 Y119.735 E.03607
G1 X87.677 Y119.613 E.03482
G1 X86.869 Y119.735 E.03364
G1 X86.13 Y120.048 E.03304
G1 X85.474 Y120.5 E.0328
G1 X85.202 Y120.735 E.0148
G1 X81.879 Y124.031 E.1927
G1 X81.252 Y124.545 E.03338
G1 X80.577 Y124.959 E.0326
G1 X80.074 Y125.216 E.02326
G1 X79.637 Y125.401 E.01954
G1 X79.329 Y125.45 E.01284
G1 X79.143 Y125.389 E.00806
G1 X79.017 Y125.227 E.00845
G1 X78.942 Y124.9 E.01381
G1 X78.925 Y124.398 E.02068
G1 X78.956 Y123.801 E.02461
G1 X79.06 Y122.946 E.03546
G1 X79.238 Y122.008 E.03931
G1 X79.463 Y121.002 E.04244
G1 X79.667 Y120.336 E.02868
G1 X79.753 Y119.939 E.01672
G1 X80.017 Y119.413 E.02423
G1 X80.196 Y118.89 E.02276
G1 X80.424 Y118.595 E.01535
G1 X80.844 Y117.945 E.03186
G1 X81.725 Y117.263 E.04587
G1 X82.232 Y117.084 E.02214
G1 X82.751 Y116.793 E.0245
G1 X83.71 Y116.423 E.04232
G1 X84.001 Y116.278 E.01339
G1 X84.216 Y116.205 E.00935
G1 X86.762 Y116.428 E.10522
G1 X86.727 Y116.73 E.01252
G1 X86.782 Y117.212 E.01997
G1 X86.941 Y117.655 E.01938
G1 X87.189 Y118.046 E.01906
G1 X87.515 Y118.371 E.01895
G1 X87.906 Y118.62 E.01908
G1 X88.349 Y118.779 E.01938
G1 X88.831 Y118.834 E.01997
G1 X89.312 Y118.779 E.01993
G1 X89.755 Y118.62 E.01938
G1 X90.146 Y118.372 E.01906
G1 X90.472 Y118.046 E.01898
G1 X90.72 Y117.655 E.01906
G1 X90.879 Y117.212 E.01938
G1 X90.92 Y116.852 E.01492
M204 S15000
M204 S10000
G1 X90.92 Y116.852 F21000
G1 X91.323 Y117.277
M204 S5000
;TYPE:Perimeter
G1 F3600
G1 X171.696 Y124.312 E3.32169
G1 X172.096 Y124.976 E.03191
G1 X172.567 Y125.665 E.03436
G1 X173.093 Y126.388 E.03681
G1 X173.68 Y127.102 E.03806
G1 X173.9 Y127.416 E.01578
G1 X174.135 Y127.809 E.01885
G1 X174.551 Y128.222 E.02413
G1 X174.967 Y128.935 E.03399
G1 X175.052 Y129.051 E.00592
G1 X175.249 Y129.66 E.02635
G1 X175.405 Y129.917 E.01238
G1 X175.503 Y130.508 E.02466
G1 X175.207 Y131.059 E.02575
G1 X174.854 Y131.244 E.01641
G1 X174.489 Y131.583 E.02051
G1 X174.227 Y131.676 E.01145
G1 X173.622 Y132.011 E.02847
G1 X173.415 Y132.073 E.0089
G1 X172.641 Y132.37 E.03413
G1 X171.522 Y132.706 E.0481
G1 X165.215 Y134.09 E.26584
G1 X164.154 Y134.349 E.04497
G1 X163.098 Y134.647 E.04517
G1 X162.047 Y135.001 E.04566
G1 X161.009 Y135.419 E.04607
G1 X159.439 Y136.155 E.07139
G1 X158.995 Y136.41 E.02108
G1 X158.563 Y136.594 E.01933
G1 X157.985 Y136.911 E.02714
G1 X156.978 Y137.315 E.04467
G1 X155.907 Y137.636 E.04603
G1 X153.67 Y138.188 E.09486
G1 X152.554 Y138.428 E.047
G1 X151.491 Y138.632 E.04456
G1 X150.324 Y138.812 E.04861
G1 X149.206 Y138.958 E.04642
G1 X148.032 Y139.085 E.04862
G1 X146.983 Y139.176 E.04335
G1 X145.887 Y139.246 E.04522
G1 X144.647 Y139.29 E.05108
G1 X143.744 Y139.299 E.03718
G1 X142.707 Y139.279 E.0427
G1 X140.702 Y139.18 E.08265
G1 X138.829 Y139.047 E.07731
G1 X138.161 Y138.957 E.02775
G1 X137.793 Y138.981 E.01518
G1 X137.095 Y138.986 E.02874
G1 X136.228 Y139.232 E.0371
G1 X135.519 Y139.665 E.0342
G1 X135.29 Y139.857 E.0123
G1 X134.798 Y140.37 E.02926
G1 X134.418 Y140.895 E.02668
G1 X134.01 Y141.585 E.033
G1 X133.225 Y143.052 E.0685
G1 X132.783 Y143.813 E.03623
G1 X132.279 Y144.578 E.03772
G1 X131.703 Y145.336 E.0392
G1 X131.057 Y146.085 E.04072
G1 X130.354 Y146.825 E.04202
G1 X129.627 Y147.527 E.04161
G1 X128.815 Y148.249 E.04474
G1 X127.996 Y148.893 E.04289
G1 X127.122 Y149.436 E.04236
G1 X125.925 Y150.027 E.05496
G1 X124.845 Y150.45 E.04775
G1 X124.277 Y150.628 E.02451
G1 X123.842 Y150.727 E.01837
G1 X123.318 Y150.878 E.02245
G1 X122.454 Y151.034 E.03615
G1 X121.682 Y151.115 E.03196
G1 X121.051 Y151.131 E.02599
G1 X120.591 Y151.101 E.01898
G1 X120.392 Y151.06 E.00837
G1 X120.416 Y150.985 E.00324
G1 X120.91 Y150.107 E.04148
G1 X121.28 Y149.515 E.02874
G1 X121.74 Y148.888 E.03202
G1 X123.377 Y146.863 E.10721
G1 X124.408 Y145.466 E.07148
G1 X124.911 Y144.75 E.03603
G1 X125.369 Y143.966 E.03738
G1 X125.716 Y143.099 E.03845
G1 X125.921 Y142.19 E.03836
G1 X126.084 Y140.559 E.06748
G1 X126.27 Y140.345 E.01167
G1 X126.106 Y139.5 E.03544
G1 X125.439 Y138.702 E.04282
G1 X124.558 Y138.311 E.03968
G1 X124.279 Y138.513 E.01418
G1 X123.591 Y138.387 E.0288
G1 X123.106 Y138.531 E.02083
G1 X121.998 Y138.337 E.04631
G1 X120.732 Y138.031 E.05362
G1 X119.516 Y137.673 E.05219
G1 X118.31 Y137.278 E.05225
G1 X115.912 Y136.417 E.1049
G1 X113.487 Y135.482 E.107
G1 X112.371 Y135.088 E.04873
G1 X110.121 Y134.213 E.09939
G1 X108.601 Y133.568 E.06798
G1 X107.099 Y132.888 E.06788
G1 X105.005 Y131.842 E.09637
G1 X104.108 Y131.33 E.04252
G1 X102.956 Y130.72 E.05367
G1 X100.971 Y129.52 E.0955
G1 X99.758 Y128.69 E.06051
G1 X98.994 Y128.136 E.03885
G1 X97.908 Y127.285 E.0568
G1 X97.415 Y126.785 E.02891
G1 X97.193 Y126.621 E.01136
G1 X96.731 Y126.169 E.02661
G1 X96.017 Y125.595 E.03772
G1 X95.098 Y124.754 E.05129
G1 X93.996 Y123.699 E.06281
G1 X93.301 Y122.94 E.04237
G1 X92.904 Y122.409 E.0273
G1 X91.901 Y121.4 E.05857
G1 X91.149 Y120.728 E.04152
G1 X90.362 Y120.138 E.0405
G1 X89.528 Y119.643 E.03993
G1 X88.628 Y119.298 E.03968
G1 X87.675 Y119.16 E.03965
G1 X86.746 Y119.3 E.03868
G1 X85.914 Y119.652 E.03719
G1 X85.199 Y120.144 E.03573
G1 X84.897 Y120.405 E.01643
G1 X81.578 Y123.698 E.19249
G1 X80.992 Y124.178 E.03119
G1 X80.357 Y124.567 E.03066
G1 X79.884 Y124.809 E.02187
G1 X79.512 Y124.967 E.01664
G1 X79.421 Y124.981 E.00379
G1 X79.389 Y124.842 E.00587
G1 X79.374 Y124.402 E.01813
G1 X79.403 Y123.84 E.02317
G1 X79.503 Y123.015 E.03421
G1 X79.677 Y122.098 E.03843
G1 X79.896 Y121.117 E.04138
G1 X80.101 Y120.449 E.02877
G1 X80.179 Y120.089 E.01517
G1 X80.431 Y119.587 E.02313
G1 X80.597 Y119.105 E.02099
G1 X80.791 Y118.854 E.01306
G1 X81.179 Y118.252 E.02949
G1 X81.942 Y117.662 E.03971
G1 X82.418 Y117.494 E.02078
G1 X82.943 Y117.199 E.02479
G1 X83.891 Y116.834 E.04182
G1 X84.271 Y116.66 E.01721
G1 X86.287 Y116.837 E.08332
G1 X86.343 Y117.314 E.01977
G1 X86.535 Y117.853 E.02356
G1 X86.837 Y118.328 E.02317
G1 X87.233 Y118.723 E.02303
G1 X87.708 Y119.025 E.02317
G1 X88.246 Y119.218 E.02353
G1 X88.831 Y119.286 E.02425
G1 X89.415 Y119.218 E.02421
G1 X89.954 Y119.026 E.02356
G1 X90.428 Y118.724 E.02314
G1 X90.824 Y118.328 E.02306
G1 X91.126 Y117.853 E.02317
G1 X91.303 Y117.334 E.02258
M204 S15000
;WIPE_START
G1 F16800
G1 X91.323 Y117.277 E-.0164
G1 X94.199 Y117.529 E-.7836
;WIPE_END
M204 S10000
G1 X162.139 Y124.794 F21000
G1 E.8 F4800
M204 S5000
;TYPE:External perimeter
G1 F3600
G1 X162.497 Y124.753 E.01484
G1 X163.042 Y124.816 E.02259
G1 X163.543 Y124.995 E.0219
G1 X163.985 Y125.277 E.02159
G1 X164.354 Y125.645 E.02146
G1 X164.635 Y126.087 E.02156
G1 X164.814 Y126.588 E.0219
G1 X164.877 Y127.133 E.02259
G1 X164.814 Y127.678 E.02259
G1 X164.635 Y128.18 E.02194
G1 X164.354 Y128.622 E.02156
G1 X163.985 Y128.99 E.02146
G1 X163.543 Y129.271 E.02156
G1 X163.042 Y129.451 E.02192
G1 X162.497 Y129.514 E.02259
G1 X161.952 Y129.451 E.02259
G1 X161.451 Y129.271 E.02192
G1 X161.009 Y128.99 E.02156
G1 X160.64 Y128.622 E.02146
G1 X160.359 Y128.179 E.0216
G1 X160.18 Y127.678 E.0219
G1 X160.117 Y127.133 E.02259
G1 X160.18 Y126.588 E.02259
G1 X160.359 Y126.087 E.0219
G1 X160.64 Y125.645 E.02156
G1 X161.009 Y125.276 E.02148
G1 X161.451 Y124.995 E.02156
G1 X161.952 Y124.816 E.0219
G1 X162.079 Y124.801 E.00527
M204 S15000
M204 S10000
G1 X162.079 Y124.801 F21000
G1 X162.426 Y124.31
M204 S5000
;TYPE:Perimeter
G1 F3600
G1 X162.497 Y124.302 E.00294
G1 X163.145 Y124.376 E.02685
G1 X163.742 Y124.59 E.02611
G1 X164.268 Y124.925 E.02568
G1 X164.706 Y125.363 E.0255
G1 X165.04 Y125.889 E.02565
G1 X165.254 Y126.486 E.02611
G1 X165.329 Y127.133 E.02682
G1 X165.254 Y127.781 E.02686
G1 X165.04 Y128.378 E.02611
G1 X164.706 Y128.904 E.02565
G1 X164.268 Y129.342 E.0255
G1 X163.742 Y129.677 E.02568
G1 X163.145 Y129.89 E.0261
G1 X162.497 Y129.965 E.02686
G1 X161.85 Y129.89 E.02682
G1 X161.253 Y129.677 E.0261
G1 X160.727 Y129.342 E.02568
G1 X160.288 Y128.904 E.02553
G1 X159.954 Y128.378 E.02565
G1 X159.74 Y127.781 E.02611
G1 X159.665 Y127.133 E.02686
G1 X159.74 Y126.486 E.02682
G1 X159.954 Y125.889 E.02611
G1 X160.288 Y125.363 E.02565
G1 X160.727 Y124.924 E.02556
G1 X161.253 Y124.59 E.02565
G1 X161.85 Y124.376 E.02611
G1 X162.085 Y124.349 E.00974
G1 X162.366 Y124.317 E.01164
M204 S15000
M204 S10000
G1 X162.366 Y124.317 F21000
G1 X162.193 Y123.908
M204 S5000
;TYPE:Gap fill
;WIDTH:0.412086
G1 F3600
G1 X162.517 Y123.906 E.01072
G1 X163.35 Y123.99 E.02771
M204 S15000
;WIPE_START
G1 F16800
G1 X162.517 Y123.906 E-.22725
G1 X162.193 Y123.908 E-.08794
;WIPE_END
G1 E-.48481 F4800
M204 S10000
G1 X161.537 Y123.603 F21000
G1 E.8 F4800
M204 S5000
;TYPE:Solid infill
;WIDTH:0.50051
G1 F3600
G1 X162.016 Y124.082 E.02792
M204 S15000
M204 S10000
G1 X162.016 Y124.082 F21000
G1 X161.581 Y124.282
M204 S5000
G1 F3600
G1 X160.841 Y123.542 E.04314
M204 S15000
M204 S10000
G1 X160.841 Y123.542 F21000
G1 X160.145 Y123.481
M204 S5000
G1 F3600
G1 X161.124 Y124.459 E.05704
M204 S15000
M204 S10000
G1 X161.124 Y124.459 F21000
G1 X160.735 Y124.706
M204 S5000
G1 F3600
G1 X159.449 Y123.42 E.07496
M204 S15000
M204 S10000
G1 X159.449 Y123.42 F21000
G1 X158.754 Y123.359
M204 S5000
G1 F3600
G1 X160.396 Y125.002 E.09574
M204 S15000
M204 S10000
G1 X160.396 Y125.002 F21000
G1 X160.094 Y125.335
M204 S5000
G1 F3600
G1 X158.058 Y123.299 E.11868
M204 S15000
M204 S10000
G1 X158.058 Y123.299 F21000
G1 X157.362 Y123.238
M204 S5000
G1 F3600
G1 X159.847 Y125.723 E.14485
M204 S15000
M204 S10000
G1 X159.847 Y125.723 F21000
G1 X159.662 Y126.173
M204 S5000
G1 F3600
G1 X156.666 Y123.177 E.17464
M204 S15000
M204 S10000
G1 X156.666 Y123.177 F21000
G1 X155.97 Y123.116
M204 S5000
G1 F3600
G1 X159.537 Y126.683 E.20792
M204 S15000
M204 S10000
G1 X159.537 Y126.683 F21000
G1 X159.502 Y127.283
M204 S5000
G1 F3600
G1 X155.274 Y123.055 E.24645
M204 S15000
M204 S10000
G1 X154.578 Y122.994 F21000
M204 S5000
G1 F3600
G1 X159.652 Y128.068 E.29577
M204 S15000
;WIPE_START
G1 F16800
G1 X157.568 Y125.984 E-.8
;WIPE_END
M204 S10000
G1 X170.584 Y124.395 F21000
G1 E.8 F4800
M204 S5000
G1 F3600
G1 X173.82 Y127.631 E.18863
M204 S15000
;WIPE_START
G1 F16800
G1 X171.736 Y125.547 E-.8
;WIPE_END
M204 S10000
G1 X174.987 Y129.433 F21000
G1 E.8 F4800
M204 S5000
G1 F3600
G1 X169.888 Y124.334 E.29722
M204 S15000
M204 S10000
G1 X169.192 Y124.273 F21000
M204 S5000
G1 F3600
G1 X175.3 Y130.381 E.35604
M204 S15000
M204 S10000
G1 X175.3 Y130.381 F21000
G1 X175.122 Y130.838
M204 S5000
G1 F3600
G1 X168.496 Y124.212 E.38624
M204 S15000
M204 S10000
G1 X168.496 Y124.212 F21000
G1 X167.8 Y124.151
M204 S5000
G1 F3600
G1 X174.747 Y131.098 E.40495
M204 S15000
M204 S10000
G1 X174.747 Y131.098 F21000
G1 X174.418 Y131.404
M204 S5000
G1 F3600
G1 X167.104 Y124.09 E.42634
M204 S15000
M204 S10000
G1 X167.104 Y124.09 F21000
G1 X166.408 Y124.029
M204 S5000
G1 F3600
G1 X173.984 Y131.605 E.44161
M204 S15000
M204 S10000
G1 X173.984 Y131.605 F21000
G1 X173.575 Y131.831
M204 S5000
G1 F3600
G1 X165.713 Y123.969 E.45828
M204 S15000
M204 S10000
G1 X165.713 Y123.969 F21000
G1 X165.017 Y123.908
M204 S5000
G1 F3600
G1 X173.108 Y131.999 E.47163
M204 S15000
M204 S10000
G1 X172.649 Y132.175 F21000
M204 S5000
G1 F3600
G1 X164.321 Y123.847 E.48545
M204 S15000
M204 S10000
G1 X164.321 Y123.847 F21000
G1 X163.625 Y123.786
M204 S5000
G1 F3600
G1 X172.165 Y132.326 E.4978
M204 S15000
M204 S10000
G1 X172.165 Y132.326 F21000
G1 X171.676 Y132.472
M204 S5000
G1 F3600
G1 X165.308 Y126.104 E.3712
M204 S15000
M204 S10000
G1 X165.308 Y126.104 F21000
