; generated by PrusaSlicer 2.7.1+win64 on 2024-04-29 at 07:28:54 UTC


;
;
; 

; external perimeters extrusion width = 0.42mm
; perimeters extrusion width = 0.45mm
; infill extrusion width = 0.45mm
; solid infill extrusion width = 0.45mm
; top infill extrusion width = 0.45mm
; first layer extrusion width = 0.50mm

; external perimeters extrusion width = 0.42mm
; perimeters extrusion width = 0.45mm
; infill extrusion width = 0.45mm
; solid infill extrusion width = 0.45mm
; top infill extrusion width = 0.45mm
; first layer extrusion width = 0.50mm

; external perimeters extrusion width = 0.42mm
; perimeters extrusion width = 0.45mm
; infill extrusion width = 0.45mm
; solid infill extrusion width = 0.80mm
; top infill extrusion width = 0.45mm
; first layer extrusion width = 0.50mm

; external perimeters extrusion width = 0.42mm
; perimeters extrusion width = 0.45mm
; infill extrusion width = 0.45mm
; solid infill extrusion width = 0.45mm
; top infill extrusion width = 0.45mm
; first layer extrusion width = 0.50mm

;TYPE:Custom
G9111 bedTemp=60 extruderTemp=240
M117
G21 ; set units to millimeters
G90 ; use absolute coordinates
M82 ; use absolute distances for extrusion
G92 E0
M107
;LAYER_CHANGE
;Z:0.23
;HEIGHT:0.23
; BEFORE_LAYER_CHANGE 0 @ 0.23mm
G1 Z.23 F36000
; AFTER_LAYER_CHANGE 0 @ 0.23mm
G1 E-.4 F9600
G92 E0
G1 X127.864 Y115.205 F36000
G1 E.4 F9600
;TYPE:External perimeter
;WIDTH:0.5
G1 F12000
G1 X127.777 Y115.464 E.41201
G1 X127.481 Y115.97 E.43778
G1 X127.057 Y116.612 E.4716
G1 X126.647 Y117.169 E.502
G1 X126.242 Y117.67 E.53032
G1 X125.838 Y118.127 E.55713
G1 X125.349 Y118.634 E.58809
G1 X124.882 Y119.076 E.61635
G1 X124.318 Y119.561 E.64905
G1 X123.753 Y119.999 E.68047
G1 X123.241 Y120.36 E.70801
G1 X122.725 Y120.691 E.73496
G1 X122.081 Y121.065 E.76769
G1 X121.247 Y121.487 E.80877
G1 X120.358 Y121.866 E.85125
G1 X119.498 Y122.169 E.89133
G1 X118.507 Y122.447 E.93657
G1 X117.554 Y122.645 E.97935
G1 X116.685 Y122.768 E1.01793
G1 X115.782 Y122.842 E1.05775
G1 X114.825 Y122.858 E1.09982
G1 X114.157 Y122.832 E1.1292
G1 X90.792 Y121.41 E2.15807
G1 X90.42 Y121.346 E2.17466
G1 X90.078 Y121.197 E2.19106
G1 X89.91 Y121.08 E2.20006
G1 X89.776 Y120.954 E2.20814
G1 X89.582 Y120.691 E2.2225
G1 X89.493 Y120.508 E2.23144
G1 X89.426 Y120.303 E2.24092
G1 X89.385 Y120.088 E2.25054
G1 X89.371 Y119.875 E2.25992
G1 X89.374 Y110.045 E2.69198
G1 X89.427 Y109.693 E2.70763
G1 X89.493 Y109.493 E2.71689
G1 X89.592 Y109.291 E2.72678
G1 X89.699 Y109.136 E2.73506
G1 X89.842 Y108.98 E2.74436
G1 X89.992 Y108.859 E2.75283
G1 X90.159 Y108.758 E2.76141
G1 X90.461 Y108.643 E2.77561
G1 X90.797 Y108.59 E2.79056
G1 X114.175 Y107.167 E3.82001
G1 X115.067 Y107.141 E3.85923
G1 X116.124 Y107.179 E3.90572
G1 X116.93 Y107.26 E3.94132
G1 X117.747 Y107.39 E3.97768
G1 X118.83 Y107.636 E4.02649
G1 X119.628 Y107.873 E4.06308
G1 X120.68 Y108.263 E4.11239
G1 X121.529 Y108.649 E4.15338
G1 X122.436 Y109.136 E4.19863
G1 X123.155 Y109.583 E4.23584
G1 X124.065 Y110.238 E4.28512
G1 X124.859 Y110.904 E4.33067
G1 X125.527 Y111.545 E4.37136
G1 X126.135 Y112.206 E4.41083
G1 X126.754 Y112.972 E4.45412
G1 X127.286 Y113.725 E4.49464
G1 X127.775 Y114.531 E4.53608
G1 X127.85 Y114.733 E4.54555
G1 X127.885 Y114.97 E4.55608
G1 X127.869 Y115.146 E4.56385
G1 X127.732 Y115.521 F36000
G1 E4.16385 F9600
G92 E0
G1 X123.98 Y116.869 F36000
G1 E.4 F9600
G1 F12000
G1 X124.742 Y116.833 E.43353
G1 X125.196 Y116.884 E.45361
G1 X125.472 Y116.988 E.46657
G1 X125.601 Y117.086 E.47369
G1 X125.72 Y117.253 E.4827
G1 X125.782 Y117.462 E.49228
G1 X125.791 Y117.63 E.49967
G1 X125.759 Y117.83 E.50857
G1 X125.697 Y117.979 E.51566
G1 X125.61 Y118.104 E.52235
G1 X125.445 Y118.228 E.53142
G1 X125.236 Y118.3 E.54114
G1 X124.962 Y118.329 E.55325
G1 X123.231 Y118.324 E.62933
G1 X122.651 Y118.353 E.65485
G1 X122.486 Y118.332 E.66216
G1 X122.296 Y118.258 E.67112
G1 X122.137 Y118.117 E.68046
G1 X122.035 Y117.952 E.68899
G1 X121.951 Y117.649 E.70281
G1 X121.954 Y117.389 E.71424
G1 X122.016 Y117.143 E.72539
G1 X122.14 Y116.887 E.73789
G1 X123.714 Y114.693 E.85657
G1 X123.249 Y114.732 E.87708
G1 X122.654 Y114.695 E.90328
G1 X122.407 Y114.633 E.91447
G1 X122.17 Y114.486 E.92673
G1 X122.028 Y114.251 E.9388
G1 X121.984 Y114.015 E.94935
G1 X122.009 Y113.764 E.96044
G1 X122.137 Y113.496 E.97349
G1 X122.312 Y113.355 E.98337
G1 X122.524 Y113.274 E.99335
G1 X122.961 Y113.23 E1.01265
G1 X125.054 Y113.235 E1.10464
G1 X125.339 Y113.305 E1.11754
G1 X125.511 Y113.433 E1.12696
G1 X125.607 Y113.567 E1.13421
G1 X125.693 Y113.823 E1.14608
G1 X125.708 Y114.085 E1.15761
G1 X125.655 Y114.368 E1.17027
G1 X125.547 Y114.611 E1.18196
G1 X125.305 Y114.981 E1.20139
G1 X124.081 Y116.701 E1.29418
G1 X124.011 Y116.818 E1.30017
G1 X124.409 Y116.853 F36000
G1 E.90017 F9600
G92 E0
G1 X119.564 Y115.601 F36000
G1 E.4 F9600
G1 F12000
G1 X119.717 Y115.098 E.42311
G1 X120.092 Y114.021 E.47324
G1 X120.23 Y113.726 E.48755
G1 X120.386 Y113.498 E.49969
G1 X120.554 Y113.338 E.50989
G1 X120.745 Y113.245 E.51923
G1 X120.952 Y113.234 E.52834
G1 X121.155 Y113.306 E.53781
G1 X121.336 Y113.447 E.54789
G1 X121.477 Y113.636 E.55825
G1 X121.566 Y113.863 E.56897
G1 X121.583 Y114.079 E.57849
G1 X121.512 Y114.372 E.59174
G1 X121.225 Y115.027 E.62317
G1 X121.012 Y115.673 E.65307
G1 X120.06 Y118.333 E.77725
G1 X119.678 Y119.317 E.82364
G1 X119.406 Y119.916 E.85256
G1 X119.287 Y120.116 E.86279
G1 X119.108 Y120.346 E.8756
G1 X118.821 Y120.578 E.89182
G1 X118.545 Y120.714 E.90534
G1 X118.32 Y120.792 E.91581
G1 X118.02 Y120.86 E.92933
G1 X117.767 Y120.871 E.94046
G1 X117.546 Y120.826 E.95037
G1 X117.388 Y120.747 E.95813
G1 X117.19 Y120.542 E.97066
G1 X117.084 Y120.318 E.98155
G1 X117.043 Y120.152 E.98907
G1 X117.034 Y119.994 E.99603
G1 X117.077 Y119.785 E1.00541
G1 X117.195 Y119.612 E1.01461
G1 X117.373 Y119.497 E1.02392
G1 X117.853 Y119.359 E1.04587
G1 X118.006 Y119.291 E1.05323
G1 X118.203 Y119.123 E1.06461
G1 X118.337 Y118.9 E1.07605
G1 X118.555 Y118.33 E1.10287
G1 X118.741 Y117.942 E1.12178
G1 X118.798 Y117.726 E1.1316
G1 X118.758 Y117.519 E1.14087
G1 X118.485 Y116.896 E1.17077
G1 X117.891 Y115.291 E1.24599
G1 X117.59 Y114.56 E1.28074
G1 X117.498 Y114.236 E1.29554
G1 X117.464 Y113.867 E1.31183
G1 X117.522 Y113.585 E1.32448
G1 X117.608 Y113.439 E1.33193
G1 X117.772 Y113.301 E1.34135
G1 X118.048 Y113.23 E1.35388
G1 X118.294 Y113.251 E1.36473
G1 X118.502 Y113.321 E1.37438
G1 X118.703 Y113.453 E1.38495
G1 X118.845 Y113.628 E1.39486
G1 X118.942 Y113.844 E1.40527
G1 X119.128 Y114.492 E1.4349
G1 X119.542 Y115.545 E1.48463
G1 X119.698 Y115.177 F36000
G1 E1.08463 F9600
G92 E0
G1 X127.42 Y115.112 F36000
G1 E.4 F9600
;TYPE:Perimeter
G1 F12000
G1 X127.365 Y115.276 E.4076
G1 X127.098 Y115.732 E.43083
G1 X126.688 Y116.354 E.46357
G1 X126.139 Y117.08 E.50358
G1 X125.927 Y116.768 E.52016
G1 X125.692 Y116.589 E.53314
G1 X125.303 Y116.442 E.55142
G1 X124.854 Y116.392 E.57128
G1 X125.677 Y115.235 E.63369
G1 X125.944 Y114.827 E.65512
G1 X126.088 Y114.503 E.6707
G1 X126.161 Y114.115 E.68805
G1 X126.14 Y113.737 E.70469
G1 X126.012 Y113.36 E.72219
G1 X125.837 Y113.114 E.73546
G1 X125.534 Y112.889 E.75205
G1 X125.109 Y112.785 E.77128
G1 X122.939 Y112.779 E.86666
G1 X122.42 Y112.831 E.88959
G1 X122.084 Y112.959 E.90539
G1 X121.775 Y113.21 E.92289
G1 X121.754 Y113.254 E.92503
G1 X121.66 Y113.129 E.9319
G1 X121.375 Y112.907 E.94778
G1 X121.018 Y112.778 E.96446
G1 X120.629 Y112.8 E.98159
G1 X120.294 Y112.963 E.99796
G1 X120.041 Y113.204 E1.01332
G1 X119.837 Y113.502 E1.02919
G1 X119.674 Y113.85 E1.04608
G1 X119.53 Y114.262 E1.06526
G1 X119.366 Y113.689 E1.09146
G1 X119.232 Y113.389 E1.1059
G1 X119.008 Y113.114 E1.12149
G1 X118.7 Y112.912 E1.13768
G1 X118.386 Y112.807 E1.15223
G1 X118.01 Y112.775 E1.16882
G1 X117.561 Y112.89 E1.18919
G1 X117.259 Y113.144 E1.20653
G1 X117.153 Y113.324 E1.21571
G1 X116.976 Y113.081 E1.22892
G1 X116.56 Y112.815 E1.25062
G1 X116.055 Y112.773 E1.27289
G1 X115.627 Y112.958 E1.29338
G1 X115.351 Y113.187 E1.30914
G1 X115.173 Y113.402 E1.32141
G1 X115.07 Y113.252 E1.32941
G1 X114.833 Y113.023 E1.3439
G1 X114.622 Y112.89 E1.35486
G1 X114.382 Y112.803 E1.36608
G1 X114.081 Y112.775 E1.37937
G1 X113.784 Y112.827 E1.39262
G1 X113.516 Y112.942 E1.40544
G1 X113.16 Y113.238 E1.42579
G1 X112.964 Y113.694 E1.44761
G1 X112.989 Y114.155 E1.4679
G1 X113.105 Y114.497 E1.48377
G1 X113.699 Y115.572 E1.53775
G1 X113.824 Y115.76 E1.54767
G1 X113.609 Y116.063 E1.564
G1 X113.293 Y116.616 E1.59199
G1 X113.11 Y116.315 E1.60747
G1 X112.903 Y116.094 E1.62078
G1 X112.664 Y115.916 E1.63388
G1 X112.395 Y115.78 E1.64713
G1 X112.096 Y115.692 E1.66083
G1 X111.744 Y115.661 E1.67636
G1 X111.37 Y115.707 E1.69292
G1 X111.253 Y115.747 E1.69835
G1 X111.306 Y115.379 E1.71469
G1 X111.322 Y114.98 E1.73224
G1 X111.3 Y114.425 E1.75665
G1 X111.196 Y113.769 E1.78584
G1 X111.107 Y113.448 E1.80048
G1 X110.939 Y113.024 E1.82053
G1 X110.649 Y112.529 E1.84575
G1 X110.32 Y112.145 E1.86798
G1 X109.9 Y111.809 E1.89162
G1 X109.43 Y111.58 E1.9146
G1 X108.883 Y111.437 E1.93945
G1 X108.374 Y111.37 E1.96202
G1 X106.708 Y111.333 E2.03526
G1 X106.315 Y111.374 E2.05263
G1 X105.879 Y111.542 E2.07317
G1 X105.52 Y111.893 E2.09524
G1 X105.386 Y112.374 E2.11719
G1 X105.434 Y113.067 E2.14772
G1 X105.429 Y116.658 E2.30556
G1 X105.411 Y117.282 E2.333
G1 X105.442 Y117.631 E2.3484
G1 X105.541 Y117.966 E2.36375
G1 X105.726 Y118.27 E2.37939
G1 X105.998 Y118.491 E2.39479
G1 X106.273 Y118.594 E2.4077
G1 X106.591 Y118.62 E2.42172
G1 X107.053 Y118.577 E2.44211
G1 X107.86 Y118.585 E2.47758
G1 X108.423 Y118.556 E2.50236
G1 X109.027 Y118.458 E2.52926
G1 X109.536 Y118.287 E2.55286
G1 X109.906 Y118.079 E2.57152
G1 X110.158 Y117.886 E2.58547
G1 X110.221 Y118.081 E2.59448
G1 X110.381 Y118.353 E2.60835
G1 X110.587 Y118.593 E2.62225
G1 X110.924 Y118.846 E2.64077
G1 X111.215 Y118.976 E2.65478
G1 X111.505 Y119.047 E2.6679
G1 X111.805 Y119.067 E2.68112
G1 X112.103 Y119.035 E2.69429
G1 X112.409 Y118.945 E2.70831
G1 X112.776 Y118.74 E2.72679
G1 X113.013 Y118.528 E2.74077
G1 X113.15 Y118.352 E2.75057
G1 X113.289 Y118.516 E2.76002
G1 X113.708 Y118.746 E2.78103
G1 X114.214 Y118.796 E2.80338
G1 X114.658 Y118.592 E2.82486
G1 X114.914 Y118.337 E2.84074
G1 X115.113 Y118.056 E2.85587
G1 X115.399 Y118.467 E2.87788
G1 X115.695 Y118.688 E2.89412
G1 X116.059 Y118.799 E2.91085
G1 X116.438 Y118.79 E2.92751
G1 X116.809 Y118.669 E2.94466
G1 X117.168 Y118.38 E2.96492
G1 X117.354 Y118.008 E2.9832
G1 X117.402 Y117.624 E3.00021
G1 X117.344 Y117.24 E3.01728
G1 X117.17 Y116.851 E3.03601
G1 X116.49 Y115.715 E3.0942
G1 X116.53 Y115.616 E3.09889
G1 X117.132 Y114.598 E3.15087
G1 X117.471 Y115.455 E3.19138
G1 X118.067 Y117.064 E3.2668
G1 X118.343 Y117.711 E3.29772
G1 X118.14 Y118.152 E3.31906
G1 X117.93 Y118.702 E3.34494
G1 X117.842 Y118.849 E3.35247
G1 X117.698 Y118.934 E3.35982
G1 X117.184 Y119.083 E3.38334
G1 X116.874 Y119.283 E3.39956
G1 X116.653 Y119.605 E3.41673
G1 X116.581 Y119.962 E3.43274
G1 X116.596 Y120.219 E3.44406
G1 X116.657 Y120.47 E3.45541
G1 X116.815 Y120.802 E3.47157
G1 X117.118 Y121.116 E3.49075
G1 X117.398 Y121.256 E3.50451
G1 X117.732 Y121.324 E3.51949
G1 X118.08 Y121.308 E3.5348
G1 X118.444 Y121.226 E3.5512
G1 X118.719 Y121.131 E3.56399
G1 X119.065 Y120.96 E3.58095
G1 X119.431 Y120.665 E3.60161
G1 X119.66 Y120.371 E3.61799
G1 X119.807 Y120.125 E3.63059
G1 X120.094 Y119.492 E3.66114
G1 X120.482 Y118.491 E3.70833
G1 X121.438 Y115.82 E3.83302
G1 X121.646 Y115.188 E3.86226
G1 X121.824 Y114.784 E3.88166
G1 X121.84 Y114.811 E3.88304
G1 X122.229 Y115.053 E3.90318
G1 X122.585 Y115.142 E3.91931
G1 X122.827 Y115.157 E3.92997
G1 X121.751 Y116.656 E4.01107
G1 X121.591 Y116.988 E4.02727
G1 X121.504 Y117.331 E4.04282
G1 X121.5 Y117.708 E4.05939
G1 X121.618 Y118.135 E4.07886
G1 X121.789 Y118.41 E4.09309
G1 X122.057 Y118.648 E4.10884
G1 X122.375 Y118.772 E4.12384
G1 X122.634 Y118.805 E4.13532
G1 X123.242 Y118.775 E4.16208
G1 X124.537 Y118.778 E4.219
G1 X124.033 Y119.211 E4.24821
G1 X123.485 Y119.636 E4.27869
G1 X122.989 Y119.986 E4.30537
G1 X122.49 Y120.307 E4.33145
G1 X121.866 Y120.668 E4.36314
G1 X121.056 Y121.078 E4.40304
G1 X120.195 Y121.446 E4.4442
G1 X119.362 Y121.739 E4.48301
G1 X118.4 Y122.009 E4.52693
G1 X117.476 Y122.201 E4.56841
G1 X116.635 Y122.32 E4.60574
G1 X115.76 Y122.392 E4.64433
G1 X114.829 Y122.407 E4.68526
G1 X114.179 Y122.382 E4.71385
G1 X90.833 Y120.961 E5.74189
G1 X90.551 Y120.914 E5.75446
G1 X90.311 Y120.811 E5.76594
G1 X90.115 Y120.654 E5.77698
G1 X89.969 Y120.457 E5.78776
G1 X89.863 Y120.191 E5.80035
G1 X89.822 Y119.86 E5.81501
G1 X89.822 Y117.139 E5.93461
G1 X89.994 Y117.427 E5.94935
G1 X90.203 Y117.701 E5.9645
G1 X90.41 Y117.921 E5.97778
G1 X90.747 Y118.2 E5.99701
G1 X91.226 Y118.475 E6.02129
G1 X91.518 Y118.59 E6.03508
G1 X91.842 Y118.68 E6.04986
G1 X92.155 Y118.733 E6.06381
G1 X92.633 Y118.758 E6.08485
G1 X93.086 Y118.728 E6.1048
G1 X93.494 Y118.649 E6.12307
G1 X93.868 Y118.515 E6.14053
G1 X94.119 Y118.384 E6.15297
G1 X94.425 Y118.165 E6.16951
G1 X94.701 Y117.878 E6.18701
G1 X94.962 Y117.451 E6.20901
G1 X95.1 Y116.971 E6.23096
G1 X94.935 Y116.439 E6.25544
G1 X94.585 Y116.075 E6.27764
G1 X94.144 Y115.876 E6.29891
G1 X93.763 Y115.832 E6.31577
G1 X93.42 Y115.889 E6.33105
G1 X93.182 Y115.997 E6.34254
G1 X92.987 Y116.143 E6.35325
G1 X92.836 Y116.32 E6.36348
G1 X92.575 Y116.362 E6.3751
G1 X92.346 Y116.329 E6.38527
G1 X92.174 Y116.253 E6.39354
G1 X92.058 Y116.163 E6.39999
G1 X91.957 Y116.03 E6.40733
G1 X91.885 Y115.873 E6.41492
G1 X91.822 Y115.644 E6.42536
G1 X91.78 Y115.353 E6.43828
G1 X91.763 Y114.925 E6.45711
G1 X91.784 Y114.536 E6.47423
G1 X91.828 Y114.257 E6.48664
G1 X91.89 Y114.047 E6.49626
G1 X91.957 Y113.903 E6.50324
G1 X92.064 Y113.758 E6.51116
G1 X92.25 Y113.633 E6.52101
G1 X92.368 Y113.593 E6.52649
G1 X92.552 Y113.572 E6.53463
G1 X92.628 Y113.589 E6.53805
G1 X93.314 Y113.977 E6.57269
G1 X93.652 Y114.084 E6.58827
G1 X94.014 Y114.103 E6.6042
G1 X94.39 Y113.988 E6.62148
G1 X94.687 Y113.761 E6.63791
G1 X94.867 Y113.526 E6.65092
G1 X94.958 Y113.318 E6.6609
G1 X95.036 Y113.434 E6.66704
G1 X95.418 Y113.682 E6.68706
G1 X95.801 Y113.75 E6.70416
G1 X96.611 Y113.669 E6.73994
G1 X96.582 Y114.131 E6.76029
G1 X96.599 Y116.915 E6.88266
G1 X96.556 Y117.617 E6.91357
G1 X96.633 Y117.95 E6.92859
G1 X96.801 Y118.237 E6.94321
G1 X97.176 Y118.51 E6.9636
G1 X97.673 Y118.621 E6.98598
G1 X98.141 Y118.558 E7.00674
G1 X98.484 Y118.371 E7.02391
G1 X98.739 Y118.083 E7.04082
G1 X98.881 Y117.756 E7.05649
G1 X98.943 Y117.407 E7.07207
G1 X98.927 Y113.697 E7.23514
G1 X99.507 Y113.706 E7.26064
G1 X99.912 Y113.664 E7.27854
G1 X100.253 Y113.557 E7.29425
G1 X100.608 Y113.286 E7.31388
G1 X100.639 Y113.229 E7.31673
G1 X100.867 Y113.558 E7.33432
G1 X101.188 Y113.811 E7.35228
G1 X101.472 Y113.903 E7.3654
G1 X101.396 Y113.99 E7.37048
G1 X101.269 Y114.247 E7.38308
G1 X101.183 Y114.59 E7.39862
G1 X101.19 Y114.956 E7.41471
G1 X101.325 Y115.343 E7.43273
G1 X101.663 Y115.663 E7.45319
G1 X101.998 Y115.79 E7.46894
G1 X102.571 Y115.906 E7.49464
G1 X102.681 Y115.961 E7.50005
G1 X102.843 Y116.115 E7.50987
G1 X102.919 Y116.296 E7.5185
G1 X102.903 Y116.39 E7.52269
G1 X102.825 Y116.452 E7.52707
G1 X102.387 Y116.137 E7.55078
G1 X102.068 Y116.02 E7.56571
G1 X101.692 Y115.977 E7.58234
G1 X101.226 Y116.06 E7.60314
G1 X100.811 Y116.32 E7.62466
G1 X100.547 Y116.758 E7.64714
G1 X100.495 Y117.25 E7.66889
G1 X100.58 Y117.644 E7.68661
G1 X100.791 Y118.032 E7.70602
G1 X101.071 Y118.305 E7.72321
G1 X101.38 Y118.492 E7.73909
G1 X101.742 Y118.63 E7.75612
G1 X102.12 Y118.715 E7.77315
G1 X102.417 Y118.749 E7.78629
G1 X102.88 Y118.756 E7.80664
G1 X103.323 Y118.712 E7.82621
G1 X103.833 Y118.573 E7.84944
G1 X104.313 Y118.319 E7.87331
G1 X104.725 Y117.966 E7.89716
G1 X105.05 Y117.525 E7.92124
G1 X105.242 Y117.128 E7.94062
G1 X105.385 Y116.613 E7.96411
G1 X105.412 Y116.104 E7.98651
G1 X105.353 Y115.707 E8.00415
G1 X105.221 Y115.228 E8.02599
G1 X105.088 Y114.858 E8.04327
G1 X104.916 Y114.562 E8.05832
G1 X104.836 Y114.479 E8.06339
G1 X105.009 Y114.2 E8.07782
G1 X105.128 Y113.76 E8.09785
G1 X105.171 Y113.188 E8.12306
G1 X105.147 Y112.804 E8.13997
G1 X105.016 Y112.355 E8.16053
