; generated by PrusaSlicer 2.6.0-alpha5+win64 on 2024-05-29 at 09:20:59 UTC


;
;
; 

; external perimeters extrusion width = 0.48mm
; perimeters extrusion width = 0.42mm
; infill extrusion width = 0.45mm
; solid infill extrusion width = 0.50mm
; top infill extrusion width = 0.50mm
; first layer extrusion width = 0.50mm

; external perimeters extrusion width = 0.48mm
; perimeters extrusion width = 0.42mm
; infill extrusion width = 0.45mm
; solid infill extrusion width = 0.80mm
; top infill extrusion width = 0.50mm
; first layer extrusion width = 0.50mm

; external perimeters extrusion width = 0.48mm
; perimeters extrusion width = 0.42mm
; infill extrusion width = 0.45mm
; solid infill extrusion width = 0.50mm
; top infill extrusion width = 0.50mm
; first layer extrusion width = 0.50mm

M107
;TYPE:Custom
G9111 bedTemp=60 extruderTemp=255
M117
M109 S255 ; set temperature and wait for it to be reached
G21 ; set units to millimeters
G90 ; use absolute coordinates
M82 ; use absolute distances for extrusion
G92 E0
M107
;LAYER_CHANGE
;Z:0.27
;HEIGHT:0.27
; BEFORE_LAYER_CHANGE 0 @ 0.27mm
G1 Z.27 F18000
; AFTER_LAYER_CHANGE 0 @ 0.27mm
G1 E-.8 F7200
G92 E0
G1 X102.568 Y133.707 F18000
G1 E.8 F7200
;TYPE:External perimeter
;WIDTH:0.5
G1 F9000
G1 X102.401 Y133.591 E.81009
G1 X102.265 Y133.463 E.81936
G1 X102.073 Y133.202 E.83544
G1 X101.983 Y133.018 E.8456
G1 X101.916 Y132.814 E.85625
G1 X101.875 Y132.595 E.86731
G1 X101.861 Y132.38 E.878
G1 X101.865 Y122.53 E1.36678
G1 X101.918 Y122.182 E1.38425
G1 X101.983 Y121.982 E1.39469
G1 X102.081 Y121.783 E1.4057
G1 X102.189 Y121.626 E1.41516
G1 X102.331 Y121.471 E1.42559
G1 X102.482 Y121.348 E1.43525
G1 X102.65 Y121.247 E1.44498
G1 X102.951 Y121.133 E1.46095
G1 X103.287 Y121.079 E1.47784
G1 X126.673 Y119.652 E2.64046
G1 X127.562 Y119.627 E2.68459
G1 X128.624 Y119.664 E2.73732
G1 X129.429 Y119.746 E2.77747
G1 X130.248 Y119.875 E2.81861
G1 X131.332 Y120.121 E2.87377
G1 X132.135 Y120.359 E2.91533
G1 X133.186 Y120.749 E2.97096
G1 X134.04 Y121.137 E3.01751
G1 X134.948 Y121.624 E3.06864
G1 X135.669 Y122.073 E3.11079
G1 X136.581 Y122.728 E3.16651
G1 X137.375 Y123.394 E3.21794
G1 X138.046 Y124.038 E3.26409
G1 X138.655 Y124.7 E3.30873
G1 X139.276 Y125.467 E3.3577
G1 X139.808 Y126.22 E3.40345
G1 X140.299 Y127.029 E3.45041
G1 X140.375 Y127.233 E3.46121
G1 X140.41 Y127.47 E3.4731
G1 X140.389 Y127.705 E3.48481
G1 X140.301 Y127.965 E3.49843
G1 X140.004 Y128.473 E3.52763
G1 X139.579 Y129.116 E3.56588
G1 X139.167 Y129.675 E3.60034
G1 X138.762 Y130.176 E3.63231
G1 X138.356 Y130.635 E3.66272
G1 X137.865 Y131.143 E3.69778
G1 X137.398 Y131.586 E3.72972
G1 X136.833 Y132.071 E3.76667
G1 X136.266 Y132.51 E3.80225
G1 X135.753 Y132.872 E3.83341
G1 X135.235 Y133.204 E3.86394
G1 X134.59 Y133.578 E3.90094
G1 X133.755 Y134 E3.94737
G1 X132.863 Y134.381 E3.9955
G1 X131.945 Y134.701 E4.04374
G1 X131.01 Y134.961 E4.0919
G1 X130.056 Y135.159 E4.14025
G1 X129.183 Y135.283 E4.18401
G1 X128.279 Y135.356 E4.22901
G1 X127.323 Y135.372 E4.27646
G1 X126.651 Y135.346 E4.30983
G1 X103.288 Y133.921 E5.47131
G1 X102.907 Y133.855 E5.4905
G1 X102.621 Y133.735 E5.50589
G1 X102.564 Y133.504 F18000
G1 E4.70589 F7200
G92 E0
G1 X136.48 Y129.369 F18000
G1 E.8 F7200
G1 F9000
G1 X137.242 Y129.333 E.83785
G1 X137.696 Y129.384 E.86052
G1 X137.972 Y129.488 E.87516
G1 X138.101 Y129.586 E.8832
G1 X138.22 Y129.753 E.89338
G1 X138.282 Y129.962 E.9042
G1 X138.291 Y130.13 E.91255
G1 X138.259 Y130.33 E.9226
G1 X138.197 Y130.479 E.93061
G1 X138.11 Y130.604 E.93817
G1 X137.945 Y130.728 E.94841
G1 X137.736 Y130.8 E.95938
G1 X137.462 Y130.829 E.97305
G1 X135.731 Y130.824 E1.05895
G1 X135.151 Y130.853 E1.08777
G1 X134.986 Y130.832 E1.09602
G1 X134.796 Y130.758 E1.10614
G1 X134.637 Y130.617 E1.11669
G1 X134.535 Y130.452 E1.12632
G1 X134.451 Y130.149 E1.14192
G1 X134.454 Y129.889 E1.15482
G1 X134.516 Y129.643 E1.16741
G1 X134.64 Y129.387 E1.18153
G1 X136.214 Y127.193 E1.31552
G1 X135.749 Y127.232 E1.33868
G1 X135.154 Y127.195 E1.36826
G1 X134.907 Y127.133 E1.3809
G1 X134.67 Y126.986 E1.39474
G1 X134.528 Y126.751 E1.40836
G1 X134.484 Y126.515 E1.42027
G1 X134.509 Y126.264 E1.43279
G1 X134.637 Y125.996 E1.44753
G1 X134.812 Y125.855 E1.45868
G1 X135.025 Y125.773 E1.47001
G1 X135.472 Y125.73 E1.49229
G1 X137.554 Y125.735 E1.5956
G1 X137.839 Y125.805 E1.61016
G1 X138.011 Y125.933 E1.6208
G1 X138.107 Y126.067 E1.62898
G1 X138.193 Y126.323 E1.64238
G1 X138.208 Y126.585 E1.6554
G1 X138.155 Y126.868 E1.66969
G1 X138.047 Y127.111 E1.68289
G1 X137.805 Y127.481 E1.70483
G1 X136.511 Y129.318 E1.81633
G1 X136.855 Y129.231 F18000
G1 E1.01633 F7200
G92 E0
G1 X132.064 Y128.101 F18000
G1 E.8 F7200
G1 F9000
G1 X132.217 Y127.598 E.82609
G1 X132.592 Y126.521 E.88268
G1 X132.73 Y126.226 E.89884
G1 X132.886 Y125.998 E.91255
G1 X133.054 Y125.838 E.92406
G1 X133.245 Y125.745 E.9346
G1 X133.452 Y125.734 E.94489
G1 X133.655 Y125.806 E.95558
G1 X133.836 Y125.947 E.96697
G1 X133.977 Y126.136 E.97867
G1 X134.066 Y126.363 E.99077
G1 X134.083 Y126.579 E1.00152
G1 X134.012 Y126.872 E1.01648
G1 X133.725 Y127.527 E1.05197
G1 X133.512 Y128.173 E1.08572
G1 X132.56 Y130.833 E1.22591
G1 X132.178 Y131.817 E1.27829
G1 X131.906 Y132.416 E1.31093
G1 X131.787 Y132.616 E1.32248
G1 X131.608 Y132.846 E1.33694
G1 X131.321 Y133.078 E1.35525
G1 X131.045 Y133.214 E1.37052
G1 X130.82 Y133.292 E1.38234
G1 X130.52 Y133.36 E1.3976
G1 X130.267 Y133.371 E1.41017
G1 X130.046 Y133.326 E1.42136
G1 X129.888 Y133.247 E1.43013
G1 X129.69 Y133.042 E1.44427
G1 X129.584 Y132.818 E1.45657
G1 X129.543 Y132.652 E1.46505
G1 X129.534 Y132.494 E1.4729
G1 X129.577 Y132.285 E1.48349
G1 X129.695 Y132.112 E1.49388
G1 X129.873 Y131.997 E1.5044
G1 X130.353 Y131.859 E1.52918
G1 X130.506 Y131.791 E1.53749
G1 X130.703 Y131.623 E1.55034
G1 X130.837 Y131.4 E1.56325
G1 X131.055 Y130.83 E1.59353
G1 X131.241 Y130.442 E1.61488
G1 X131.298 Y130.226 E1.62597
G1 X131.258 Y130.019 E1.63643
G1 X130.985 Y129.396 E1.67018
G1 X130.391 Y127.791 E1.7551
G1 X130.09 Y127.06 E1.79433
G1 X129.998 Y126.736 E1.81104
G1 X129.964 Y126.367 E1.82943
G1 X130.022 Y126.085 E1.84372
G1 X130.108 Y125.939 E1.85213
G1 X130.272 Y125.801 E1.86277
G1 X130.548 Y125.73 E1.87691
G1 X130.794 Y125.751 E1.88916
G1 X131.002 Y125.821 E1.90005
G1 X131.203 Y125.953 E1.91198
G1 X131.345 Y126.128 E1.92316
G1 X131.442 Y126.344 E1.93491
G1 X131.628 Y126.992 E1.96836
G1 X132.039 Y128.046 E2.0245
G1 X132.097 Y127.702 F18000
G1 E1.2245 F7200
G92 E0
G1 X102.797 Y133.328 F18000
G1 E.8 F7200
;TYPE:Perimeter
G1 F9000
G1 X102.597 Y133.168 E.81271
G1 X102.453 Y132.972 E.82478
G1 X102.346 Y132.704 E.8391
G1 X102.315 Y132.54 E.84738
G1 X102.304 Y129.591 E.99372
G1 X102.496 Y129.915 E1.01241
G1 X102.709 Y130.195 E1.02987
G1 X102.916 Y130.415 E1.04486
G1 X103.251 Y130.693 E1.06646
G1 X103.729 Y130.967 E1.0938
G1 X104.02 Y131.082 E1.10933
G1 X104.343 Y131.172 E1.12597
G1 X104.656 Y131.224 E1.14171
G1 X105.133 Y131.249 E1.16541
G1 X105.585 Y131.22 E1.18789
G1 X105.992 Y131.14 E1.20847
G1 X106.365 Y131.008 E1.2281
G1 X106.614 Y130.877 E1.24206
G1 X106.919 Y130.659 E1.26066
G1 X107.195 Y130.372 E1.28042
G1 X107.454 Y129.948 E1.30507
G1 X107.591 Y129.471 E1.3297
G1 X107.427 Y128.944 E1.35709
G1 X107.08 Y128.582 E1.38197
G1 X106.641 Y128.384 E1.40587
G1 X106.264 Y128.34 E1.4247
G1 X105.923 Y128.397 E1.44186
G1 X105.687 Y128.505 E1.45474
G1 X105.493 Y128.649 E1.46673
G1 X105.342 Y128.826 E1.47828
G1 X105.17 Y128.865 E1.48703
G1 X104.984 Y128.866 E1.49626
G1 X104.843 Y128.837 E1.5034
G1 X104.669 Y128.761 E1.51282
G1 X104.552 Y128.669 E1.52021
G1 X104.45 Y128.534 E1.52861
G1 X104.377 Y128.376 E1.53725
G1 X104.313 Y128.146 E1.5491
G1 X104.272 Y127.854 E1.56373
G1 X104.254 Y127.425 E1.58504
G1 X104.276 Y127.035 E1.60442
G1 X104.32 Y126.755 E1.61848
G1 X104.382 Y126.544 E1.62939
G1 X104.45 Y126.398 E1.63738
G1 X104.558 Y126.252 E1.64639
G1 X104.635 Y126.187 E1.65139
G1 X104.866 Y126.084 E1.66394
G1 X105.051 Y126.064 E1.67317
G1 X105.132 Y126.081 E1.67728
G1 X105.818 Y126.469 E1.71639
G1 X106.153 Y126.575 E1.73383
G1 X106.513 Y126.595 E1.75172
G1 X106.886 Y126.48 E1.77109
G1 X107.181 Y126.255 E1.7895
G1 X107.359 Y126.022 E1.80405
G1 X107.457 Y125.8 E1.81609
G1 X107.542 Y125.928 E1.82371
G1 X107.922 Y126.174 E1.84617
G1 X108.301 Y126.241 E1.86527
G1 X109.12 Y126.161 E1.9061
G1 X109.09 Y126.632 E1.92952
G1 X109.107 Y129.415 E2.06762
G1 X109.065 Y130.116 E2.10247
G1 X109.141 Y130.447 E2.11932
G1 X109.308 Y130.731 E2.13567
G1 X109.68 Y131.002 E2.15851
G1 X110.173 Y131.112 E2.18358
G1 X110.638 Y131.05 E2.20686
G1 X110.978 Y130.864 E2.22609
G1 X111.232 Y130.578 E2.24507
G1 X111.372 Y130.253 E2.26263
G1 X111.435 Y129.906 E2.28013
G1 X111.419 Y126.188 E2.46463
G1 X112.006 Y126.198 E2.49376
G1 X112.41 Y126.155 E2.51392
G1 X112.749 Y126.049 E2.53155
G1 X113.101 Y125.781 E2.5535
G1 X113.14 Y125.708 E2.55761
G1 X113.374 Y126.052 E2.57826
G1 X113.693 Y126.303 E2.5984
G1 X113.987 Y126.399 E2.61375
G1 X113.903 Y126.495 E2.62008
G1 X113.777 Y126.75 E2.63419
G1 X113.692 Y127.091 E2.65163
G1 X113.699 Y127.455 E2.6697
G1 X113.833 Y127.838 E2.68983
G1 X114.168 Y128.155 E2.71272
G1 X114.5 Y128.282 E2.73036
G1 X115.074 Y128.398 E2.75942
G1 X115.185 Y128.454 E2.76559
G1 X115.35 Y128.61 E2.77686
G1 X115.414 Y128.728 E2.78352
G1 X115.428 Y128.796 E2.78697
G1 X115.411 Y128.894 E2.79191
G1 X115.324 Y128.961 E2.79736
G1 X114.883 Y128.644 E2.82431
G1 X114.566 Y128.529 E2.84104
G1 X114.192 Y128.486 E2.85972
G1 X113.729 Y128.568 E2.88305
G1 X113.317 Y128.826 E2.90717
G1 X113.056 Y129.26 E2.9323
G1 X113.004 Y129.749 E2.9567
G1 X113.088 Y130.141 E2.97659
G1 X113.298 Y130.527 E2.9984
G1 X113.576 Y130.798 E3.01767
G1 X113.884 Y130.985 E3.03555
G1 X114.245 Y131.121 E3.05469
G1 X114.621 Y131.206 E3.07382
G1 X114.917 Y131.24 E3.0886
G1 X115.379 Y131.248 E3.11153
G1 X115.821 Y131.204 E3.13357
G1 X116.33 Y131.065 E3.15975
G1 X116.808 Y130.811 E3.18661
G1 X117.219 Y130.46 E3.21343
G1 X117.543 Y130.021 E3.2405
G1 X117.734 Y129.625 E3.26232
G1 X117.877 Y129.111 E3.28879
G1 X117.903 Y128.604 E3.31398
G1 X117.845 Y128.209 E3.33379
G1 X117.713 Y127.731 E3.3584
G1 X117.581 Y127.362 E3.37785
G1 X117.409 Y127.067 E3.3948
G1 X117.325 Y126.98 E3.4008
G1 X117.501 Y126.696 E3.41738
G1 X117.62 Y126.258 E3.4399
G1 X117.662 Y125.688 E3.46826
G1 X117.638 Y125.305 E3.4873
G1 X117.508 Y124.859 E3.51035
G1 X117.302 Y124.521 E3.52999
G1 X117.047 Y124.246 E3.5486
G1 X116.825 Y124.075 E3.56251
G1 X116.496 Y123.898 E3.58105
G1 X116.227 Y123.802 E3.59522
G1 X115.846 Y123.72 E3.61456
G1 X115.516 Y123.684 E3.63103
G1 X115.119 Y123.68 E3.65073
G1 X114.824 Y123.703 E3.66541
G1 X114.419 Y123.775 E3.68582
G1 X114.041 Y123.902 E3.70561
G1 X113.695 Y124.082 E3.72496
G1 X113.411 Y124.297 E3.74264
G1 X113.249 Y124.487 E3.75503
G1 X113.107 Y124.23 E3.7696
G1 X112.88 Y124.027 E3.78471
G1 X112.586 Y123.895 E3.8007
G1 X112.333 Y123.853 E3.81343
G1 X109.001 Y123.864 E3.97877
G1 X108.345 Y123.818 E4.0114
G1 X107.976 Y123.875 E4.02993
G1 X107.668 Y124.038 E4.04722
G1 X107.422 Y124.298 E4.06498
G1 X107.289 Y124.551 E4.07916
G1 X107.268 Y124.636 E4.0835
G1 X107.021 Y124.356 E4.10203
G1 X106.69 Y124.103 E4.1227
G1 X106.345 Y123.915 E4.1422
G1 X105.951 Y123.778 E4.1629
G1 X105.508 Y123.7 E4.18522
G1 X105.108 Y123.68 E4.20509
G1 X104.793 Y123.692 E4.22073
G1 X104.445 Y123.738 E4.23815
G1 X104.087 Y123.826 E4.25644
G1 X103.809 Y123.928 E4.27113
G1 X103.542 Y124.057 E4.28584
G1 X103.192 Y124.281 E4.30646
G1 X102.955 Y124.478 E4.32175
G1 X102.669 Y124.783 E4.3425
G1 X102.484 Y125.033 E4.35793
G1 X102.306 Y125.348 E4.37588
G1 X102.307 Y122.564 E4.51403
G1 X102.349 Y122.285 E4.52803
G1 X102.464 Y122.007 E4.54296
G1 X102.635 Y121.794 E4.55651
G1 X102.844 Y121.646 E4.56922
G1 X103.066 Y121.562 E4.581
G1 X103.335 Y121.519 E4.59452
G1 X126.693 Y120.094 E5.75575
G1 X127.561 Y120.069 E5.79884
G1 X128.594 Y120.106 E5.85013
G1 X129.372 Y120.184 E5.88893
G1 X130.164 Y120.31 E5.92873
G1 X131.22 Y120.549 E5.98246
G1 X131.995 Y120.779 E6.02258
G1 X133.018 Y121.158 E6.07672
G1 X133.844 Y121.533 E6.12173
G1 X134.727 Y122.007 E6.17146
G1 X135.423 Y122.44 E6.21214
G1 X136.31 Y123.078 E6.26636
G1 X137.08 Y123.723 E6.3162
G1 X137.73 Y124.347 E6.36091
G1 X138.32 Y124.988 E6.40414
G1 X138.923 Y125.734 E6.45174
G1 X139.438 Y126.463 E6.49603
G1 X139.899 Y127.223 E6.54014
G1 X139.944 Y127.344 E6.54655
G1 X139.965 Y127.483 E6.55353
G1 X139.953 Y127.614 E6.56006
G1 X139.897 Y127.781 E6.5688
G1 X139.629 Y128.239 E6.59513
G1 X139.217 Y128.863 E6.63223
G1 X138.642 Y129.621 E6.67944
G1 X138.624 Y129.557 E6.68274
G1 X138.421 Y129.274 E6.70002
G1 X138.187 Y129.097 E6.71458
G1 X137.8 Y128.951 E6.7351
G1 X137.338 Y128.899 E6.75817
G1 X138.17 Y127.73 E6.82937
G1 X138.436 Y127.323 E6.8535
G1 X138.58 Y127 E6.87105
G1 X138.652 Y126.614 E6.89053
G1 X138.631 Y126.238 E6.90922
G1 X138.505 Y125.864 E6.9288
G1 X138.331 Y125.62 E6.94367
G1 X138.031 Y125.397 E6.96222
G1 X137.608 Y125.293 E6.98384
G1 X135.451 Y125.288 E7.09088
G1 X134.922 Y125.339 E7.11725
G1 X134.589 Y125.467 E7.13495
G1 X134.282 Y125.715 E7.15453
G1 X134.255 Y125.771 E7.15761
G1 X134.154 Y125.635 E7.16602
G1 X133.871 Y125.414 E7.18384
G1 X133.517 Y125.287 E7.2025
G1 X133.132 Y125.309 E7.22164
G1 X132.799 Y125.471 E7.24002
G1 X132.548 Y125.71 E7.25722
G1 X132.345 Y126.006 E7.27503
G1 X132.182 Y126.353 E7.29405
G1 X132.03 Y126.79 E7.31701
G1 X131.858 Y126.192 E7.34789
G1 X131.725 Y125.894 E7.36408
G1 X131.502 Y125.621 E7.38157
G1 X131.196 Y125.42 E7.39974
G1 X130.884 Y125.316 E7.41606
G1 X130.51 Y125.283 E7.43469
G1 X130.065 Y125.398 E7.4575
G1 X129.765 Y125.65 E7.47694
G1 X129.654 Y125.839 E7.48782
G1 X129.47 Y125.587 E7.5033
G1 X129.057 Y125.323 E7.52762
G1 X128.556 Y125.282 E7.55256
G1 X128.132 Y125.465 E7.57548
G1 X127.858 Y125.693 E7.59317
G1 X127.673 Y125.916 E7.60755
G1 X127.563 Y125.758 E7.6171
G1 X127.328 Y125.53 E7.63335
G1 X127.118 Y125.398 E7.64566
G1 X126.881 Y125.311 E7.65819
G1 X126.587 Y125.283 E7.67284
G1 X126.287 Y125.335 E7.68795
G1 X126.02 Y125.45 E7.70238
G1 X125.667 Y125.743 E7.72514
G1 X125.473 Y126.196 E7.74959
G1 X125.498 Y126.653 E7.7723
G1 X125.613 Y126.993 E7.79011
G1 X126.207 Y128.068 E7.85106
G1 X126.334 Y128.26 E7.86248
G1 X126.116 Y128.568 E7.8812
G1 X125.792 Y129.135 E7.91361
G1 X125.603 Y128.82 E7.93184
G1 X125.397 Y128.601 E7.94676
G1 X125.159 Y128.423 E7.96151
G1 X124.892 Y128.288 E7.97636
G1 X124.593 Y128.2 E7.99183
G1 X124.236 Y128.17 E8.00961
G1 X123.871 Y128.216 E8.02787
G1 X123.742 Y128.26 E8.03463
G1 X123.798 Y127.878 E8.05379
G1 X123.813 Y127.48 E8.07355
G1 X123.791 Y126.926 E8.10106
G1 X123.688 Y126.27 E8.13401
G1 X123.598 Y125.95 E8.15051
G1 X123.432 Y125.527 E8.17306
G1 X123.142 Y125.034 E8.20144
G1 X122.815 Y124.651 E8.22643
G1 X122.396 Y124.317 E8.25302
G1 X121.927 Y124.088 E8.27892
G1 X121.381 Y123.945 E8.30693
G1 X120.873 Y123.879 E8.33235
G1 X119.208 Y123.841 E8.41499
G1 X118.817 Y123.882 E8.4345
G1 X118.384 Y124.049 E8.45753
G1 X118.028 Y124.397 E8.48223
G1 X117.895 Y124.875 E8.50685
G1 X117.942 Y125.566 E8.54122
G1 X117.937 Y129.158 E8.71946
G1 X117.92 Y129.781 E8.75039
G1 X117.95 Y130.13 E8.76777
G1 X118.049 Y130.462 E8.78496
G1 X118.233 Y130.764 E8.80251
G1 X118.503 Y130.983 E8.81976
G1 X118.775 Y131.086 E8.83419
G1 X119.09 Y131.112 E8.84987
G1 X119.553 Y131.068 E8.87295
G1 X120.36 Y131.076 E8.913
G1 X120.923 Y131.047 E8.94097
G1 X121.525 Y130.95 E8.97123
G1 X122.032 Y130.779 E8.99778
G1 X122.401 Y130.571 E9.0188
G1 X122.662 Y130.37 E9.03515
G1 X122.729 Y130.577 E9.04595
G1 X122.888 Y130.848 E9.06154
G1 X123.093 Y131.087 E9.07716
G1 X123.428 Y131.339 E9.09796
G1 X123.718 Y131.467 E9.11369
G1 X124.007 Y131.538 E9.12846
G1 X124.305 Y131.559 E9.14328
G1 X124.602 Y131.526 E9.15811
G1 X124.905 Y131.437 E9.17378
G1 X125.271 Y131.233 E9.19457
G1 X125.506 Y131.022 E9.21024
G1 X125.649 Y130.838 E9.2218
G1 X125.794 Y131.009 E9.23293
G1 X126.211 Y131.238 E9.25654
G1 X126.712 Y131.287 E9.28152
G1 X127.153 Y131.085 E9.30559
G1 X127.408 Y130.832 E9.32341
G1 X127.614 Y130.54 E9.34114
G1 X127.905 Y130.961 E9.36654
G1 X128.199 Y131.181 E9.38476
G1 X128.56 Y131.291 E9.40349
G1 X128.936 Y131.281 E9.42215
