; generated by AnycubicSlicer 1.4.0 on 2024-05-19 at 19:24:41 UTC


;
;
; 

; external perimeters extrusion width = 0.42mm
; perimeters extrusion width = 0.45mm
; infill extrusion width = 0.45mm
; solid infill extrusion width = 0.42mm
; top infill extrusion width = 0.42mm
; first layer extrusion width = 0.50mm

;TYPE:Custom
G9111 bedTemp=65 extruderTemp=230
M117
M900 K0.05
G21 ; set units to millimeters
G90 ; use absolute coordinates
M83 ; use relative distances for extrusion
T0
M107
;LAYER_CHANGE
;Z:0.24
;HEIGHT:0.24
; BEFORE_LAYER_CHANGE 0 @ 0.24mm
G92 E0
G1 Z.24 F12000
; AFTER_LAYER_CHANGE 0 @ 0.24mm
G1 E-1.5 F2400
M204 S10000
G1 X140.37 Y127.705 F12000
G1 E1.5 F1800
M204 S5000
;TYPE:External perimeter
;WIDTH:0.5
G1 F3600
G1 X140.283 Y127.964 E.01174
G1 X139.987 Y128.471 E.02522
G1 X139.563 Y129.113 E.03305
G1 X139.152 Y129.671 E.02977
G1 X138.747 Y130.171 E.02764
G1 X138.342 Y130.629 E.02627
G1 X137.853 Y131.136 E.03026
G1 X137.386 Y131.579 E.02765
G1 X136.822 Y132.063 E.03193
G1 X136.256 Y132.502 E.03077
G1 X135.744 Y132.863 E.02691
G1 X135.227 Y133.194 E.02637
G1 X134.583 Y133.568 E.03199
G1 X133.749 Y133.99 E.04016
G1 X132.86 Y134.37 E.04154
G1 X131.942 Y134.691 E.04178
G1 X131.008 Y134.95 E.04164
G1 X130.054 Y135.149 E.04187
G1 X129.185 Y135.272 E.03771
G1 X128.281 Y135.345 E.03896
G1 X127.324 Y135.361 E.04112
G1 X126.655 Y135.336 E.02876
G1 X103.29 Y133.913 E1.00564
G1 X103.06 Y133.884 E.00996
G1 X102.74 Y133.785 E.01439
G1 X102.575 Y133.7 E.00797
G1 X102.408 Y133.583 E.00876
G1 X102.274 Y133.456 E.00793
G1 X102.08 Y133.194 E.01401
G1 X101.99 Y133.01 E.0088
G1 X101.924 Y132.806 E.00921
G1 X101.883 Y132.59 E.00945
G1 X101.869 Y132.376 E.00921
G1 X101.872 Y122.541 E.42252
G1 X101.925 Y122.19 E.01525
G1 X101.99 Y121.99 E.00903
G1 X102.09 Y121.789 E.00964
G1 X102.196 Y121.634 E.00807
G1 X102.339 Y121.478 E.00909
G1 X102.49 Y121.356 E.00834
G1 X102.657 Y121.255 E.00838
G1 X102.958 Y121.141 E.01383
G1 X103.294 Y121.087 E.01462
G1 X126.675 Y119.663 E1.00633
G1 X127.566 Y119.637 E.03829
G1 X128.624 Y119.675 E.04548
G1 X129.43 Y119.757 E.03481
G1 X130.247 Y119.886 E.03553
G1 X131.331 Y120.132 E.04775
G1 X132.13 Y120.369 E.0358
G1 X133.182 Y120.76 E.04822
G1 X134.032 Y121.146 E.04011
G1 X134.939 Y121.633 E.04423
G1 X135.659 Y122.081 E.03643
G1 X136.569 Y122.736 E.04817
G1 X137.363 Y123.401 E.04449
G1 X138.032 Y124.043 E.03983
G1 X138.64 Y124.704 E.03858
G1 X139.26 Y125.471 E.04237
G1 X139.791 Y126.224 E.03958
G1 X140.281 Y127.03 E.04052
G1 X140.356 Y127.233 E.0093
G1 X140.391 Y127.47 E.01029
G1 X140.376 Y127.646 E.00759
M204 S15000
G1 X140.111 Y127.791 F12000
G1 E-.75 F2400
;WIPE_START
G1 F9600
G1 X140.283 Y127.964 E-.07869
G1 X139.987 Y128.471 E-.13943
G1 X139.563 Y129.113 E-.18273
G1 X139.152 Y129.671 E-.16459
G1 X138.747 Y130.171 E-.15282
G1 X138.658 Y130.271 E-.03174
;WIPE_END
M204 S10000
G1 X136.48 Y129.369 F12000
G1 E1.5 F1800
M204 S5000
G1 F3600
G1 X137.242 Y129.333 E.03277
G1 X137.696 Y129.384 E.01963
G1 X137.972 Y129.488 E.01267
G1 X138.101 Y129.586 E.00696
G1 X138.22 Y129.753 E.00881
G1 X138.282 Y129.962 E.00937
G1 X138.291 Y130.13 E.00723
G1 X138.259 Y130.33 E.0087
G1 X138.197 Y130.479 E.00693
G1 X138.11 Y130.604 E.00654
G1 X137.945 Y130.728 E.00887
G1 X137.736 Y130.8 E.0095
G1 X137.462 Y130.829 E.01184
G1 X135.731 Y130.824 E.07437
G1 X135.151 Y130.853 E.02495
G1 X134.986 Y130.832 E.00715
G1 X134.796 Y130.758 E.00876
G1 X134.637 Y130.617 E.00913
G1 X134.535 Y130.452 E.00833
G1 X134.451 Y130.149 E.01351
G1 X134.454 Y129.889 E.01117
G1 X134.516 Y129.643 E.0109
G1 X134.638 Y129.391 E.01203
G1 X134.858 Y129.061 E.01704
G1 X136.214 Y127.194 E.09913
G1 X135.749 Y127.232 E.02004
G1 X135.154 Y127.195 E.02561
G1 X134.907 Y127.133 E.01094
G1 X134.67 Y126.986 E.01198
G1 X134.528 Y126.751 E.0118
G1 X134.484 Y126.515 E.01031
G1 X134.509 Y126.264 E.01084
G1 X134.637 Y125.996 E.01276
G1 X134.812 Y125.855 E.00965
G1 X135.024 Y125.774 E.00975
G1 X135.464 Y125.73 E.019
G1 X137.554 Y125.735 E.08979
G1 X137.839 Y125.805 E.01261
G1 X138.011 Y125.933 E.00921
G1 X138.107 Y126.067 E.00708
G1 X138.193 Y126.323 E.0116
G1 X138.208 Y126.585 E.01127
G1 X138.155 Y126.868 E.01237
G1 X138.047 Y127.111 E.01142
G1 X137.805 Y127.481 E.01899
G1 X136.511 Y129.318 E.09653
M204 S15000
G1 X136.855 Y129.231 F12000
G1 E-.75 F2400
;WIPE_START
G1 F9600
G1 X137.242 Y129.333 E-.17365
G1 X137.696 Y129.384 E-.1085
G1 X137.972 Y129.488 E-.07005
G1 X138.101 Y129.586 E-.03848
G1 X138.22 Y129.753 E-.0487
G1 X138.282 Y129.962 E-.05178
G1 X138.291 Y130.13 E-.03996
G1 X138.259 Y130.33 E-.0481
G1 X138.197 Y130.479 E-.03833
G1 X138.11 Y130.604 E-.03617
G1 X137.945 Y130.728 E-.04902
G1 X137.757 Y130.793 E-.04726
;WIPE_END
M204 S10000
G1 X132.064 Y128.101 F12000
G1 E1.5 F1800
M204 S5000
G1 F3600
G1 X132.217 Y127.598 E.02259
G1 X132.592 Y126.521 E.04899
G1 X132.73 Y126.226 E.01399
G1 X132.886 Y125.998 E.01187
G1 X133.054 Y125.838 E.00997
G1 X133.245 Y125.745 E.00913
G1 X133.452 Y125.734 E.00891
G1 X133.655 Y125.806 E.00925
G1 X133.836 Y125.947 E.00986
G1 X133.977 Y126.136 E.01013
G1 X134.066 Y126.363 E.01047
G1 X134.083 Y126.579 E.00931
G1 X134.012 Y126.872 E.01295
G1 X133.725 Y127.527 E.03072
G1 X133.512 Y128.173 E.02922
G1 X132.56 Y130.833 E.12137
G1 X132.178 Y131.817 E.04535
G1 X131.906 Y132.416 E.02826
G1 X131.787 Y132.616 E.01
G1 X131.608 Y132.846 E.01252
G1 X131.321 Y133.078 E.01585
G1 X131.045 Y133.214 E.01322
G1 X130.82 Y133.292 E.01023
G1 X130.52 Y133.36 E.01322
G1 X130.267 Y133.371 E.01088
G1 X130.046 Y133.326 E.00969
G1 X129.888 Y133.247 E.00759
G1 X129.69 Y133.042 E.01224
G1 X129.584 Y132.818 E.01065
G1 X129.543 Y132.652 E.00735
G1 X129.534 Y132.494 E.0068
G1 X129.577 Y132.285 E.00917
G1 X129.695 Y132.112 E.009
G1 X129.873 Y131.997 E.0091
G1 X130.353 Y131.859 E.02146
G1 X130.506 Y131.791 E.00719
G1 X130.703 Y131.623 E.01112
G1 X130.837 Y131.4 E.01118
G1 X131.055 Y130.83 E.02622
G1 X131.241 Y130.442 E.01849
G1 X131.298 Y130.226 E.0096
G1 X131.258 Y130.019 E.00906
G1 X130.985 Y129.396 E.02922
G1 X130.391 Y127.791 E.07352
G1 X130.09 Y127.06 E.03396
G1 X129.998 Y126.736 E.01447
G1 X129.964 Y126.367 E.01592
G1 X130.022 Y126.085 E.01237
G1 X130.108 Y125.939 E.00728
G1 X130.272 Y125.801 E.00921
G1 X130.548 Y125.73 E.01224
G1 X130.794 Y125.751 E.01061
G1 X131.002 Y125.821 E.00943
G1 X131.203 Y125.953 E.01033
G1 X131.345 Y126.128 E.00968
G1 X131.442 Y126.344 E.01017
G1 X131.628 Y126.992 E.02896
G1 X132.039 Y128.046 E.0486
M204 S15000
G1 X132.097 Y127.702 F12000
G1 E-.75 F2400
;WIPE_START
G1 F9600
G1 X132.217 Y127.598 E-.11449
G1 X132.592 Y126.521 E-.27085
G1 X132.73 Y126.226 E-.07735
G1 X132.886 Y125.998 E-.06561
G1 X133.054 Y125.838 E-.0551
G1 X133.245 Y125.745 E-.05045
G1 X133.452 Y125.734 E-.04923
G1 X133.655 Y125.806 E-.05116
G1 X133.707 Y125.847 E-.01576
;WIPE_END
M204 S10000
G1 X139.928 Y127.613 F12000
G1 E1.5 F1800
M204 S5000
;TYPE:Perimeter
G1 F3600
G1 X139.873 Y127.778 E.00747
G1 F3599.662
G1 X139.606 Y128.234 E.0227
G1 X139.195 Y128.856 E.03203
G1 X138.64 Y129.59 E.03953
G1 X138.426 Y129.269 E.01657
G1 F3598.114
G1 X138.191 Y129.091 E.01267
G1 F3599.834
G1 X137.802 Y128.945 E.01785
G1 X137.35 Y128.894 E.01954
G1 X138.176 Y127.734 E.06118
G1 X138.442 Y127.326 E.02092
G1 X138.586 Y127.002 E.01523
G1 X138.659 Y126.615 E.01692
G1 X138.638 Y126.237 E.01626
G1 X138.51 Y125.861 E.01706
G1 X138.336 Y125.615 E.01294
G1 X138.033 Y125.391 E.01619
G1 X137.609 Y125.287 E.01876
G1 X135.442 Y125.281 E.0931
G1 X134.92 Y125.333 E.02254
G1 X134.585 Y125.461 E.01541
G1 X134.277 Y125.711 E.01704
G1 F3595.301
G1 X134.254 Y125.758 E.00225
G1 X134.159 Y125.631 E.00681
G1 F3598.493
G1 X133.874 Y125.408 E.01555
G1 X133.518 Y125.281 E.01624
G1 F3599.676
G1 X133.13 Y125.303 E.0167
G1 X132.796 Y125.465 E.01595
G1 X132.543 Y125.706 E.01501
G1 X132.339 Y126.003 E.01548
G1 X132.176 Y126.351 E.01651
G1 X132.03 Y126.769 E.01902
G1 X131.864 Y126.19 E.02588
G1 X131.73 Y125.89 E.01412
G1 X131.507 Y125.616 E.01518
G1 X131.199 Y125.414 E.01582
G1 X130.886 Y125.309 E.01418
G1 X130.51 Y125.277 E.01621
G1 X130.062 Y125.392 E.01987
G1 X129.76 Y125.645 E.01693
G1 F3598.769
G1 X129.653 Y125.828 E.00911
G1 X129.475 Y125.582 E.01304
G1 F3599.675
G1 X129.06 Y125.317 E.02115
G1 X128.555 Y125.276 E.02177
G1 X128.129 Y125.459 E.01992
G1 X127.853 Y125.688 E.01541
G1 X127.673 Y125.906 E.01215
G1 X127.568 Y125.754 E.00794
G1 X127.332 Y125.525 E.01413
G1 X127.121 Y125.392 E.01072
G1 F3598.82
G1 X126.882 Y125.305 E.01093
G1 X126.582 Y125.277 E.01294
G1 F3599.852
G1 X126.285 Y125.329 E.01295
G1 X126.017 Y125.444 E.01253
G1 X125.662 Y125.739 E.01983
G1 X125.466 Y126.194 E.02128
G1 X125.491 Y126.654 E.01979
G1 X125.607 Y126.996 E.01551
G1 F3598.824
G1 X126.201 Y128.071 E.05276
G1 X126.326 Y128.26 E.00973
G1 X126.111 Y128.564 E.016
G1 F3599.68
G1 X125.794 Y129.12 E.0275
G1 X125.615 Y128.824 E.01486
G1 X125.401 Y128.596 E.01343
G1 F3598.833
G1 X125.163 Y128.418 E.01277
G1 F3599.989
G1 X124.894 Y128.282 E.01295
G1 X124.595 Y128.194 E.01339
G1 X124.242 Y128.164 E.01522
G1 F3598.36
G1 X123.871 Y128.21 E.01606
G1 X123.75 Y128.25 E.00547
G1 F3597.929
G1 X123.804 Y127.879 E.01611
G1 F3599.39
G1 X123.82 Y127.48 E.01716
G1 X123.798 Y126.926 E.02382
G1 X123.694 Y126.269 E.02858
G1 X123.605 Y125.948 E.01431
G1 X123.437 Y125.524 E.01959
G1 X123.148 Y125.03 E.02459
G1 X122.819 Y124.646 E.02172
G1 X122.399 Y124.311 E.02308
G1 X121.929 Y124.082 E.02246
G1 X121.383 Y123.939 E.02425
G1 X120.874 Y123.873 E.02205
G1 X119.208 Y123.835 E.07159
G1 F3598.59
G1 X118.815 Y123.876 E.01698
G1 F3599.912
G1 X118.38 Y124.044 E.02003
G1 X118.055 Y124.361 E.0195
G1 X117.929 Y124.661 E.01398
G1 X117.892 Y124.919 E.0112
G1 X117.936 Y125.566 E.02786
G1 X117.931 Y129.158 E.15432
G1 X117.913 Y129.782 E.02682
G1 X117.944 Y130.131 E.01505
G1 F3598.958
G1 X118.043 Y130.465 E.01497
G1 X118.228 Y130.769 E.01529
G1 F3599.705
G1 X118.499 Y130.989 E.015
G1 F3598.677
G1 X118.774 Y131.092 E.01262
G1 X119.091 Y131.118 E.01366
G1 F3599.71
G1 X119.553 Y131.075 E.01993
G1 X120.36 Y131.083 E.03467
G1 X120.923 Y131.054 E.02422
G1 X121.527 Y130.956 E.02629
G1 X122.035 Y130.785 E.02303
G1 X122.405 Y130.577 E.01824
G1 X122.659 Y130.382 E.01376
G1 X122.723 Y130.58 E.00894
G1 X122.882 Y130.852 E.01354
G1 X123.088 Y131.092 E.01359
G1 X123.425 Y131.344 E.01808
G1 X123.716 Y131.474 E.01369
G1 F3598.095
G1 X124.006 Y131.545 E.01283
G1 X124.305 Y131.565 E.01287
G1 F3597.947
G1 X124.603 Y131.533 E.01288
G1 F3599.943
G1 X124.908 Y131.443 E.01366
G1 X125.274 Y131.238 E.01802
G1 X125.511 Y131.027 E.01363
G1 X125.65 Y130.849 E.0097
G1 F3597.771
G1 X125.79 Y131.014 E.0093
G1 X126.209 Y131.244 E.02053
G1 F3599.242
G1 X126.713 Y131.294 E.02176
G1 X127.157 Y131.09 E.02099
G1 X127.413 Y130.836 E.01549
G1 X127.613 Y130.552 E.01492
G1 X127.901 Y130.965 E.02163
G1 X128.196 Y131.186 E.01584
G1 X128.559 Y131.297 E.01631
G1 X128.937 Y131.288 E.01624
G1 X129.308 Y131.168 E.01675
G1 X129.666 Y130.878 E.01979
G1 X129.852 Y130.507 E.01783
G1 X129.899 Y130.124 E.01658
G1 X129.842 Y129.741 E.01664
G1 X129.668 Y129.352 E.01831
G1 X128.988 Y128.215 E.05692
G1 F3597.394
G1 X129.028 Y128.115 E.00463
G1 X129.633 Y127.092 E.05106
G1 F3599.803
G1 X129.973 Y127.954 E.03981
G1 X130.569 Y129.564 E.07375
G1 X130.846 Y130.211 E.03024
G1 X130.642 Y130.653 E.02091
G1 X130.432 Y131.203 E.02529
G1 F3598.742
G1 X130.343 Y131.351 E.00742
G1 X130.199 Y131.436 E.00718
G1 F3599.195
G1 X129.685 Y131.585 E.02299
G1 X129.375 Y131.785 E.01585
G1 X129.155 Y132.106 E.01672
G1 X129.083 Y132.462 E.0156
G1 X129.098 Y132.719 E.01106
G1 X129.159 Y132.969 E.01106
G1 X129.317 Y133.301 E.0158
G1 X129.619 Y133.614 E.01869
G1 X129.899 Y133.754 E.01345
G1 X130.232 Y133.822 E.0146
G1 X130.58 Y133.806 E.01497
G1 X130.943 Y133.724 E.01599
G1 X131.218 Y133.629 E.0125
G1 X131.564 Y133.458 E.01658
G1 X131.93 Y133.163 E.0202
G1 X132.158 Y132.87 E.01595
G1 X132.305 Y132.624 E.01231
G1 X132.592 Y131.991 E.02986
G1 X132.98 Y130.99 E.04612
G1 X133.936 Y128.319 E.12188
G1 X134.144 Y127.687 E.02858
G1 F3596.401
G1 X134.323 Y127.28 E.0191
G1 X134.341 Y127.31 E.0015
G1 F3595.898
G1 X134.73 Y127.551 E.01966
G1 X135.085 Y127.64 E.01572
G1 F3599.563
G1 X135.325 Y127.655 E.01033
G1 X134.49 Y128.805 E.06105
G1 X134.247 Y129.168 E.01877
G1 X134.093 Y129.489 E.0153
G1 X134.006 Y129.831 E.01516
G1 X134.002 Y130.207 E.01615
G1 X134.12 Y130.634 E.01903
G1 X134.291 Y130.909 E.01391
G1 F3598.772
G1 X134.558 Y131.146 E.01534
G1 X134.875 Y131.27 E.01462
G1 X135.134 Y131.303 E.01122
G1 X135.742 Y131.273 E.02615
G1 F3599.781
G1 X137.049 Y131.276 E.05615
G1 X136.538 Y131.716 E.02897
G1 X135.989 Y132.141 E.02983
G1 X135.494 Y132.49 E.02602
G1 X134.993 Y132.812 E.02559
G1 X134.369 Y133.173 E.03097
G1 X133.559 Y133.583 E.039
G1 X132.697 Y133.952 E.04028
G1 X131.808 Y134.263 E.04046
G1 X130.902 Y134.514 E.04039
G1 X129.977 Y134.707 E.04059
G1 X129.135 Y134.826 E.03653
G1 X128.259 Y134.897 E.03776
G1 X127.329 Y134.913 E.03996
G1 X126.678 Y134.888 E.02799
G1 F3600
G1 X123.768 Y134.709 Z.24 E.12524
G1 F3599.973
G1 X119.643 Y134.456 Z.24 E.17756
G1 X115.518 Y134.203 Z.24 E.17756
G1 X111.392 Y133.95 Z.24 E.17756
G1 X107.267 Y133.696 Z.24 E.17756
G1 X103.142 Y133.443 Z.24 E.17756
G1 X102.919 Y133.373 E.01004
G1 X102.808 Y133.315 E.00538
G1 F3597.631
G1 X102.61 Y133.158 E.01086
G1 X102.465 Y132.96 E.01054
G1 F3599.751
G1 X102.359 Y132.694 E.0123
G1 X102.317 Y132.361 E.01442
G1 X102.318 Y129.627 E.11746
G1 X102.494 Y129.924 E.01483
G1 F3598.958
G1 X102.704 Y130.199 E.01487
G1 X102.912 Y130.42 E.01304
G1 F3599.467
G1 X103.248 Y130.698 E.01874
G1 X103.727 Y130.973 E.02373
G1 X104.018 Y131.088 E.01344
G1 F3598.697
G1 X104.342 Y131.178 E.01445
G1 X104.655 Y131.23 E.01363
G1 F3599.073
G1 X105.133 Y131.256 E.02057
G1 X105.585 Y131.226 E.01946
G1 X105.994 Y131.147 E.0179
G1 X106.367 Y131.013 E.01703
G1 X106.618 Y130.882 E.01216
G1 F3598.916
G1 X106.923 Y130.664 E.01611
G1 F3599.335
G1 X107.2 Y130.376 E.01717
G1 X107.46 Y129.951 E.0214
G1 X107.597 Y129.471 E.02144
G1 F3598.527
G1 X107.433 Y128.94 E.02388
G1 X107.084 Y128.577 E.02163
G1 X106.643 Y128.378 E.02079
G1 X106.263 Y128.334 E.01643
G1 X105.921 Y128.391 E.0149
G1 F3599.619
G1 X105.683 Y128.499 E.01123
G1 X105.488 Y128.644 E.01044
G1 F3598.762
G1 X105.338 Y128.821 E.00997
G1 F3599.449
G1 X105.169 Y128.859 E.00744
G1 X104.985 Y128.859 E.0079
G1 X104.845 Y128.831 E.00613
G1 F3598.768
G1 X104.673 Y128.755 E.00808
G1 F3599.02
G1 X104.557 Y128.665 E.00631
G1 X104.456 Y128.531 E.00721
G1 X104.383 Y128.374 E.00744
G1 F3598.256
G1 X104.32 Y128.144 E.01025
G1 F3599.975
G1 X104.278 Y127.853 E.01263
G1 X104.261 Y127.425 E.0184
G1 F3598.416
G1 X104.282 Y127.036 E.01674
G1 X104.326 Y126.757 E.01213
G1 F3597.668
G1 X104.388 Y126.547 E.00941
G1 X104.455 Y126.402 E.00686
G1 F3598.867
G1 X104.563 Y126.257 E.00777
G1 F3596.891
G1 X104.639 Y126.192 E.0043
G1 F3599.506
G1 X104.868 Y126.091 E.01075
G1 X105.051 Y126.07 E.00791
G1 F3598.168
G1 X105.129 Y126.087 E.00343
G1 F3599.934
G1 X105.815 Y126.475 E.03386
G1 X106.152 Y126.582 E.01519
G1 X106.514 Y126.601 E.01557
G1 X106.889 Y126.486 E.01685
G1 X107.186 Y126.26 E.01603
G1 X107.365 Y126.025 E.01269
G1 X107.458 Y125.814 E.00991
G1 F3598.301
G1 X107.537 Y125.933 E.00614
G1 X107.919 Y126.18 E.01954
G1 F3599.621
G1 X108.301 Y126.248 E.01667
G1 X109.113 Y126.167 E.03506
G1 X109.084 Y126.631 E.01997
G1 X109.101 Y129.415 E.11961
G1 X109.058 Y130.116 E.03017
G1 F3598.233
G1 X109.135 Y130.45 E.01473
G1 X109.303 Y130.735 E.01421
G1 F3599.838
G1 X109.677 Y131.008 E.01989
G1 X110.173 Y131.119 E.02184
G1 X110.641 Y131.056 E.02029
G1 X110.982 Y130.87 E.01669
G1 X111.237 Y130.582 E.01653
G1 X111.379 Y130.255 E.01532
G1 X111.442 Y129.901 E.01545
G1 X111.425 Y129.019 E.0379
G1 X111.424 Y126.195 E.12132
G1 X112.007 Y126.204 E.02505
G1 X112.412 Y126.161 E.0175
G1 X112.752 Y126.055 E.0153
G1 X113.106 Y125.785 E.01913
G1 F3596.68
G1 X113.139 Y125.723 E.00302
G1 X113.369 Y126.057 E.01742
G1 F3599.952
G1 X113.69 Y126.309 E.01753
G1 X113.975 Y126.402 E.01288
G1 F3597.446
G1 X113.898 Y126.491 E.00506
G1 F3599.341
G1 X113.771 Y126.747 E.01228
G1 X113.685 Y127.09 E.01519
