; generated by PrusaSlicer 2.7.2+win64 on 2024-05-03 at 02:34:29 UTC


;
;
; 

; external perimeters extrusion width = 0.42mm
; perimeters extrusion width = 0.45mm
; infill extrusion width = 0.45mm
; solid infill extrusion width = 0.45mm
; top infill extrusion width = 0.42mm
; support material extrusion width = 0.42mm
; first layer extrusion width = 0.50mm

; external perimeters extrusion width = 0.42mm
; perimeters extrusion width = 0.45mm
; infill extrusion width = 0.45mm
; solid infill extrusion width = 0.45mm
; top infill extrusion width = 0.42mm
; support material extrusion width = 0.42mm
; first layer extrusion width = 0.50mm

; external perimeters extrusion width = 0.42mm
; perimeters extrusion width = 0.45mm
; infill extrusion width = 0.45mm
; solid infill extrusion width = 0.45mm
; top infill extrusion width = 0.42mm
; support material extrusion width = 0.42mm
; first layer extrusion width = 0.50mm

; external perimeters extrusion width = 0.42mm
; perimeters extrusion width = 0.45mm
; infill extrusion width = 0.45mm
; solid infill extrusion width = 0.45mm
; top infill extrusion width = 0.42mm
; support material extrusion width = 0.42mm
; first layer extrusion width = 0.50mm

;TYPE:Custom
G9111 bedTemp=60 extruderTemp=230
M117
G21 ; set units to millimeters
G90 ; use absolute coordinates
M83 ; use relative distances for extrusion
T0
M107
;LAYER_CHANGE
;Z:0.24
;HEIGHT:0.24
G1 E-1.5 F2400
G1 Z.64 F21000
G1 X91.077 Y116.806
G1 Z.24
G1 E1.5 F1800
M204 S5000
;TYPE:External perimeter
;WIDTH:0.5
;HEIGHT:0.24
G1 F4800
G1 X171.784 Y123.87 E3.44426
G1 X172.347 Y124.814 E.04673
G1 X172.812 Y125.494 E.03502
G1 X173.329 Y126.205 E.03737
G1 X173.918 Y126.921 E.03942
G1 X174.151 Y127.254 E.01728
G1 X174.372 Y127.623 E.01829
G1 X174.794 Y128.043 E.02531
G1 X175.217 Y128.771 E.0358
G1 X175.321 Y128.913 E.00748
G1 X175.522 Y129.535 E.02779
G1 X175.69 Y129.812 E.01377
G1 X175.806 Y130.507 E.02996
G1 X175.804 Y130.578 E.00302
G1 X175.424 Y131.283 E.03405
G1 X175.028 Y131.49 E.019
G1 X174.647 Y131.843 E.02208
G1 X174.351 Y131.949 E.01337
G1 X173.739 Y132.287 E.02972
G1 X173.512 Y132.356 E.01009
G1 X172.74 Y132.652 E.03515
G1 X171.599 Y132.995 E.05065
G1 X169.56 Y133.43 E.08864
G1 X165.283 Y134.381 E.18627
G1 X164.231 Y134.637 E.04603
G1 X163.186 Y134.932 E.04616
G1 X162.151 Y135.281 E.04644
G1 X161.129 Y135.693 E.04685
G1 X159.577 Y136.42 E.07286
G1 X159.129 Y136.678 E.02198
G1 X158.693 Y136.863 E.02014
G1 X158.116 Y137.18 E.02799
G1 X157.076 Y137.597 E.04764
G1 X155.985 Y137.924 E.04842
G1 X153.739 Y138.478 E.09835
G1 X152.615 Y138.72 E.04888
G1 X151.54 Y138.926 E.04653
G1 X150.366 Y139.108 E.05051
G1 X149.24 Y139.255 E.04828
G1 X148.062 Y139.382 E.05037
G1 X147.005 Y139.474 E.04511
G1 X145.901 Y139.544 E.04703
G1 X144.655 Y139.589 E.05301
G1 X143.743 Y139.598 E.03877
G1 X142.696 Y139.577 E.04452
G1 X140.686 Y139.478 E.08556
G1 X138.796 Y139.344 E.08055
G1 X138.155 Y139.257 E.0275
G1 X137.8 Y139.279 E.01512
G1 X137.135 Y139.285 E.02827
G1 X136.348 Y139.508 E.03478
G1 X135.696 Y139.907 E.0325
G1 X135.495 Y140.075 E.01114
G1 X135.026 Y140.564 E.02881
G1 X134.667 Y141.06 E.02603
G1 X134.271 Y141.731 E.03312
G1 X133.485 Y143.199 E.07079
G1 X133.036 Y143.971 E.03797
G1 X132.522 Y144.75 E.03968
G1 X131.936 Y145.524 E.04127
G1 X131.28 Y146.284 E.04268
G1 X130.566 Y147.035 E.04405
G1 X129.828 Y147.748 E.04363
G1 X129.007 Y148.478 E.04671
G1 X128.166 Y149.139 E.04548
G1 X127.265 Y149.698 E.04508
G1 X126.051 Y150.298 E.05757
G1 X124.945 Y150.731 E.05049
G1 X124.355 Y150.916 E.02629
G1 X123.917 Y151.016 E.0191
G1 X123.385 Y151.17 E.02355
G1 X122.497 Y151.329 E.03835
G1 X121.703 Y151.413 E.03394
G1 X121.044 Y151.429 E.02802
G1 X120.551 Y151.398 E.021
G1 X120.235 Y151.332 E.01372
G1 X120.092 Y151.253 E.00695
G1 X120.065 Y151.213 E.00205
G1 X120.06 Y151.12 E.00396
G1 X120.138 Y150.871 E.01109
G1 X120.653 Y149.955 E.04468
G1 X121.031 Y149.349 E.03036
G1 X121.502 Y148.707 E.03385
G1 X123.141 Y146.68 E.11082
G1 X124.166 Y145.291 E.07339
G1 X124.66 Y144.588 E.03653
G1 X125.1 Y143.835 E.03708
G1 X125.43 Y143.009 E.03781
G1 X125.626 Y142.139 E.03791
G1 X125.786 Y140.447 E.07225
G1 X125.95 Y140.259 E.01061
G1 X125.828 Y139.633 E.02711
G1 X125.254 Y138.946 E.03806
G1 X124.594 Y138.654 E.03068
G1 X124.364 Y138.82 E.01206
G1 X124.209 Y138.807 E.00661
G1 X123.607 Y138.694 E.02604
G1 X123.137 Y138.834 E.02085
G1 X121.938 Y138.63 E.05171
G1 X120.655 Y138.319 E.05612
G1 X119.427 Y137.958 E.05442
G1 X118.212 Y137.56 E.05435
G1 X115.807 Y136.697 E.10863
G1 X113.384 Y135.762 E.11041
G1 X112.268 Y135.368 E.05032
G1 X110.008 Y134.49 E.10308
G1 X108.482 Y133.842 E.07048
G1 X106.97 Y133.157 E.07057
G1 X104.863 Y132.105 E.10012
G1 X103.964 Y131.592 E.044
G1 X102.807 Y130.979 E.05567
G1 X102.079 Y130.525 E.03648
G1 X100.811 Y129.772 E.0627
G1 X99.585 Y128.934 E.06313
G1 X98.814 Y128.375 E.04049
G1 X97.71 Y127.51 E.05963
G1 X97.219 Y127.011 E.02976
G1 X96.999 Y126.849 E.01162
G1 X96.532 Y126.392 E.02778
G1 X95.824 Y125.823 E.03862
G1 X94.893 Y124.971 E.05365
G1 X93.782 Y123.907 E.0654
G1 X93.071 Y123.131 E.04474
G1 X92.677 Y122.603 E.02801
G1 X91.697 Y121.617 E.0591
G1 X90.961 Y120.961 E.04191
G1 X90.195 Y120.386 E.04072
G1 X89.397 Y119.913 E.03944
G1 X88.551 Y119.589 E.03851
G1 X87.676 Y119.462 E.03759
G1 X86.827 Y119.59 E.0365
G1 X86.059 Y119.915 E.03545
G1 X85.38 Y120.382 E.03504
G1 X85.101 Y120.624 E.0157
G1 X81.778 Y123.919 E.19895
G1 X81.165 Y124.423 E.03374
G1 X80.551 Y124.803 E.0307
G1 X80.011 Y125.079 E.02578
G1 X79.597 Y125.255 E.01913
G1 X79.342 Y125.296 E.01098
G1 X79.233 Y125.26 E.00488
G1 X79.155 Y125.16 E.00539
G1 X79.091 Y124.881 E.01217
G1 X79.075 Y124.399 E.0205
G1 X79.106 Y123.81 E.02508
G1 X79.208 Y122.967 E.0361
G1 X79.385 Y122.038 E.04021
G1 X79.608 Y121.038 E.04356
G1 X79.812 Y120.374 E.02953
G1 X79.896 Y119.989 E.01675
G1 X80.155 Y119.472 E.02458
G1 X80.33 Y118.962 E.02292
G1 X80.547 Y118.682 E.01506
G1 X80.958 Y118.044 E.03226
G1 X81.796 Y117.397 E.04501
G1 X82.294 Y117.221 E.02246
G1 X82.816 Y116.928 E.02545
G1 X83.764 Y116.563 E.04319
G1 X84.06 Y116.417 E.01403
G1 X84.39 Y116.303 E.01484
G1 X84.506 Y116.231 E.0058
G1 X84.579 Y116.237 E.00311
G1 X86.613 Y116.422 E.08683
G1 X86.576 Y116.729 E.01315
G1 X86.635 Y117.246 E.02212
G1 X86.805 Y117.721 E.02145
G1 X87.072 Y118.14 E.02112
G1 X87.421 Y118.489 E.02098
G1 X87.84 Y118.756 E.02112
G1 X88.315 Y118.926 E.02145
G1 X88.831 Y118.985 E.02208
G1 X89.346 Y118.926 E.02204
G1 X89.822 Y118.756 E.02149
G1 X90.24 Y118.489 E.02109
G1 X90.59 Y118.14 E.02101
G1 X90.856 Y117.721 E.0211
G1 X91.026 Y117.246 E.02145
G1 X91.07 Y116.865 E.01631
M204 S6000
G1 X91.07 Y116.865 F21000
G1 X91.472 Y117.291
M204 S5000
;TYPE:Perimeter
G1 F4800
G1 X171.516 Y124.297 E3.41596
G1 X171.969 Y125.056 E.03758
G1 X172.445 Y125.752 E.03585
G1 X172.974 Y126.48 E.03826
G1 X173.561 Y127.192 E.03923
G1 X173.774 Y127.498 E.01585
G1 X174.016 Y127.902 E.02002
G1 X174.436 Y128.319 E.02516
G1 X174.917 Y129.12 E.03972
G1 X175.112 Y129.723 E.02694
G1 X175.262 Y129.97 E.01229
G1 X175.347 Y130.481 E.02202
G1 X175.094 Y130.949 E.02262
G1 X174.767 Y131.12 E.01569
G1 X174.409 Y131.452 E.02076
G1 X174.166 Y131.539 E.01097
G1 X173.563 Y131.872 E.02928
G1 X172.595 Y132.227 E.04383
G1 X171.487 Y132.56 E.04919
G1 X169.464 Y132.992 E.08794
G1 X165.181 Y133.944 E.18653
G1 X164.117 Y134.204 E.04657
G1 X163.054 Y134.504 E.04696
G1 X161.996 Y134.86 E.04746
G1 X160.95 Y135.281 E.04794
G1 X159.37 Y136.022 E.07419
G1 X158.928 Y136.276 E.02167
G1 X158.497 Y136.459 E.01991
G1 X157.924 Y136.774 E.0278
G1 X156.928 Y137.173 E.04561
G1 X155.867 Y137.491 E.04709
G1 X153.638 Y138.041 E.0976
G1 X152.526 Y138.281 E.04836
G1 X151.463 Y138.484 E.04601
G1 X150.303 Y138.664 E.04991
G1 X149.187 Y138.81 E.04785
G1 X146.971 Y139.027 E.09466
G1 X145.879 Y139.096 E.04652
G1 X144.645 Y139.14 E.0525
G1 X143.745 Y139.149 E.03826
G1 X142.712 Y139.129 E.04392
G1 X140.712 Y139.03 E.08513
G1 X138.842 Y138.898 E.0797
G1 X138.171 Y138.807 E.02879
G1 X137.784 Y138.831 E.01648
G1 X137.071 Y138.837 E.03031
G1 X136.167 Y139.093 E.03994
G1 X135.433 Y139.542 E.03658
G1 X135.188 Y139.747 E.01358
G1 X134.68 Y140.276 E.03118
G1 X134.291 Y140.814 E.02822
G1 X133.88 Y141.511 E.0344
G1 X133.094 Y142.981 E.07087
G1 X132.655 Y143.734 E.03706
G1 X132.156 Y144.491 E.03855
G1 X131.587 Y145.242 E.04006
G1 X130.948 Y145.983 E.0416
G1 X130.248 Y146.719 E.04318
G1 X129.523 Y147.419 E.04284
G1 X128.719 Y148.134 E.04574
G1 X127.908 Y148.771 E.04384
G1 X127.05 Y149.304 E.04294
G1 X125.865 Y149.889 E.05618
G1 X124.796 Y150.308 E.04881
G1 X124.238 Y150.483 E.02486
G1 X123.805 Y150.581 E.01887
G1 X123.283 Y150.732 E.0231
G1 X122.433 Y150.885 E.03672
G1 X121.674 Y150.965 E.03245
G1 X121.053 Y150.981 E.02641
G1 X120.605 Y150.951 E.01909
G1 X121.039 Y150.184 E.03747
G1 X121.403 Y149.601 E.02922
G1 X121.857 Y148.981 E.03267
G1 X123.496 Y146.955 E.11079
G1 X124.53 Y145.554 E.07403
G1 X125.037 Y144.831 E.03754
G1 X125.504 Y144.033 E.03931
G1 X125.86 Y143.143 E.04075
G1 X126.069 Y142.211 E.04061
G1 X126.229 Y140.622 E.0679
G1 X126.432 Y140.388 E.01317
G1 X126.246 Y139.434 E.04132
G1 X125.532 Y138.579 E.04736
G1 X124.54 Y138.139 E.04614
G1 X124.24 Y138.356 E.01574
G1 X123.583 Y138.233 E.02842
G1 X123.097 Y138.378 E.02156
G1 X122.03 Y138.191 E.04605
G1 X120.771 Y137.886 E.05507
G1 X119.56 Y137.53 E.05366
G1 X118.358 Y137.136 E.05378
G1 X115.964 Y136.276 E.10815
G1 X113.539 Y135.341 E.11049
G1 X112.424 Y134.948 E.05026
G1 X110.177 Y134.074 E.1025
G1 X108.662 Y133.431 E.06997
G1 X107.163 Y132.752 E.06996
G1 X105.075 Y131.709 E.09923
G1 X104.18 Y131.199 E.04379
G1 X103.031 Y130.59 E.05529
G1 X102.312 Y130.141 E.03604
G1 X101.052 Y129.394 E.06227
G1 X99.844 Y128.567 E.06224
G1 X99.084 Y128.016 E.03991
G1 X98.009 Y127.174 E.05805
G1 X97.514 Y126.671 E.03
G1 X97.29 Y126.507 E.0118
G1 X96.83 Y126.056 E.02739
G1 X96.117 Y125.482 E.03891
G1 X95.2 Y124.643 E.05284
G1 X94.103 Y123.593 E.06456
G1 X93.417 Y122.844 E.04318
G1 X93.017 Y122.309 E.0284
G1 X92.006 Y121.292 E.06097
G1 X91.246 Y120.614 E.0433
G1 X90.445 Y120.012 E.0426
G1 X89.593 Y119.508 E.04208
G1 X89.274 Y119.385 E.01454
G1 X89.449 Y119.365 E.00749
G1 X90.02 Y119.161 E.02578
G1 X90.523 Y118.841 E.02534
G1 X90.942 Y118.422 E.02519
G1 X91.261 Y117.92 E.02529
G1 X91.465 Y117.35 E.02574
M204 S6000
;WIPE_START
G1 F16800
G1 X91.472 Y117.291 E-.00806
G1 X102.423 Y118.25 E-1.49194
;WIPE_END
G1 Z.64 F21000
G1 X162.121 Y124.645
G1 Z.24
G1 E1.5 F1800
M204 S5000
;TYPE:External perimeter
G1 F4800
G1 X162.497 Y124.602 E.01609
G1 X163.076 Y124.669 E.02478
G1 X163.61 Y124.86 E.02411
G1 X164.08 Y125.159 E.02368
G1 X164.472 Y125.551 E.02357
G1 X164.771 Y126.021 E.02368
G1 X164.961 Y126.554 E.02406
G1 X165.028 Y127.133 E.02478
G1 X164.961 Y127.713 E.02482
G1 X164.771 Y128.246 E.02406
G1 X164.472 Y128.716 E.02368
G1 X164.08 Y129.108 E.02357
G1 X163.61 Y129.407 E.02368
G1 X163.076 Y129.598 E.02411
G1 X162.497 Y129.665 E.02478
G1 X161.918 Y129.598 E.02478
G1 X161.385 Y129.407 E.02407
G1 X160.914 Y129.108 E.02372
G1 X160.523 Y128.716 E.02354
G1 X160.224 Y128.246 E.02368
G1 X160.033 Y127.713 E.02407
G1 X159.966 Y127.133 E.02482
G1 X160.033 Y126.554 E.02478
G1 X160.224 Y126.021 E.02407
G1 X160.523 Y125.551 E.02368
G1 X160.914 Y125.159 E.02354
G1 X161.385 Y124.86 E.02372
G1 X161.918 Y124.669 E.02407
G1 X162.062 Y124.652 E.00616
M204 S6000
G1 X162.062 Y124.652 F21000
G1 X161.553 Y124.323
M204 S5000
;TYPE:Perimeter
G1 F4800
G1 X161.815 Y124.229 E.01183
G1 X162.068 Y124.2 E.01083
G1 X162.497 Y124.151 E.01836
G1 X163.179 Y124.229 E.02918
G1 X163.808 Y124.454 E.0284
G1 X164.362 Y124.807 E.02793
G1 X164.824 Y125.268 E.02775
G1 X165.176 Y125.822 E.0279
G1 X165.401 Y126.452 E.02844
G1 X165.48 Y127.133 E.02915
G1 X165.401 Y127.815 E.02919
G1 X165.176 Y128.444 E.0284
G1 X164.824 Y128.998 E.0279
G1 X164.362 Y129.46 E.02778
G1 X163.808 Y129.812 E.0279
G1 X163.179 Y130.037 E.0284
G1 X162.497 Y130.116 E.02919
G1 X161.815 Y130.037 E.02919
G1 X161.186 Y129.812 E.0284
G1 X160.632 Y129.46 E.0279
G1 X160.171 Y128.998 E.02775
G1 X159.818 Y128.444 E.02793
G1 X159.593 Y127.815 E.0284
G1 X159.514 Y127.133 E.02919
G1 X159.593 Y126.451 E.02919
G1 X159.818 Y125.822 E.0284
G1 X160.171 Y125.268 E.02793
G1 X160.632 Y124.807 E.02772
G1 X161.186 Y124.454 E.02793
G1 X161.496 Y124.343 E.014
M204 S6000
;WIPE_START
G1 F16800
G1 X161.553 Y124.323 E-.0082
G1 X161.815 Y124.229 E-.03778
G1 X162.068 Y124.2 E-.03456
G1 X162.497 Y124.151 E-.0586
G1 X163.179 Y124.229 E-.09316
G1 X163.808 Y124.454 E-.09066
G1 X164.362 Y124.807 E-.08915
G1 X164.824 Y125.268 E-.08858
G1 X165.176 Y125.822 E-.08908
G1 X165.401 Y126.452 E-.09079
G1 X165.48 Y127.133 E-.09304
G1 X165.401 Y127.815 E-.09318
G1 X165.176 Y128.444 E-.09066
G1 X164.824 Y128.998 E-.08908
G1 X164.362 Y129.46 E-.08867
G1 X163.808 Y129.812 E-.08908
G1 X163.179 Y130.037 E-.09066
G1 X162.497 Y130.116 E-.09318
G1 X161.825 Y130.038 E-.09189
;WIPE_END
G1 Z.64 F21000
G1 X87.453 Y119.042
G1 Z.24
G1 E1.5 F1800
M204 S5000
G1 F4800
G1 X86.704 Y119.155 E.0322
G1 X85.842 Y119.52 E.0398
G1 X85.106 Y120.027 E.038
G1 X84.796 Y120.294 E.01739
G1 X81.477 Y123.586 E.19874
G1 X80.903 Y124.057 E.03157
G1 X80.331 Y124.412 E.02862
G1 X79.821 Y124.672 E.02434
G1 X79.537 Y124.793 E.01312
G1 X79.524 Y124.403 E.01659
G1 X79.553 Y123.849 E.02358
G1 X79.652 Y123.036 E.03482
G1 X79.824 Y122.129 E.03925
G1 X80.042 Y121.153 E.04252
G1 X80.246 Y120.487 E.02961
G1 X80.322 Y120.14 E.0151
G1 X80.57 Y119.646 E.0235
G1 X80.73 Y119.178 E.02103
G1 X80.913 Y118.941 E.01273
G1 X81.293 Y118.352 E.0298
G1 X82.013 Y117.796 E.03867
G1 X82.48 Y117.632 E.02104
G1 X83.008 Y117.335 E.02575
G1 X83.944 Y116.974 E.04265
G1 X84.233 Y116.832 E.01369
G1 X84.617 Y116.69 E.01741
G1 X86.135 Y116.823 E.06478
G1 X86.196 Y117.349 E.02251
G1 X86.4 Y117.92 E.02578
G1 X86.72 Y118.422 E.02531
G1 X87.138 Y118.841 E.02516
G1 X87.403 Y119.009 E.01334
M204 S6000
;WIPE_START
G1 F16800
G1 X87.453 Y119.042 E-.00813
G1 X86.704 Y119.155 E-.1028
G1 X85.842 Y119.52 E-.12704
G1 X85.106 Y120.027 E-.12129
G1 X84.796 Y120.294 E-.05553
G1 X81.477 Y123.586 E-.63443
G1 X80.903 Y124.057 E-.10077
G1 X80.331 Y124.412 E-.09136
G1 X79.821 Y124.672 E-.07769
G1 X79.537 Y124.793 E-.0419
G1 X79.524 Y124.403 E-.05296
G1 X79.553 Y123.849 E-.07529
G1 X79.563 Y123.77 E-.01081
;WIPE_END
G1 Z.64 F21000
G1 X84.99 Y116.881
G1 Z.24
G1 E1.5 F1800
M204 S5000
;TYPE:Solid infill
;WIDTH:0.502392
G1 F4800
G1 X86.536 Y118.427 E.09345
M204 S6000
G1 X86.536 Y118.427 F21000
G1 X86.53 Y119.058
M204 S5000
G1 F4800
G1 X84.407 Y116.935 E.12832
M204 S6000
G1 X84.407 Y116.935 F21000
G1 X83.968 Y117.133
M204 S5000
G1 F4800
G1 X86.082 Y119.248 E.12781
M204 S6000
G1 X86.082 Y119.248 F21000
G1 X85.655 Y119.458
M204 S5000
G1 F4800
G1 X83.507 Y117.311 E.1298
M204 S6000
G1 X83.507 Y117.311 F21000
G1 X83.05 Y117.491
M204 S5000
G1 F4800
G1 X85.277 Y119.718 E.13461
M204 S6000
G1 X84.91 Y119.988 F21000
M204 S5000
G1 F4800
G1 X82.642 Y117.721 E.13706
M204 S6000
G1 X82.642 Y117.721 F21000
G1 X82.185 Y117.902
M204 S5000
G1 F4800
G1 X84.576 Y120.292 E.14449
M204 S6000
G1 X84.576 Y120.292 F21000
G1 X84.255 Y120.609
M204 S5000
G1 F4800
G1 X81.803 Y118.157 E.14821
M204 S6000
G1 X81.803 Y118.157 F21000
G1 X81.443 Y118.435
M204 S5000
G1 F4800
G1 X83.935 Y120.927 E.15063
M204 S6000
G1 X83.935 Y120.927 F21000
G1 X83.615 Y121.244
M204 S5000
G1 F4800
G1 X81.183 Y118.812 E.147
M204 S6000
G1 X81.183 Y118.812 F21000
G1 X80.921 Y119.188
M204 S5000
G1 F4800
G1 X83.295 Y121.562 E.14349
M204 S6000
G1 X82.975 Y121.879 F21000
M204 S5000
G1 F4800
G1 X80.737 Y119.642 E.13524
M204 S6000
G1 X80.737 Y119.642 F21000
G1 X80.531 Y120.073
M204 S5000
G1 F4800
G1 X82.655 Y122.197 E.12838
M204 S6000
G1 X82.655 Y122.197 F21000
G1 X82.335 Y122.514
M204 S5000
G1 F4800
G1 X80.386 Y120.566 E.11777
M204 S6000
G1 X80.386 Y120.566 F21000
G1 X80.237 Y121.054
M204 S5000
G1 F4800
G1 X82.014 Y122.832 E.10744
M204 S6000
G1 X82.014 Y122.832 F21000
G1 X81.694 Y123.149
M204 S5000
G1 F4800
G1 X80.111 Y121.566 E.09568
M204 S6000
G1 X80.111 Y121.566 F21000
G1 X79.994 Y122.087
M204 S5000
G1 F4800
G1 X81.374 Y123.467 E.08341
M204 S6000
