; generated by PrusaSlicer 2.7.4+win64 on 2024-06-04 at 06:43:49 UTC


;
;
; 

; external perimeters extrusion width = 0.42mm
; perimeters extrusion width = 0.45mm
; infill extrusion width = 0.45mm
; solid infill extrusion width = 0.42mm
; top infill extrusion width = 0.42mm
; support material extrusion width = 0.42mm
; first layer extrusion width = 0.50mm

;TYPE:Custom
G9111 bedTemp=65 extruderTemp=230
M117
M900 K0.05
G21 ; set units to millimeters
G90 ; use absolute coordinates
M83 ; use relative distances for extrusion
M107
;LAYER_CHANGE
;Z:0.24
;HEIGHT:0.24
G1 E-.8 F4800
G1 Z.24 F21000
G1 X91.05 Y127.374
G1 Z.24
G1 E.8 F4800
M204 S5000
;TYPE:External perimeter
;WIDTH:0.5
G1 F3600
G1 X89.121 Y129.724 E.12517
G1 X87.715 Y131.292 E.08671
G1 X87.016 Y132.02 E.04155
G1 X85.614 Y133.38 E.08042
G1 X84.916 Y134.003 E.03852
G1 X83.522 Y135.15 E.07432
G1 X82.572 Y135.864 E.04893
G1 X81.436 Y136.648 E.05683
G1 X80.74 Y137.087 E.03388
G1 X80.04 Y137.5 E.03346
G1 X79.331 Y137.89 E.03331
G1 X77.991 Y138.559 E.06166
G1 X78.443 Y137.353 E.05302
G1 X80.054 Y133.246 E.18163
G1 X81.053 Y130.555 E.11818
G1 X81.583 Y129.014 E.06709
G1 X82.059 Y127.539 E.06381
G1 X83.136 Y123.972 E.1534
G1 X82.988 Y121.406 E.10582
G1 X82.828 Y119.426 E.08178
G1 X82.612 Y117.499 E.07983
G1 X82.328 Y115.504 E.08296
G1 X81.911 Y113.085 E.10106
G1 X81.524 Y111.236 E.07777
G1 X81.065 Y109.371 E.07908
G1 X80.679 Y107.99 E.05904
G1 X81.104 Y108.312 E.02195
G1 X81.833 Y108.891 E.03833
G1 X82.446 Y109.407 E.03299
G1 X83.314 Y110.19 E.04813
G1 X83.903 Y110.763 E.03383
G1 X84.865 Y111.769 E.05731
G1 X85.831 Y112.871 E.06033
G1 X86.323 Y113.485 E.03239
G1 X87.349 Y114.902 E.07203
G1 X87.875 Y115.689 E.03897
G1 X88.407 Y116.529 E.04094
G1 X88.937 Y117.427 E.04293
G1 X89.456 Y118.389 E.045
G1 X89.959 Y119.405 E.04668
G1 X91.334 Y122.334 E.13322
G1 X91.827 Y122.198 E.02106
G1 X92.576 Y121.944 E.03256
G1 X92.58 Y122.601 E.02705
G1 X96.68 Y122.593 E.1688
G1 X96.669 Y127.687 E.20973
G1 X92.588 Y127.695 E.16802
G1 X92.588 Y128.072 E.01552
G1 X91.105 Y127.399 E.06705
M204 S15000
M204 S10000
G1 X91.105 Y127.399 F21000
G1 X90.891 Y126.861
M204 S5000
;TYPE:Perimeter
G1 F3600
G1 X88.781 Y129.432 E.13693
G1 X87.386 Y130.987 E.08601
G1 X86.698 Y131.704 E.04091
G1 X85.309 Y133.051 E.07966
G1 X84.622 Y133.664 E.03791
G1 X83.933 Y134.246 E.03713
G1 X83.247 Y134.796 E.0362
G1 X82.31 Y135.5 E.04825
G1 X81.188 Y136.274 E.05612
G1 X80.507 Y136.704 E.03316
G1 X79.818 Y137.11 E.03293
G1 X78.811 Y137.648 E.04701
G1 X80.473 Y133.406 E.18757
G1 X81.476 Y130.706 E.11858
G1 X82.008 Y129.156 E.06747
G1 X82.487 Y127.673 E.06416
G1 X83.589 Y124.026 E.15686
G1 X83.436 Y121.375 E.10933
G1 X83.275 Y119.383 E.08228
G1 X83.057 Y117.443 E.08037
G1 X82.771 Y115.435 E.08351
G1 X82.352 Y113.001 E.10168
G1 X81.962 Y111.136 E.07844
G1 X81.478 Y109.182 E.08288
G1 X81.549 Y109.238 E.00372
G1 X82.151 Y109.745 E.0324
G1 X83.008 Y110.518 E.04752
G1 X83.585 Y111.079 E.03313
G1 X84.534 Y112.072 E.05655
G1 X85.487 Y113.159 E.05952
G1 X85.966 Y113.757 E.03154
G1 X86.981 Y115.158 E.07123
G1 X87.499 Y115.933 E.03838
G1 X88.024 Y116.763 E.04043
G1 X88.547 Y117.647 E.04229
G1 X89.058 Y118.595 E.04434
G1 X89.555 Y119.599 E.04612
G1 X91.088 Y122.867 E.14861
G1 X92.132 Y122.569 E.0447
G1 X92.135 Y123.05 E.0198
G1 X96.231 Y123.042 E.16864
G1 X96.221 Y127.239 E.1728
G1 X92.139 Y127.247 E.16806
G1 X92.139 Y127.376 E.00531
G1 X90.932 Y126.828 E.05458
M204 S15000
;WIPE_START
G1 F16800
G1 X90.891 Y126.861 E-.01429
G1 X89.055 Y129.099 E-.78571
;WIPE_END
M204 S10000
G1 X81.853 Y109.95 F21000
G1 E.8 F4800
M204 S5000
;TYPE:Solid infill
;WIDTH:0.509225
G1 F3600
G1 X85.966 Y114.063 E.2444
M204 S15000
;WIPE_START
G1 F16800
G1 X83.882 Y111.979 E-.8
;WIPE_END
M204 S10000
G1 X87.456 Y116.2 F21000
G1 E.8 F4800
M204 S5000
G1 F3600
G1 X82.066 Y110.81 E.32029
M204 S15000
M204 S10000
G1 X82.066 Y110.81 F21000
G1 X82.251 Y111.643
M204 S5000
G1 F3600
G1 X88.445 Y117.837 E.36806
M204 S15000
;WIPE_START
G1 F16800
G1 X86.361 Y115.753 E-.8
;WIPE_END
M204 S10000
G1 X89.153 Y119.191 F21000
G1 E.8 F4800
M204 S5000
G1 F3600
G1 X82.422 Y112.461 E.39994
M204 S15000
M204 S10000
G1 X82.422 Y112.461 F21000
G1 X82.58 Y113.266
M204 S5000
G1 F3600
G1 X89.748 Y120.435 E.42597
M204 S15000
;WIPE_START
G1 F16800
G1 X87.664 Y118.351 E-.8
;WIPE_END
M204 S10000
G1 X90.321 Y121.655 F21000
G1 E.8 F4800
M204 S5000
G1 F3600
G1 X82.714 Y114.048 E.45202
M204 S15000
M204 S10000
G1 X82.714 Y114.048 F21000
G1 X82.849 Y114.83
M204 S5000
G1 F3600
G1 X90.894 Y122.874 E.47802
M204 S15000
;WIPE_START
G1 F16800
G1 X88.81 Y120.79 E-.8
;WIPE_END
M204 S10000
G1 X95.126 Y123.223 F21000
G1 E.8 F4800
M204 S5000
G1 F3600
G1 X96.049 Y124.146 E.05485
M204 S15000
M204 S10000
G1 X96.049 Y124.146 F21000
G1 X96.047 Y124.792
M204 S5000
G1 F3600
G1 X94.48 Y123.225 E.09311
M204 S15000
M204 S10000
G1 X94.48 Y123.225 F21000
G1 X93.834 Y123.226
M204 S5000
G1 F3600
G1 X96.046 Y125.438 E.13144
M204 S15000
M204 S10000
G1 X96.046 Y125.438 F21000
G1 X96.045 Y126.083
M204 S5000
G1 F3600
G1 X93.188 Y123.227 E.16974
M204 S15000
M204 S10000
G1 X93.188 Y123.227 F21000
G1 X92.542 Y123.228
M204 S5000
G1 F3600
G1 X96.043 Y126.729 E.20804
M204 S15000
M204 S10000
G1 X96.043 Y126.729 F21000
G1 X95.727 Y127.06
M204 S5000
G1 F3600
G1 X91.58 Y122.913 E.24642
M204 S15000
M204 S10000
G1 X91.58 Y122.913 F21000
G1 X91.076 Y123.057
M204 S5000
G1 F3600
G1 X95.081 Y127.062 E.23799
M204 S15000
M204 S10000
G1 X95.081 Y127.062 F21000
G1 X94.435 Y127.063
M204 S5000
G1 F3600
G1 X82.977 Y115.605 E.68086
M204 S15000
M204 S10000
G1 X82.977 Y115.605 F21000
G1 X83.084 Y116.359
M204 S5000
G1 F3600
G1 X93.789 Y127.064 E.63611
M204 S15000
M204 S10000
G1 X93.789 Y127.064 F21000
G1 X93.143 Y127.066
M204 S5000
G1 F3600
G1 X83.191 Y117.114 E.59137
M204 S15000
M204 S10000
G1 X83.191 Y117.114 F21000
G1 X83.283 Y117.853
M204 S5000
G1 F3600
G1 X92.497 Y127.067 E.54752
M204 S15000
M204 S10000
G1 X92.497 Y127.067 F21000
G1 X91.814 Y127.031
M204 S5000
G1 F3600
G1 X83.365 Y118.583 E.50203
M204 S15000
M204 S10000
G1 X83.365 Y118.583 F21000
G1 X83.447 Y119.312
M204 S5000
G1 F3600
G1 X90.811 Y126.676 E.43759
M204 S15000
M204 S10000
G1 X90.811 Y126.676 F21000
G1 X90.519 Y127.031
M204 S5000
G1 F3600
G1 X83.506 Y120.018 E.41673
M204 S15000
M204 S10000
G1 X83.506 Y120.018 F21000
G1 X83.563 Y120.722
M204 S5000
G1 F3600
G1 X90.227 Y127.387 E.39602
M204 S15000
M204 S10000
G1 X90.227 Y127.387 F21000
G1 X89.936 Y127.742
M204 S5000
G1 F3600
G1 X83.618 Y121.425 E.3754
M204 S15000
M204 S10000
G1 X83.618 Y121.425 F21000
G1 X83.658 Y122.112
M204 S5000
G1 F3600
G1 X89.644 Y128.098 E.3557
M204 S15000
M204 S10000
G1 X89.644 Y128.098 F21000
G1 X89.352 Y128.453
M204 S5000
G1 F3600
G1 X83.698 Y122.799 E.33597
M204 S15000
M204 S10000
G1 X83.698 Y122.799 F21000
G1 X83.737 Y123.486
M204 S5000
G1 F3600
G1 X89.06 Y128.809 E.3163
M204 S15000
M204 S10000
G1 X89.06 Y128.809 F21000
G1 X88.768 Y129.164
M204 S5000
G1 F3600
G1 X83.742 Y124.138 E.29866
M204 S15000
M204 S10000
G1 X83.742 Y124.138 F21000
G1 X83.592 Y124.635
M204 S5000
G1 F3600
G1 X88.468 Y129.512 E.28977
M204 S15000
M204 S10000
G1 X88.468 Y129.512 F21000
G1 X88.162 Y129.853
M204 S5000
G1 F3600
G1 X83.442 Y125.132 E.2805
M204 S15000
M204 S10000
G1 X83.442 Y125.132 F21000
G1 X83.292 Y125.63
M204 S5000
G1 F3600
G1 X87.856 Y130.194 E.2712
M204 S15000
M204 S10000
G1 X87.856 Y130.194 F21000
G1 X87.55 Y130.535
M204 S5000
G1 F3600
G1 X83.142 Y126.127 E.26193
M204 S15000
M204 S10000
G1 X83.142 Y126.127 F21000
G1 X82.991 Y126.624
M204 S5000
G1 F3600
G1 X87.244 Y130.876 E.25269
M204 S15000
M204 S10000
G1 X87.244 Y130.876 F21000
G1 X86.927 Y131.207
M204 S5000
G1 F3600
G1 X82.841 Y127.121 E.2428
M204 S15000
M204 S10000
G1 X82.841 Y127.121 F21000
G1 X82.691 Y127.618
M204 S5000
G1 F3600
G1 X86.61 Y131.537 E.23288
M204 S15000
M204 S10000
G1 X86.61 Y131.537 F21000
G1 X86.283 Y131.857
M204 S5000
G1 F3600
G1 X82.535 Y128.109 E.22271
M204 S15000
M204 S10000
G1 X82.535 Y128.109 F21000
G1 X82.377 Y128.599
M204 S5000
G1 F3600
G1 X85.954 Y132.176 E.21255
M204 S15000
M204 S10000
G1 X85.954 Y132.176 F21000
G1 X85.625 Y132.494
M204 S5000
G1 F3600
G1 X82.219 Y129.088 E.20239
M204 S15000
M204 S10000
G1 X82.219 Y129.088 F21000
G1 X82.055 Y129.572
M204 S5000
G1 F3600
G1 X85.297 Y132.813 E.19262
M204 S15000
M204 S10000
G1 X85.297 Y132.813 F21000
G1 X84.959 Y133.123
M204 S5000
G1 F3600
G1 X81.89 Y130.053 E.1824
M204 S15000
M204 S10000
G1 X81.89 Y130.053 F21000
G1 X81.724 Y130.535
M204 S5000
G1 F3600
G1 X84.617 Y133.428 E.17191
M204 S15000
M204 S10000
G1 X84.617 Y133.428 F21000
G1 X84.269 Y133.727
M204 S5000
G1 F3600
G1 X81.553 Y131.012 E.16136
M204 S15000
M204 S10000
G1 X81.553 Y131.012 F21000
G1 X81.378 Y131.484
M204 S5000
G1 F3600
G1 X83.918 Y134.024 E.15093
M204 S15000
M204 S10000
G1 X83.918 Y134.024 F21000
G1 X83.561 Y134.314
M204 S5000
G1 F3600
G1 X81.203 Y131.956 E.14012
M204 S15000
M204 S10000
G1 X81.203 Y131.956 F21000
G1 X81.028 Y132.428
M204 S5000
G1 F3600
G1 X83.202 Y134.602 E.12918
M204 S15000
M204 S10000
G1 X83.202 Y134.602 F21000
G1 X82.834 Y134.882
M204 S5000
G1 F3600
G1 X80.852 Y132.9 E.11777
M204 S15000
M204 S10000
G1 X80.852 Y132.9 F21000
G1 X80.677 Y133.372
M204 S5000
G1 F3600
G1 X82.464 Y135.159 E.10619
M204 S15000
M204 S10000
G1 X82.464 Y135.159 F21000
G1 X82.091 Y135.433
M204 S5000
G1 F3600
G1 X80.496 Y133.838 E.09478
M204 S15000
M204 S10000
G1 X80.496 Y133.838 F21000
G1 X80.314 Y134.304
M204 S5000
G1 F3600
G1 X81.708 Y135.697 E.0828
M204 S15000
M204 S10000
G1 X81.708 Y135.697 F21000
G1 X81.325 Y135.962
M204 S5000
G1 F3600
G1 X80.132 Y134.769 E.07089
M204 S15000
M204 S10000
G1 X80.132 Y134.769 F21000
G1 X79.95 Y135.234
M204 S5000
G1 F3600
G1 X80.936 Y136.221 E.05862
M204 S15000
M204 S10000
G1 X80.936 Y136.221 F21000
G1 X80.54 Y136.471
M204 S5000
G1 F3600
G1 X79.767 Y135.699 E.0459
M204 S15000
M204 S10000
G1 X79.767 Y135.699 F21000
G1 X79.585 Y136.164
M204 S5000
G1 F3600
G1 X80.136 Y136.715 E.03274
M204 S15000
M204 S10000
G1 X80.136 Y136.715 F21000
G1 X79.729 Y136.955
M204 S5000
G1 F3600
G1 X79.403 Y136.629 E.01937
M204 S15000
;WIPE_START
G1 F16800
G1 X79.729 Y136.955 E-.12514
;WIPE_END
G1 E-.67486 F4800
M204 S10000
G1 X110.364 Y127.659 F21000
G1 E.8 F4800
M204 S5000
;TYPE:External perimeter
;WIDTH:0.5
G1 F3600
G1 X110.381 Y136.848 E.37832
G1 X102.498 Y132.773 E.36535
G1 X100.423 Y131.723 E.09574
G1 X98.295 Y130.687 E.09744
G1 X95.371 Y129.337 E.1326
G1 X95.37 Y129.037 E.01235
G1 X101.414 Y129.025 E.24884
G1 X101.414 Y127.947 E.04438
G1 X101.401 Y121.625 E.26028
G1 X95.357 Y121.637 E.24884
G1 X95.356 Y120.983 E.02693
G1 X97.464 Y120.27 E.09162
G1 X100.251 Y119.445 E.11967
G1 X104.123 Y118.368 E.16547
G1 X110.34 Y116.687 E.26515
G1 X110.352 Y122.565 E.242
G1 X114.408 Y122.557 E.16699
G1 X114.392 Y127.651 E.20973
G1 X110.424 Y127.658 E.16337
M204 S15000
M204 S10000
G1 X110.424 Y127.658 F21000
G1 X109.914 Y127.211
M204 S5000
;TYPE:Perimeter
G1 F3600
G1 X109.931 Y136.11 E.36638
G1 X102.703 Y132.374 E.33499
G1 X100.623 Y131.321 E.09598
G1 X98.487 Y130.282 E.09779
G1 X96.761 Y129.484 E.07829
G1 X101.862 Y129.473 E.21001
G1 X101.849 Y121.176 E.3416
G1 X96.152 Y121.187 E.23455
G1 X97.599 Y120.698 E.06288
G1 X100.375 Y119.876 E.1192
G1 X104.242 Y118.801 E.16525
G1 X109.893 Y117.273 E.24101
G1 X109.905 Y123.014 E.23636
G1 X113.958 Y123.006 E.16687
G1 X113.945 Y127.203 E.1728
G1 X109.974 Y127.211 E.16349
M204 S15000
;WIPE_START
G1 F16800
G1 X109.914 Y127.211 E-.01629
G1 X109.92 Y130.098 E-.78371
;WIPE_END
M204 S10000
G1 X109.716 Y118.412 F21000
G1 E.8 F4800
M204 S5000
;TYPE:Solid infill
;WIDTH:0.501492
G1 F3600
G1 X109.003 Y117.699 E.04165
M204 S15000
M204 S10000
G1 X109.003 Y117.699 F21000
G1 X108.502 Y117.835
M204 S5000
G1 F3600
G1 X109.717 Y119.05 E.07098
M204 S15000
M204 S10000
G1 X109.717 Y119.05 F21000
G1 X109.719 Y119.687
M204 S5000
G1 F3600
G1 X108.002 Y117.97 E.1003
M204 S15000
M204 S10000
G1 X108.002 Y117.97 F21000
G1 X107.501 Y118.106
M204 S5000
G1 F3600
G1 X109.72 Y120.325 E.12963
M204 S15000
M204 S10000
G1 X109.72 Y120.325 F21000
G1 X109.721 Y120.962
M204 S5000
G1 F3600
G1 X107 Y118.241 E.15896
M204 S15000
M204 S10000
G1 X107 Y118.241 F21000
G1 X106.499 Y118.377
M204 S5000
G1 F3600
G1 X109.722 Y121.6 E.18828
M204 S15000
M204 S10000
G1 X109.722 Y121.6 F21000
G1 X109.724 Y122.238
M204 S5000
G1 F3600
G1 X105.998 Y118.512 E.21767
M204 S15000
M204 S10000
G1 X105.998 Y118.512 F21000
G1 X105.497 Y118.647
M204 S5000
G1 F3600
G1 X109.725 Y122.875 E.24699
M204 S15000
;WIPE_START
G1 F16800
G1 X107.641 Y120.791 E-.8
;WIPE_END
M204 S10000
G1 X113.218 Y123.187 F21000
G1 E.8 F4800
M204 S5000
G1 F3600
G1 X113.777 Y123.745 E.03263
M204 S15000
M204 S10000
G1 X113.777 Y123.745 F21000
G1 X113.775 Y124.38
M204 S5000
G1 F3600
G1 X112.583 Y123.188 E.06963
M204 S15000
M204 S10000
G1 X111.948 Y123.189 F21000
M204 S5000
G1 F3600
G1 X113.773 Y125.014 E.10661
M204 S15000
M204 S10000
G1 X113.773 Y125.014 F21000
G1 X113.771 Y125.648
M204 S5000
G1 F3600
G1 X111.313 Y123.191 E.14356
M204 S15000
M204 S10000
G1 X111.313 Y123.191 F21000
G1 X110.678 Y123.192
M204 S5000
G1 F3600
G1 X113.769 Y126.283 E.18057
M204 S15000
M204 S10000
G1 X113.769 Y126.283 F21000
G1 X113.767 Y126.917
M204 S5000
G1 F3600
G1 X110.042 Y123.193 E.21758
M204 S15000
;WIPE_START
G1 F16800
G1 X112.126 Y125.277 E-.8
;WIPE_END
M204 S10000
G1 X113.238 Y127.025 F21000
G1 E.8 F4800
M204 S5000
G1 F3600
G1 X104.996 Y118.783 E.48148
M204 S15000
M204 S10000
G1 X104.996 Y118.783 F21000
G1 X104.495 Y118.918
M204 S5000
G1 F3600
G1 X112.603 Y127.026 E.47366
M204 S15000
M204 S10000
G1 X112.603 Y127.026 F21000
G1 X111.968 Y127.027
M204 S5000
G1 F3600
G1 X103.996 Y119.056 E.46568
M204 S15000
M204 S10000
G1 X103.996 Y119.056 F21000
G1 X103.498 Y119.194
M204 S5000
G1 F3600
G1 X111.333 Y127.029 E.45771
M204 S15000
M204 S10000
G1 X111.333 Y127.029 F21000
G1 X110.698 Y127.03
M204 S5000
G1 F3600
G1 X103 Y119.333 E.44967
M204 S15000
M204 S10000
G1 X103 Y119.333 F21000
G1 X102.502 Y119.471
M204 S5000
G1 F3600
G1 X110.062 Y127.031 E.44164
M204 S15000
M204 S10000
G1 X110.062 Y127.031 F21000
G1 X109.735 Y127.34
M204 S5000
G1 F3600
G1 X102.004 Y119.609 E.45163
M204 S15000
M204 S10000
G1 X102.004 Y119.609 F21000
G1 X101.506 Y119.748
M204 S5000
G1 F3600
G1 X109.736 Y127.978 E.48078
M204 S15000
M204 S10000
G1 X109.736 Y127.978 F21000
G1 X109.737 Y128.615
M204 S5000
G1 F3600
G1 X101.008 Y119.886 E.50993
M204 S15000
M204 S10000
G1 X101.008 Y119.886 F21000
G1 X100.511 Y120.025
M204 S5000
G1 F3600
G1 X101.483 Y120.997 E.05678
M204 S15000
M204 S10000
G1 X101.483 Y120.997 F21000
G1 X100.848 Y120.999
M204 S5000
G1 F3600
G1 X100.018 Y120.169 E.04849
M204 S15000
M204 S10000
G1 X100.018 Y120.169 F21000
G1 X99.527 Y120.314
M204 S5000
G1 F3600
G1 X100.213 Y121 E.04007
M204 S15000
M204 S10000
G1 X100.213 Y121 F21000
G1 X99.578 Y121.001
M204 S5000
G1 F3600
G1 X99.036 Y120.46 E.03163
M204 S15000
;WIPE_START
G1 F16800
G1 X99.578 Y121.001 E-.20786
;WIPE_END
G1 E-.59214 F4800
M204 S10000
G1 X102.029 Y121.543 F21000
G1 E.8 F4800
M204 S5000
G1 F3600
G1 X109.739 Y129.253 E.45041
M204 S15000
M204 S10000
G1 X109.739 Y129.253 F21000
G1 X109.74 Y129.891
M204 S5000
G1 F3600
G1 X102.03 Y122.181 E.45041
M204 S15000
M204 S10000
G1 X102.03 Y122.181 F21000
G1 X102.031 Y122.818
M204 S5000
G1 F3600
G1 X109.741 Y130.528 E.45041
M204 S15000
M204 S10000
G1 X109.741 Y130.528 F21000
G1 X109.742 Y131.166
M204 S5000
G1 F3600
G1 X102.032 Y123.455 E.45043
M204 S15000
M204 S10000
G1 X102.032 Y123.455 F21000
G1 X102.033 Y124.093
M204 S5000
G1 F3600
G1 X109.744 Y131.803 E.45043
M204 S15000
M204 S10000
G1 X109.744 Y131.803 F21000
G1 X109.745 Y132.441
M204 S5000
G1 F3600
G1 X102.034 Y124.73 E.45046
M204 S15000
M204 S10000
G1 X102.034 Y124.73 F21000
G1 X102.035 Y125.368
M204 S5000
G1 F3600
G1 X109.746 Y133.079 E.45046
M204 S15000
M204 S10000
G1 X109.746 Y133.079 F21000
G1 X109.747 Y133.716
M204 S5000
G1 F3600
G1 X102.036 Y126.005 E.45046
M204 S15000
M204 S10000
G1 X102.037 Y126.642 F21000
M204 S5000
G1 F3600
G1 X109.749 Y134.354 E.45052
M204 S15000
M204 S10000
G1 X109.749 Y134.354 F21000
G1 X109.75 Y134.991
M204 S5000
G1 F3600
