; generated by PrusaSlicer 2.7.2+win64 on 2024-05-08 at 10:48:27 UTC


;
;
; 

; external perimeters extrusion width = 0.42mm
; perimeters extrusion width = 0.45mm
; infill extrusion width = 0.45mm
; solid infill extrusion width = 0.42mm
; top infill extrusion width = 0.42mm
; first layer extrusion width = 0.50mm

;TYPE:Custom
G4 P5000
G9111 bedTemp=65 extruderTemp=230
M117
M900 K0.05
G21 ; set units to millimeters
G90 ; use absolute coordinates
M83 ; use relative distances for extrusion
M107
;LAYER_CHANGE
;Z:0.24
;HEIGHT:0.24
G1 E-.8 F4800
G1 Z.24 F18000
G1 X77.055 Y103.603
G1 Z.24
G1 E.8 F4800
M204 S5000
;TYPE:Skirt/Brim
;WIDTH:0.5
G1 F3599.884
G1 X78.021 Y102.959 E.0478
G1 X78.958 Y102.584 E.04155
G1 X79.938 Y102.419 E.04092
G1 X81.034 Y102.479 E.04519
G1 X81.973 Y102.734 E.04006
G1 X82.827 Y103.125 E.03867
G1 X84.737 Y104.547 E.09804
G1 X85.549 Y105.401 E.04852
G1 X87.703 Y107.412 E.12132
G1 X89.685 Y109.594 E.12136
G1 X90.352 Y110.426 E.0439
G1 X92.124 Y112.942 E.1267
G1 X93.343 Y114.94 E.09636
G1 X93.964 Y116.11 E.05453
G1 X97.166 Y115.074 E.13856
G1 X101.729 Y113.778 E.19529
G1 X105.665 Y112.712 Z.24 E.16791
G1 X109.602 Y111.645 Z.24 E.16791
G1 X110.468 Y111.581 E.03575
G1 X111.313 Y111.196 E.03823
G1 X114.006 Y110.48 Z.24 E.1147
G1 F3600
G1 X116.698 Y109.764 Z.24 E.1147
G1 F3599.968
G1 X120.921 Y108.71 Z.24 E.17921
G1 F3600
G1 X125.144 Y107.655 Z.24 E.1792
G1 F3599.972
G1 X127.539 Y107.1 E.10122
G1 X128.518 Y107.055 E.04035
G1 X129.353 Y106.718 E.03707
G1 X130.302 Y106.535 E.03979
G1 X130.139 Y104.153 E.0983
G1 X129.782 Y102.118 E.08506
G1 X129.076 Y99.801 E.09972
G1 X128.645 Y99.01 E.03709
G1 X128.155 Y97.662 E.05905
G1 X127.893 Y95.939 E.07175
G1 X128.032 Y94.797 E.04736
G1 X128.517 Y93.579 E.05398
G1 X129.144 Y92.725 E.04362
G1 X129.965 Y91.979 E.04567
G1 X130.848 Y91.451 E.04236
G1 X131.845 Y91.125 E.04319
G1 X133.429 Y91.065 E.06526
G1 X134.539 Y91.309 E.04679
G1 X135.651 Y91.665 E.04807
G1 X136.635 Y92.16 E.04535
G1 X140.288 Y93.614 E.16187
G1 X142.858 Y94.949 E.11923
G1 X144.557 Y96.072 E.08385
G1 X146.097 Y97.331 E.08189
G1 X146.855 Y98.064 E.04341
G1 X148.072 Y99.453 E.07603
G1 X149.166 Y100.95 E.07634
G1 X149.964 Y102.234 E.06224
G1 X150.548 Y103.342 E.05157
G1 X150.9 Y104.707 E.05804
G1 X150.92 Y105.272 E.02328
G1 X158.645 Y108.636 E.34689
G1 X160.936 Y109.734 E.1046
G1 X163.707 Y111.208 E.12922
G1 X166.12 Y113.434 E.13516
G1 X168.028 Y115.503 Z.24 E.11588
G1 F3600
G1 X169.936 Y117.572 Z.24 E.11587
G1 X171.706 Y119.771 E.11622
G1 F3599.917
G1 X173.74 Y122.744 E.14831
G1 X174.136 Y123.701 E.04264
G1 X174.305 Y124.602 E.03774
G1 X174.298 Y125.379 E.03199
G1 X175.293 Y126.019 E.04871
G1 X176.253 Y127.054 E.05812
G1 X177.334 Y129.032 E.0928
G1 X178.988 Y132.395 E.1543
G1 X180.741 Y136.358 E.17841
G1 X182.075 Y139.63 E.14548
G1 X182.275 Y140.728 E.04595
G1 X182.25 Y141.579 E.03505
G1 X182.078 Y142.404 E.0347
G1 X181.531 Y143.62 E.0549
G1 X180.741 Y144.622 E.05253
G1 X179.945 Y145.237 E.04141
G1 X179.098 Y145.65 E.0388
G1 X176.199 Y146.482 Z.24 E.12418
G1 X173.3 Y147.315 Z.24 E.12418
G1 X169.48 Y148.28 Z.24 E.16221
G1 X165.66 Y149.245 Z.24 E.16222
G1 X151.779 Y152.426 E.58631
G1 X147.822 Y152.196 E.16319
G1 X146.887 Y151.934 E.03998
G1 X145.877 Y152.018 E.04173
G1 X141.464 Y151.556 Z.24 E.18269
G1 X137.05 Y151.095 Z.24 E.18269
G1 F3598.778
G1 X132.637 Y150.633 Z.24 E.18269
G1 X132.528 Y150.885 E.0113
G1 F3599.436
G1 X130.879 Y153.266 E.11924
G1 X129.469 Y155.001 E.09205
G1 X127.323 Y157.081 E.12304
G1 X124.942 Y158.93 E.12412
G1 X122.439 Y160.476 E.12112
G1 X119.657 Y161.833 E.12744
G1 X115.164 Y163.652 E.19957
G1 X114.074 Y163.947 E.04649
G1 X113.126 Y164.034 E.03919
G1 X111.785 Y163.801 E.05604
G1 X110.683 Y163.3 E.04984
G1 X109.408 Y162.159 E.07044
G1 X108.731 Y161.11 E.0514
G1 X108.353 Y159.903 E.05207
G1 X108.321 Y158.525 E.05675
G1 X108.794 Y156.85 E.07166
G1 X109.619 Y155.308 E.072
G1 X110.395 Y154.32 E.05172
G1 X110.949 Y153.372 E.04521
G1 X111.456 Y152.323 E.04797
G1 X112.022 Y150.846 E.06512
G1 X112.794 Y147.992 E.12172
G1 X113.148 Y145.966 E.08468
G1 X113.319 Y144.439 E.06326
G1 F3598.906
G1 X113.336 Y144.055 E.01583
G1 F3599.801
G1 X110.459 Y142.561 E.13347
G1 X109.844 Y142.056 E.03276
G1 X109.059 Y141.89 E.03303
G1 X108.157 Y141.566 E.03946
G1 X107.322 Y141.135 E.03869
G1 X106.564 Y140.585 E.03856
G1 X99.753 Y137.051 E.31592
G1 X97.367 Y135.888 Z.24 E.10927
G1 X94.981 Y134.726 Z.24 E.10927
G1 X93.288 Y134.106 E.07423
G1 X92.467 Y133.559 E.04062
G1 X90.613 Y135.578 E.11285
G1 X89.089 Y137.057 E.08743
G1 X86.659 Y139.12 E.13124
G1 X84.2 Y140.885 E.12462
G1 X82.051 Y142.178 E.10326
G1 X81.151 Y142.814 E.04537
G1 X79.487 Y143.606 E.07587
G1 X78.271 Y143.936 E.05187
G1 X77.193 Y143.984 E.04443
G1 X76.148 Y143.788 E.04377
G1 X75.114 Y143.334 E.04649
G1 X73.601 Y142.023 E.08242
G1 X73.176 Y141.356 E.03256
G1 X72.861 Y140.633 E.03247
G1 X72.635 Y139.702 E.03944
G1 X72.842 Y137.447 E.09323
G1 X73.411 Y135.941 E.06628
G1 X74.022 Y134.768 E.05445
G1 X75.13 Y131.883 Z.24 E.12725
G1 X76.237 Y128.997 Z.24 E.12725
G1 X78.034 Y123.368 E.24327
G1 X77.792 Y119.91 E.14272
G1 X77.187 Y115.398 E.18743
G1 X76.485 Y111.899 E.14693
G1 X76.287 Y111.162 E.03142
G1 X75.94 Y110.362 E.0359
G1 X75.336 Y108.003 E.10026
G1 X75.322 Y107.175 E.03409
G1 X75.476 Y106.053 E.04663
G1 X75.762 Y105.272 E.03424
G1 X76.253 Y104.445 E.0396
G1 X77.014 Y103.647 E.0454
M204 S15000
M204 S10000
G1 X77.014 Y103.647 F18000
G1 X77.338 Y103.956
M204 S5000
G1 F3589.043
G1 X77.363 Y103.93 E.00149
G1 F3599.966
G1 X78.211 Y103.366 E.04193
G1 X79.057 Y103.022 E.0376
G1 X79.988 Y102.865 E.03887
G1 X80.939 Y102.918 E.03921
G1 X81.838 Y103.162 E.03835
G1 X82.579 Y103.5 E.03353
G1 X84.425 Y104.87 E.09465
G1 X85.238 Y105.725 E.04857
G1 X87.38 Y107.723 E.1206
G1 X88.294 Y108.687 E.05469
G1 X89.992 Y110.693 E.1082
G1 X91.142 Y112.28 E.08069
G1 X92.343 Y114.128 E.09074
G1 X93.747 Y116.659 E.11916
G1 X97.297 Y115.503 E.15371
G1 X101.851 Y114.21 E.1949
G1 X105.774 Y113.147 Z.24 E.16734
G1 X109.697 Y112.084 Z.24 E.16734
G1 X110.63 Y112.02 E.0385
G1 X111.447 Y111.625 E.03736
G1 X114.13 Y110.911 Z.24 E.11429
G1 F3600
G1 X116.812 Y110.197 Z.24 E.11428
G1 F3599.945
G1 X121.031 Y109.144 Z.24 E.17901
G1 F3600
G1 X125.249 Y108.091 Z.24 E.17901
G1 F3599.984
G1 X127.62 Y107.541 E.10021
G1 X128.614 Y107.5 E.04096
G1 X129.5 Y107.143 E.03933
G1 X130.764 Y106.905 E.05295
G1 X130.468 Y103.253 E.15085
G1 X130.218 Y102.012 E.05212
G1 X129.8 Y100.532 E.06332
G1 X129.488 Y99.619 E.03972
G1 X129.06 Y98.84 E.03659
G1 X128.595 Y97.572 E.0556
G1 X128.341 Y95.904 E.06946
G1 X128.473 Y94.883 E.04239
G1 X128.896 Y93.82 E.0471
G1 X129.464 Y93.04 E.03973
G1 X130.215 Y92.352 E.04193
G1 X131.056 Y91.849 E.04035
G1 X131.953 Y91.561 E.03879
G1 X133.36 Y91.51 E.05797
G1 X134.432 Y91.745 E.04518
G1 X135.497 Y92.086 E.04604
G1 X136.455 Y92.572 E.04423
G1 X140.104 Y94.023 E.16167
G1 X142.633 Y95.337 E.11734
G1 X144.296 Y96.437 E.08209
G1 X145.799 Y97.666 E.07993
G1 X146.529 Y98.372 E.04181
G1 X147.725 Y99.737 E.07472
G1 X148.795 Y101.202 E.07469
G1 X150.139 Y103.527 E.11057
G1 X150.458 Y104.791 E.05367
G1 X150.477 Y105.566 E.03192
G1 X158.458 Y109.044 E.35843
G1 X160.729 Y110.132 E.10368
G1 X163.47 Y111.59 E.12782
G1 X165.802 Y113.751 E.1309
G1 X168.396 Y116.496 E.15549
G1 X171.349 Y120.043 E.19002
G1 X173.354 Y122.972 E.14614
G1 X173.7 Y123.806 E.03717
G1 X173.86 Y124.662 E.03585
G1 X173.844 Y125.705 E.04295
G1 X174.166 Y125.827 E.01418
G1 X174.986 Y126.347 E.03998
G1 X175.873 Y127.294 E.05342
G1 X177.921 Y131.196 E.18143
G1 X179.376 Y134.329 E.14222
G1 X180.514 Y137.053 Z.24 E.12156
G1 F3600
G1 X181.651 Y139.778 Z.24 E.12156
G1 F3599.629
G1 X181.826 Y140.74 E.04026
G1 X181.807 Y141.51 E.03171
G1 X181.658 Y142.245 E.03088
G1 X181.16 Y143.367 E.05054
G1 X180.443 Y144.286 E.04799
G1 X179.726 Y144.845 E.03743
G1 X178.953 Y145.225 E.03546
G1 X176.069 Y146.053 Z.24 E.12356
G1 X173.184 Y146.882 Z.24 E.12356
G1 X169.371 Y147.846 Z.24 E.16194
G1 X165.557 Y148.809 Z.24 E.16194
G1 X151.711 Y151.981 E.58482
G1 X147.874 Y151.75 E.15826
G1 X146.931 Y151.479 E.0404
G1 X145.9 Y151.57 E.04261
G1 X141.378 Y151.097 Z.24 E.18719
G1 X136.856 Y150.625 Z.24 E.18719
G1 X132.334 Y150.152 Z.24 E.18719
G1 X132.139 Y150.66 E.0224
G1 X131.374 Y151.8 E.05652
G1 X129.869 Y153.843 E.10447
G1 X129.142 Y154.694 E.04608
G1 X127.03 Y156.742 E.12112
G1 X124.691 Y158.558 E.12192
G1 X122.225 Y160.082 E.11935
G1 X119.476 Y161.422 E.12591
G1 X115.02 Y163.227 E.19794
G1 X113.976 Y163.509 E.04452
G1 X113.117 Y163.585 E.0355
G1 X111.892 Y163.365 E.05124
G1 X110.954 Y162.942 E.04236
G1 X109.766 Y161.888 E.06539
G1 X109.149 Y160.943 E.04647
G1 X108.8 Y159.856 E.047
G1 X108.762 Y158.613 E.0512
G1 X109.219 Y156.996 E.06918
G1 X110.005 Y155.538 E.06819
G1 X110.766 Y154.574 E.05057
G1 X111.345 Y153.583 E.04725
G1 X111.865 Y152.505 E.04928
G1 X112.448 Y150.987 E.06695
G1 X113.233 Y148.083 E.12385
G1 X113.592 Y146.03 E.08581
G1 X113.766 Y144.471 E.06458
G1 X113.797 Y143.795 E.02786
G1 X110.686 Y142.173 E.14445
G1 X110.025 Y141.621 E.03546
G1 X109.188 Y141.46 E.03509
G1 X108.346 Y141.158 E.03683
G1 X107.544 Y140.744 E.03716
G1 X106.802 Y140.202 E.03783
G1 X103.38 Y138.427 Z.24 E.15873
G1 X99.957 Y136.652 Z.24 E.15873
G1 X95.162 Y134.315 E.21961
G1 X93.485 Y133.703 E.0735
G1 X92.393 Y132.968 E.05419
G1 X90.292 Y135.265 E.12816
G1 X87.897 Y137.521 E.13546
G1 X85.236 Y139.627 E.13972
G1 X83.072 Y141.031 Z.24 E.10621
G1 X80.908 Y142.436 Z.24 E.10622
G1 X79.313 Y143.192 E.07267
G1 X78.226 Y143.489 E.04639
G1 X77.199 Y143.535 E.04232
G1 X76.257 Y143.353 E.0395
G1 X75.379 Y142.971 E.03942
G1 X73.961 Y141.753 E.07696
G1 X73.58 Y141.16 E.02902
G1 X73.28 Y140.472 E.0309
G1 X73.08 Y139.635 E.03543
G1 X73.273 Y137.577 E.0851
G1 X73.826 Y136.111 E.06451
G1 X74.435 Y134.942 E.05427
G1 X75.548 Y132.045 Z.24 E.12777
G1 X76.66 Y129.148 Z.24 E.12776
G1 X78.486 Y123.422 E.24744
G1 X78.238 Y119.867 E.14672
G1 X77.629 Y115.323 E.18875
G1 X76.92 Y111.791 E.14832
G1 X76.711 Y111.013 E.03317
G1 X76.369 Y110.232 E.0351
G1 X75.784 Y107.967 E.09631
G1 X75.769 Y107.218 E.03084
G1 X75.917 Y106.139 E.04484
G1 X76.175 Y105.448 E.03037
G1 X76.596 Y104.736 E.03405
G1 X77.297 Y103.999 E.04188
M204 S15000
M204 S10000
G1 X77.297 Y103.999 F18000
G1 X77.622 Y104.309
M204 S5000
G1 F3593.212
G1 X77.669 Y104.259 E.00283
G1 F3599.885
G1 X78.438 Y103.753 E.0379
G1 X79.2 Y103.448 E.03379
G1 X80.034 Y103.312 E.03479
G1 X80.887 Y103.364 E.03518
G1 X81.7 Y103.59 E.03474
G1 X82.37 Y103.897 E.03034
G1 X84.141 Y105.218 E.09096
G1 X84.927 Y106.049 E.04709
G1 X87.057 Y108.034 E.11987
G1 X87.959 Y108.986 E.05399
G1 X89.639 Y110.969 E.107
G1 X90.776 Y112.54 E.07984
G1 X91.958 Y114.359 E.08931
G1 X93.51 Y117.214 E.13379
G1 X97.427 Y115.932 E.16968
G1 X101.972 Y114.642 E.19451
G1 X105.882 Y113.583 Z.24 E.16679
G1 X109.792 Y112.523 Z.24 E.16678
G1 X110.784 Y112.46 E.04092
G1 X111.581 Y112.053 E.03684
G1 X114.254 Y111.342 Z.24 E.11386
G1 F3600
G1 X116.926 Y110.631 Z.24 E.11386
G1 F3599.953
G1 X121.139 Y109.579 Z.24 E.17876
G1 X125.351 Y108.527 Z.24 E.17876
G1 X127.7 Y107.983 E.09927
G1 X128.718 Y107.974 E.04191
G1 X129.603 Y107.58 E.03988
G1 X131.227 Y107.275 E.06803
G1 X131.176 Y105.907 E.05636
G1 X130.911 Y103.183 E.11268
G1 X130.651 Y101.896 E.05406
G1 X130.229 Y100.398 E.06407
G1 X129.899 Y99.436 E.04187
G1 X129.474 Y98.667 E.03617
G1 X129.035 Y97.482 E.05203
G1 X128.79 Y95.869 E.06717
G1 X128.913 Y94.972 E.03728
G1 X129.276 Y94.06 E.04041
G1 X129.785 Y93.354 E.03583
G1 X130.468 Y92.723 E.03828
G1 X131.218 Y92.268 E.03612
G1 X132.06 Y91.997 E.03642
G1 X133.292 Y91.954 E.05075
G1 X134.326 Y92.181 E.04358
G1 X135.342 Y92.508 E.04394
G1 X136.274 Y92.983 E.04307
G1 X139.919 Y94.432 E.16149
G1 X142.409 Y95.725 E.11551
G1 X144.034 Y96.801 E.08024
G1 X145.501 Y98.001 E.07803
G1 X146.203 Y98.68 E.04021
G1 X147.372 Y100.013 E.073
G1 X148.424 Y101.454 E.07346
G1 X149.729 Y103.711 E.10734
G1 X150.017 Y104.872 E.04925
G1 X150.031 Y105.86 E.04068
G1 X154.152 Y107.656 Z.24 E.18506
G1 F3600
G1 X158.272 Y109.452 Z.24 E.18506
G1 F3599.777
G1 X160.523 Y110.53 E.10276
G1 X163.234 Y111.972 E.12642
G1 X165.484 Y114.067 E.12657
G1 X168.061 Y116.794 E.15447
G1 X170.992 Y120.314 E.18858
G1 X172.967 Y123.2 E.14398
G1 X173.264 Y123.912 E.03176
G1 X173.415 Y124.722 E.03392
G1 X173.402 Y125.462 E.03047
G1 X173.285 Y125.99 E.02227
G1 X173.95 Y126.221 E.02898
G1 X174.722 Y126.711 E.03765
G1 X175.493 Y127.534 E.04643
G1 X177.517 Y131.391 E.17933
G1 X178.967 Y134.513 E.14172
G1 X180.097 Y137.219 Z.24 E.12075
G1 X181.227 Y139.926 Z.24 E.12075
G1 X181.378 Y140.754 E.03465
G1 X181.363 Y141.444 E.02841
G1 X181.237 Y142.089 E.02706
G1 X180.787 Y143.116 E.04616
G1 X180.143 Y143.952 E.04345
G1 X179.505 Y144.454 E.03342
G1 X178.808 Y144.8 E.03204
G1 X173.067 Y146.449 E.24592
G1 X169.26 Y147.411 Z.24 E.16167
G1 X165.453 Y148.373 Z.24 E.16166
G1 X151.643 Y151.537 E.5833
G1 X147.928 Y151.304 E.15325
G1 X146.978 Y150.992 E.04117
G1 X145.924 Y151.122 E.04372
G1 X141.292 Y150.638 Z.24 E.19174
G1 X136.66 Y150.155 Z.24 E.19174
G1 X132.028 Y149.671 Z.24 E.19174
G1 X131.75 Y150.435 E.03347
G1 X131.007 Y151.542 E.05489
G1 X129.517 Y153.565 E.10344
G1 X128.816 Y154.386 E.04445
G1 X126.736 Y156.403 E.11929
G1 X124.434 Y158.191 E.12001
G1 X122.01 Y159.688 E.1173
G1 X119.296 Y161.012 E.12433
G1 X114.876 Y162.802 E.19633
G1 X113.879 Y163.07 E.0425
G1 X113.11 Y163.135 E.03177
G1 X112 Y162.929 E.04648
G1 X111.224 Y162.582 E.035
G1 X110.123 Y161.615 E.06033
G1 X109.565 Y160.773 E.04159
G1 X109.246 Y159.806 E.04192
G1 X109.204 Y158.699 E.04561
G1 X109.626 Y157.186 E.06467
G1 X110.39 Y155.769 E.06628
G1 X111.137 Y154.828 E.04947
G1 X111.742 Y153.794 E.04932
G1 X112.275 Y152.688 E.05055
G1 X112.874 Y151.129 E.06876
G1 X113.478 Y149.028 E.09
G1 X113.836 Y147.338 E.07112
G1 X114.143 Y145.255 E.08669
G1 X114.258 Y143.533 E.07105
G1 X110.914 Y141.786 E.15533
G1 X110.206 Y141.186 E.03821
G1 F3598.98
G1 X109.77 Y141.149 E.01802
G1 F3599.786
G1 X108.533 Y140.75 E.05351
G1 X107.794 Y140.372 E.03417
G1 X107.039 Y139.82 E.03851
G1 X103.6 Y138.036 Z.24 E.15953
G1 X100.16 Y136.252 Z.24 E.15952
G1 X95.342 Y133.904 E.22066
G1 X93.682 Y133.3 E.07273
G1 X92.357 Y132.332 E.06756
G1 X89.971 Y134.951 E.14586
G1 X87.608 Y137.177 E.13366
G1 X84.978 Y139.26 E.13813
G1 X80.666 Y142.059 E.21165
G1 X79.139 Y142.778 E.06949
G1 X78.18 Y143.042 E.04095
G1 X77.207 Y143.086 E.0401
G1 X76.368 Y142.918 E.03523
G1 X75.643 Y142.607 E.03248
G1 X74.32 Y141.483 E.07147
G1 X73.968 Y140.933 E.02688
G1 X73.699 Y140.313 E.02783
G1 X73.525 Y139.569 E.03146
G1 X73.703 Y137.708 E.07697
G1 X74.241 Y136.281 E.06279
G1 X74.849 Y135.116 E.0541
G1 X75.965 Y132.207 Z.24 E.12827
G1 X77.082 Y129.299 Z.24 E.12827
G1 X78.939 Y123.475 E.25167
G1 X78.685 Y119.824 E.15068
G1 X78.071 Y115.248 E.19009
G1 X77.356 Y111.683 E.1497
G1 X77.135 Y110.863 E.03496
G1 X76.798 Y110.101 E.0343
G1 X76.232 Y107.93 E.09237
G1 X76.215 Y107.261 E.02755
G1 X76.358 Y106.227 E.04298
G1 X76.587 Y105.625 E.02652
G1 X76.939 Y105.026 E.0286
G1 F3596.444
G1 X77.58 Y104.352 E.03829
M204 S15000
M204 S10000
G1 X77.58 Y104.352 F18000
G1 X77.903 Y104.656
M204 S5000
G1 F3600
G1 X77.94 Y104.617 E.00221
G1 F3596.207
G1 X78.629 Y104.159 E.03406
G1 F3599.755
G1 X79.298 Y103.886 E.02975
G1 X80.08 Y103.759 E.03262
G1 X80.832 Y103.81 E.03103
G1 X81.56 Y104.016 E.03115
G1 X82.16 Y104.294 E.02723
G1 X83.856 Y105.565 E.08726
G1 X84.615 Y106.372 E.04561
G1 X86.734 Y108.346 E.11923
G1 X87.625 Y109.285 E.05329
G1 X89.285 Y111.245 E.10575
G1 X90.406 Y112.793 E.07869
G1 X91.577 Y114.596 E.08851
G1 X92.754 Y116.681 E.09857
G1 X93.328 Y117.869 E.05432
G1 X93.756 Y117.604 E.02073
G1 X97.557 Y116.361 E.16465
G1 X109.888 Y112.962 E.52661
G1 X110.885 Y112.94 E.04106
G1 X111.716 Y112.481 E.03909
G1 X117.04 Y111.065 E.22681
G1 X121.247 Y110.014 Z.24 E.17853
G1 X125.454 Y108.964 Z.24 E.17852
G1 X127.779 Y108.425 E.09826
G1 X128.813 Y108.449 E.04258
G1 X129.709 Y108.016 E.04097
G1 X131.689 Y107.644 E.08294
G1 X131.478 Y104.009 E.14991
G1 X131.181 Y102.189 E.07592
G1 X130.311 Y99.253 E.12607
G1 X129.888 Y98.494 E.03577
