; generated by PrusaSlicer 2.7.4+win64 on 2024-06-04 at 06:43:20 UTC


;
;
; 

; external perimeters extrusion width = 0.42mm
; perimeters extrusion width = 0.45mm
; infill extrusion width = 0.45mm
; solid infill extrusion width = 0.42mm
; top infill extrusion width = 0.42mm
; support material extrusion width = 0.42mm
; first layer extrusion width = 0.50mm

;TYPE:Custom
G9111 bedTemp=65 extruderTemp=230
M117
M900 K0.05
G21 ; set units to millimeters
G90 ; use absolute coordinates
M83 ; use relative distances for extrusion
M107
;LAYER_CHANGE
;Z:0.24
;HEIGHT:0.24
G1 E-.8 F4800
G1 Z.24 F21000
G1 X125.563 Y139.549
G1 Z.24
G1 E.8 F4800
M204 S5000
;TYPE:External perimeter
;WIDTH:0.5
G1 F3600
G1 X125.162 Y139.069 E.02575
G1 X124.612 Y138.826 E.02476
G1 X124.407 Y138.974 E.01041
G1 X124.189 Y138.956 E.00901
G1 X123.615 Y138.848 E.02405
G1 X123.158 Y138.984 E.01963
G1 X123.085 Y138.983 E.00301
G1 X121.906 Y138.777 E.04928
G1 X120.616 Y138.464 E.05465
G1 X119.382 Y138.101 E.05296
G1 X118.164 Y137.702 E.05277
G1 X115.755 Y136.837 E.10538
G1 X113.331 Y135.902 E.10697
G1 X112.215 Y135.509 E.04871
G1 X109.952 Y134.629 E.09997
G1 X108.421 Y133.979 E.06848
G1 X106.906 Y133.293 E.06847
G1 X104.794 Y132.238 E.0972
G1 X103.892 Y131.723 E.04276
G1 X102.732 Y131.109 E.05404
G1 X102.001 Y130.653 E.03547
G1 X100.729 Y129.898 E.0609
G1 X99.5 Y129.057 E.06131
G1 X98.723 Y128.494 E.0395
G1 X97.608 Y127.62 E.05833
G1 X97.121 Y127.125 E.02859
G1 X96.902 Y126.964 E.01119
G1 X96.433 Y126.505 E.02702
G1 X95.725 Y125.935 E.03742
G1 X94.792 Y125.081 E.05207
G1 X93.675 Y124.012 E.06365
G1 X92.955 Y123.226 E.04389
G1 X92.564 Y122.703 E.02688
G1 X91.593 Y121.725 E.05674
G1 X90.864 Y121.076 E.04018
G1 X90.112 Y120.511 E.03873
G1 X89.332 Y120.049 E.03732
G1 X88.514 Y119.735 E.03607
G1 X87.677 Y119.613 E.03482
G1 X86.869 Y119.735 E.03364
G1 X86.13 Y120.048 E.03304
G1 X85.474 Y120.5 E.0328
G1 X85.202 Y120.735 E.0148
G1 X81.879 Y124.031 E.1927
G1 X81.252 Y124.545 E.03338
G1 X80.577 Y124.959 E.0326
G1 X80.074 Y125.216 E.02326
G1 X79.637 Y125.401 E.01954
G1 X79.329 Y125.45 E.01284
G1 X79.143 Y125.389 E.00806
G1 X79.017 Y125.227 E.00845
G1 X78.942 Y124.9 E.01381
G1 X78.925 Y124.398 E.02068
G1 X78.961 Y123.734 E.02738
G1 X79.082 Y122.809 E.03841
G1 X79.238 Y122.008 E.0336
G1 X79.463 Y121.002 E.04244
G1 X79.667 Y120.336 E.02868
G1 X79.753 Y119.939 E.01672
G1 X80.017 Y119.413 E.02423
G1 X80.196 Y118.89 E.02276
G1 X80.424 Y118.595 E.01535
G1 X80.844 Y117.945 E.03186
G1 X81.725 Y117.263 E.04587
G1 X82.232 Y117.084 E.02214
G1 X82.751 Y116.793 E.0245
G1 X83.71 Y116.423 E.04232
G1 X84.001 Y116.278 E.01339
G1 X84.325 Y116.167 E.0141
G1 X84.557 Y116.022 E.01126
G1 X85.196 Y115.522 E.0334
G1 X85.524 Y114.834 E.03138
G1 X85.428 Y114.077 E.03142
G1 X84.991 Y113.186 E.04086
G1 X84.641 Y112.617 E.0275
G1 X84.085 Y111.858 E.03874
G1 X83.445 Y111.099 E.04088
G1 X83.044 Y110.589 E.02671
G1 X82.786 Y110.311 E.01562
G1 X82.518 Y109.835 E.02249
G1 X82.246 Y109.436 E.01988
G1 X81.915 Y108.47 E.04204
G1 X81.843 Y108.042 E.01787
G1 X81.781 Y107.463 E.02397
G1 X81.754 Y106.942 E.02148
G1 X81.749 Y105.553 E.05719
G1 X81.814 Y104.757 E.03288
G1 X81.937 Y104.129 E.02635
G1 X82.114 Y103.708 E.0188
G1 X82.337 Y103.501 E.01253
G1 X82.626 Y103.447 E.0121
G1 X82.703 Y103.466 E.00327
G1 X83.03 Y103.56 E.01401
G1 X83.538 Y103.844 E.02396
G1 X83.875 Y104.069 E.01668
G1 X84.843 Y104.794 E.04979
G1 X85.553 Y105.4 E.03843
G1 X86.248 Y106.084 E.04015
G1 X86.885 Y106.834 E.04051
G1 X87.394 Y107.663 E.04005
G1 X87.84 Y108.747 E.04826
G1 X87.956 Y109.212 E.01973
G1 X88.309 Y110.002 E.03562
G1 X88.494 Y110.379 E.01729
G1 X88.991 Y111.19 E.03916
G1 X90.046 Y112.713 E.07628
G1 X90.594 Y113.447 E.03771
G1 X91.174 Y114.148 E.03746
G1 X91.811 Y114.793 E.03732
G1 X92.529 Y115.335 E.03704
G1 X93.31 Y115.746 E.03634
G1 X93.821 Y115.945 E.02258
G1 X94.488 Y116.156 E.0288
G1 X95.188 Y116.326 E.02966
G1 X96.573 Y116.513 E.05754
G1 X97.383 Y116.576 E.03345
G1 X98.191 Y116.588 E.03327
G1 X98.712 Y116.562 E.02148
G1 X99.006 Y116.535 E.01216
G1 X100.194 Y116.332 E.04962
G1 X100.612 Y116.184 E.01826
G1 X101.434 Y115.831 E.03683
G1 X102.806 Y115.314 E.06036
G1 X103.201 Y115.136 E.01784
G1 X103.802 Y114.914 E.02638
G1 X104.391 Y114.728 E.02543
G1 X105.064 Y114.476 E.02959
G1 X106.524 Y114.095 E.06212
G1 X107.482 Y113.91 E.04017
G1 X108.456 Y113.764 E.04055
G1 X110.007 Y113.574 E.06433
G1 X110.785 Y113.509 E.03214
G1 X112.026 Y113.361 E.05146
G1 X112.698 Y113.314 E.02773
G1 X114.094 Y113.151 E.05787
G1 X114.557 Y113.116 E.01912
G1 X116.811 Y112.815 E.09362
G1 X117.82 Y112.753 E.04162
G1 X118.521 Y112.541 E.03015
G1 X119.084 Y112.419 E.02372
G1 X119.971 Y112.064 E.03933
G1 X120.809 Y111.602 E.0394
G1 X121.629 Y111.089 E.03982
G1 X123.274 Y109.983 E.08161
G1 X124.926 Y108.808 E.08346
G1 X125.754 Y108.194 E.04244
G1 X126.399 Y107.656 E.03458
G1 X127.057 Y107.07 E.03628
G1 X127.329 Y106.756 E.0171
G1 X128.038 Y106.151 E.03837
G1 X128.115 Y106.102 E.00376
G1 X129.091 Y105.728 E.04303
G1 X129.473 Y105.7 E.01577
G1 X130.131 Y105.667 E.02712
G1 X131.17 Y105.827 E.04328
G1 X132.159 Y106.192 E.0434
G1 X132.404 Y106.324 E.01146
G1 X133.044 Y106.725 E.03109
G1 X133.447 Y107.075 E.02198
G1 X133.856 Y107.387 E.02118
G1 X134.572 Y108.102 E.04166
G1 X135.19 Y108.854 E.04007
G1 X135.687 Y109.625 E.03777
G1 X136.06 Y110.371 E.03434
G1 X136.287 Y111.049 E.02944
G1 X136.384 Y111.617 E.02372
G1 X136.4 Y112.038 E.01735
G1 X136.354 Y112.234 E.00829
G1 X136.296 Y112.28 E.00305
G1 X136.067 Y112.268 E.00944
G1 X135.617 Y112.027 E.02102
G1 X135.345 Y111.826 E.01392
G1 X135.095 Y111.677 E.01198
G1 X134.775 Y111.518 E.01471
G1 X134.064 Y111.391 E.02974
G1 X133.341 Y111.576 E.03073
G1 X132.752 Y111.986 E.02955
G1 X132.297 Y112.51 E.02857
G1 X131.972 Y113.113 E.0282
G1 X131.835 Y113.77 E.02763
G1 X131.877 Y114.423 E.02694
G1 X132.014 Y115.05 E.02642
G1 X132.112 Y115.351 E.01303
G1 X132.221 Y115.665 E.01368
G1 X132.489 Y116.252 E.02657
G1 X132.797 Y116.814 E.02639
G1 X133.134 Y117.354 E.02621
G1 X133.613 Y117.987 E.03268
G1 X133.916 Y118.322 E.0186
G1 X134.365 Y118.736 E.02514
G1 X134.856 Y119.1 E.02516
G1 X135.399 Y119.397 E.02548
G1 X135.991 Y119.616 E.02599
G1 X136.624 Y119.762 E.02675
G1 X137.289 Y119.853 E.02763
G1 X137.984 Y119.908 E.0287
G1 X139.459 Y119.975 E.06079
G1 X140.239 Y119.986 E.03212
G1 X148.05 Y119.953 E.32159
G1 X151.903 Y119.98 E.15864
G1 X158.561 Y119.974 E.27412
G1 X159.295 Y119.925 E.03029
G1 X160.006 Y119.76 E.03005
G1 X160.66 Y119.437 E.03003
G1 X161.236 Y118.977 E.03035
G1 X161.711 Y118.388 E.03115
G1 X162.071 Y117.699 E.03201
G1 X162.217 Y117.265 E.01885
G1 X162.285 Y116.885 E.01589
G1 X162.361 Y115.496 E.05727
G1 X162.239 Y114.479 E.04217
G1 X162.247 Y114.32 E.00655
G1 X162.185 Y114.135 E.00803
G1 X162.129 Y113.643 E.02039
G1 X162.036 Y113.223 E.01771
G1 X162.027 Y112.784 E.01808
G1 X162.072 Y112.49 E.01225
G1 X162.143 Y112.207 E.01201
G1 X162.245 Y112.003 E.00939
G1 X162.356 Y111.834 E.00832
G1 X162.477 Y111.761 E.00582
G1 X162.633 Y111.598 E.00929
G1 X162.723 Y111.576 E.00381
G1 X162.975 Y111.648 E.01079
G1 X163.317 Y111.89 E.01725
G1 X163.57 Y112.024 E.01179
G1 X164.069 Y112.339 E.0243
G1 X164.876 Y112.788 E.03802
G1 X165.746 Y113.358 E.04282
G1 X166.596 Y114.099 E.04643
G1 X166.927 Y114.467 E.02038
G1 X167.349 Y114.986 E.02754
G1 X167.587 Y115.39 E.0193
G1 X168 Y116.002 E.0304
G1 X168.474 Y116.866 E.04057
G1 X169.327 Y118.552 E.07779
G1 X171.463 Y122.968 E.20196
G1 X171.948 Y123.871 E.0422
G1 X172.474 Y124.734 E.04161
G1 X172.934 Y125.407 E.03356
G1 X173.448 Y126.113 E.03595
G1 X174.038 Y126.83 E.03823
G1 X174.277 Y127.172 E.01718
G1 X174.491 Y127.53 E.01717
G1 X174.909 Y127.945 E.02425
G1 X175.343 Y128.689 E.03546
G1 X175.457 Y128.844 E.00792
G1 X175.66 Y129.473 E.02721
G1 X175.833 Y129.759 E.01376
G1 X175.956 Y130.497 E.0308
G1 X175.952 Y130.62 E.00507
G1 X175.537 Y131.393 E.03612
G1 X175.115 Y131.613 E.01959
G1 X174.726 Y131.974 E.02185
G1 X174.412 Y132.086 E.01373
G1 X173.797 Y132.426 E.02893
G1 X173.56 Y132.498 E.0102
G1 X172.786 Y132.795 E.03413
G1 X171.634 Y133.141 E.04952
G1 X169.593 Y133.576 E.08592
G1 X165.317 Y134.527 E.18035
G1 X164.268 Y134.783 E.04446
G1 X163.23 Y135.076 E.04441
G1 X162.203 Y135.422 E.04462
G1 X161.188 Y135.83 E.04504
G1 X159.646 Y136.554 E.07014
G1 X159.196 Y136.812 E.02136
G1 X158.759 Y136.998 E.01955
G1 X158.178 Y137.318 E.02731
G1 X157.126 Y137.739 E.04665
G1 X156.025 Y138.068 E.04731
G1 X153.771 Y138.625 E.09559
G1 X152.643 Y138.868 E.04751
G1 X151.567 Y139.074 E.0451
G1 X150.387 Y139.256 E.04916
G1 X149.259 Y139.404 E.04684
G1 X148.076 Y139.532 E.04899
G1 X147.017 Y139.624 E.04376
G1 X145.91 Y139.694 E.04567
G1 X144.657 Y139.739 E.05162
G1 X143.742 Y139.748 E.03767
G1 X142.691 Y139.727 E.04328
G1 X140.675 Y139.628 E.0831
G1 X138.783 Y139.494 E.07809
G1 X138.146 Y139.407 E.02647
G1 X137.809 Y139.429 E.0139
G1 X137.159 Y139.434 E.02676
G1 X136.409 Y139.646 E.03209
G1 X135.782 Y140.03 E.03027
G1 X135.597 Y140.185 E.00994
G1 X135.143 Y140.658 E.02699
G1 X134.793 Y141.141 E.02456
G1 X134.401 Y141.805 E.03175
G1 X133.617 Y143.271 E.06845
G1 X133.164 Y144.049 E.03707
G1 X132.645 Y144.837 E.03885
G1 X132.052 Y145.619 E.04041
G1 X131.39 Y146.386 E.04171
G1 X130.673 Y147.141 E.04287
G1 X129.932 Y147.856 E.04239
G1 X129.103 Y148.593 E.04567
G1 X128.254 Y149.261 E.04448
G1 X127.337 Y149.83 E.04443
G1 X126.111 Y150.436 E.05631
G1 X124.994 Y150.873 E.04938
G1 X124.394 Y151.061 E.02589
G1 X123.955 Y151.161 E.01854
G1 X123.42 Y151.316 E.02293
G1 X122.516 Y151.478 E.03781
G1 X121.96 Y151.541 E.02304
G1 X121.039 Y151.579 E.03795
G1 X120.53 Y151.547 E.021
G1 X120.179 Y151.473 E.01477
G1 X119.988 Y151.367 E.00899
G1 X119.917 Y151.262 E.00522
G1 X119.908 Y151.102 E.0066
G1 X119.998 Y150.817 E.0123
G1 X120.216 Y150.412 E.01894
G1 X120.91 Y149.262 E.0553
G1 X121.384 Y148.614 E.03305
G1 X123.022 Y146.589 E.10723
G1 X124.044 Y145.204 E.07087
G1 X124.533 Y144.508 E.03502
G1 X124.965 Y143.77 E.03521
G1 X125.204 Y143.182 E.02613
G1 X125.287 Y142.963 E.00964
G1 X125.477 Y142.118 E.03566
G1 X125.637 Y140.52 E.06612
G1 X125.634 Y140.393 E.00523
G1 X125.788 Y140.216 E.00966
G1 X125.688 Y139.699 E.02168
G1 X125.601 Y139.595 E.00558
M204 S15000
M204 S10000
G1 X125.601 Y139.595 F21000
G1 X126.059 Y139.444
M204 S5000
;TYPE:Perimeter
G1 F3600
G1 X125.439 Y138.702 E.03981
G1 X124.558 Y138.311 E.03968
G1 X124.279 Y138.513 E.01418
G1 X123.591 Y138.387 E.0288
G1 X123.106 Y138.531 E.02083
G1 X121.998 Y138.337 E.04631
G1 X120.732 Y138.031 E.05362
G1 X119.516 Y137.673 E.05219
G1 X118.31 Y137.278 E.05225
G1 X115.912 Y136.417 E.1049
G1 X113.487 Y135.482 E.107
G1 X112.371 Y135.088 E.04873
G1 X110.121 Y134.213 E.09939
G1 X108.601 Y133.568 E.06798
G1 X107.099 Y132.888 E.06788
G1 X105.005 Y131.842 E.09637
G1 X104.108 Y131.33 E.04252
G1 X102.956 Y130.72 E.05367
G1 X102.234 Y130.27 E.03503
G1 X100.971 Y129.52 E.06048
G1 X99.758 Y128.69 E.06051
G1 X98.994 Y128.136 E.03885
G1 X97.908 Y127.285 E.0568
G1 X97.415 Y126.785 E.02891
G1 X97.193 Y126.621 E.01136
G1 X96.731 Y126.169 E.02661
G1 X96.017 Y125.595 E.03772
G1 X95.098 Y124.754 E.05129
G1 X93.996 Y123.699 E.06281
G1 X93.301 Y122.94 E.04237
G1 X92.904 Y122.409 E.0273
G1 X91.901 Y121.4 E.05857
G1 X91.149 Y120.728 E.04152
G1 X90.362 Y120.138 E.0405
G1 X89.528 Y119.643 E.03993
G1 X88.628 Y119.298 E.03968
G1 X87.675 Y119.16 E.03965
G1 X86.746 Y119.3 E.03868
G1 X85.914 Y119.652 E.03719
G1 X85.199 Y120.144 E.03573
G1 X84.897 Y120.406 E.01646
G1 X81.578 Y123.698 E.19246
G1 X80.992 Y124.178 E.03119
G1 X80.357 Y124.567 E.03066
G1 X79.884 Y124.809 E.02187
G1 X79.512 Y124.967 E.01664
G1 X79.421 Y124.981 E.00379
G1 X79.389 Y124.842 E.00587
G1 X79.374 Y124.402 E.01813
G1 X79.408 Y123.775 E.02585
G1 X79.525 Y122.881 E.03712
G1 X79.677 Y122.1 E.03276
G1 X79.896 Y121.117 E.04146
G1 X80.101 Y120.449 E.02877
G1 X80.179 Y120.089 E.01517
G1 X80.431 Y119.587 E.02313
G1 X80.597 Y119.106 E.02095
G1 X80.791 Y118.854 E.01309
G1 X81.179 Y118.252 E.02949
G1 X81.942 Y117.662 E.03971
G1 X82.418 Y117.494 E.02078
G1 X82.943 Y117.199 E.02479
G1 X83.891 Y116.834 E.04182
G1 X84.174 Y116.693 E.01302
G1 X84.519 Y116.575 E.01501
G1 X84.815 Y116.39 E.01437
G1 X85.555 Y115.81 E.03871
G1 X85.985 Y114.908 E.04114
G1 X85.864 Y113.947 E.03988
G1 X85.385 Y112.969 E.04484
G1 X85.014 Y112.367 E.02911
G1 X84.438 Y111.581 E.04012
G1 X83.793 Y110.816 E.0412
G1 X83.386 Y110.298 E.02712
G1 X83.151 Y110.045 E.01422
G1 X82.899 Y109.598 E.02113
G1 X82.651 Y109.233 E.01817
G1 X82.351 Y108.359 E.03804
G1 X82.288 Y107.981 E.01578
G1 X82.228 Y107.427 E.02294
G1 X82.202 Y106.928 E.02057
G1 X82.198 Y105.573 E.05579
G1 X82.259 Y104.819 E.03114
G1 X82.368 Y104.261 E.02341
G1 X82.49 Y103.971 E.01295
G1 X82.547 Y103.918 E.0032
G1 X82.611 Y103.906 E.00268
G1 X82.868 Y103.98 E.01101
G1 X83.299 Y104.224 E.02039
G1 X83.616 Y104.436 E.0157
G1 X84.563 Y105.145 E.04871
G1 X85.25 Y105.731 E.03718
G1 X85.919 Y106.39 E.03866
G1 X86.521 Y107.098 E.03826
G1 X86.993 Y107.867 E.03715
G1 X87.413 Y108.887 E.04542
G1 X87.53 Y109.359 E.02002
G1 X87.903 Y110.192 E.03758
G1 X88.101 Y110.595 E.01849
G1 X88.615 Y111.435 E.04054
G1 X89.682 Y112.975 E.07713
G1 X90.242 Y113.725 E.03854
G1 X90.841 Y114.45 E.03872
G1 X91.515 Y115.131 E.03945
G1 X92.288 Y115.715 E.03989
G1 X93.123 Y116.155 E.03886
G1 X93.672 Y116.368 E.02424
G1 X94.367 Y116.588 E.03001
G1 X95.105 Y116.767 E.03127
G1 X96.526 Y116.959 E.05904
G1 X97.363 Y117.024 E.03456
G1 X98.199 Y117.036 E.03442
G1 X98.744 Y117.01 E.02246
G1 X99.065 Y116.98 E.01327
G1 X100.307 Y116.767 E.05188
G1 X100.775 Y116.601 E.02044
G1 X101.602 Y116.247 E.03704
G1 X102.978 Y115.729 E.06053
G1 X103.371 Y115.552 E.01775
G1 X103.948 Y115.338 E.02534
G1 X104.538 Y115.152 E.02547
G1 X105.2 Y114.904 E.0291
G1 X106.623 Y114.533 E.06054
G1 X107.558 Y114.353 E.0392
G1 X108.516 Y114.209 E.03988
G1 X110.053 Y114.021 E.06375
G1 X110.83 Y113.955 E.03211
G1 X112.069 Y113.808 E.05137
G1 X112.74 Y113.76 E.0277
G1 X114.137 Y113.597 E.05791
G1 X114.603 Y113.562 E.01924
G1 X116.854 Y113.262 E.0935
G1 X117.9 Y113.197 E.04315
G1 X118.633 Y112.976 E.03152
G1 X119.216 Y112.849 E.02457
G1 X120.163 Y112.47 E.042
G1 X121.037 Y111.989 E.04107
G1 X121.874 Y111.465 E.04066
G1 X123.529 Y110.352 E.08211
G1 X125.189 Y109.171 E.08388
G1 X126.031 Y108.547 E.04315
G1 X126.692 Y107.995 E.03546
G1 X127.377 Y107.386 E.03774
G1 X127.646 Y107.075 E.01693
G1 X128.304 Y106.513 E.03563
G1 X129.19 Y106.171 E.0391
G1 X130.108 Y106.118 E.03786
G1 X131.057 Y106.263 E.03952
G1 X131.974 Y106.602 E.04025
G1 X132.178 Y106.712 E.00954
G1 X132.777 Y107.086 E.02907
G1 X133.163 Y107.423 E.0211
G1 X133.56 Y107.726 E.02056
G1 X134.239 Y108.404 E.03951
G1 X134.828 Y109.119 E.03814
G1 X135.297 Y109.847 E.03565
G1 X135.645 Y110.544 E.03207
G1 X135.85 Y111.159 E.02669
G1 X135.938 Y111.69 E.02216
G1 X135.31 Y111.283 E.03081
G1 X134.916 Y111.088 E.0181
G1 X134.047 Y110.933 E.03634
G1 X133.152 Y111.162 E.03804
G1 X132.45 Y111.649 E.03518
G1 X131.926 Y112.254 E.03295
G1 X131.546 Y112.958 E.03294
G1 X131.384 Y113.738 E.0328
G1 X131.431 Y114.485 E.03082
G1 X131.58 Y115.167 E.02874
G1 X131.687 Y115.495 E.0142
G1 X131.805 Y115.832 E.0147
G1 X132.088 Y116.453 E.0281
G1 X132.41 Y117.041 E.0276
G1 X132.764 Y117.609 E.02756
G1 X133.268 Y118.273 E.03432
G1 X133.597 Y118.638 E.02023
G1 X134.078 Y119.082 E.02695
G1 X134.614 Y119.478 E.02744
G1 X135.212 Y119.806 E.02808
G1 X135.863 Y120.046 E.02857
G1 X136.543 Y120.204 E.02874
G1 X137.241 Y120.299 E.029
G1 X137.956 Y120.356 E.02953
G1 X139.446 Y120.424 E.06141
G1 X140.237 Y120.434 E.03257
G1 X148.049 Y120.402 E.32163
G1 X151.901 Y120.428 E.15859
G1 X158.576 Y120.423 E.27482
G1 X159.361 Y120.37 E.03239
G1 X160.158 Y120.185 E.03369
G1 X160.902 Y119.818 E.03416
G1 X161.555 Y119.297 E.03439
G1 X162.088 Y118.635 E.03499
G1 X162.484 Y117.875 E.03528
G1 X162.652 Y117.377 E.02164
G1 X162.731 Y116.937 E.0184
G1 X162.811 Y115.482 E.05999
G1 X162.689 Y114.463 E.04225
G1 X162.699 Y114.259 E.00841
G1 X162.626 Y114.037 E.00962
G1 X162.572 Y113.569 E.0194
G1 X162.484 Y113.17 E.01682
G1 X162.476 Y112.814 E.01466
G1 X162.566 Y112.364 E.01889
