; generated by PrusaSlicer 2.7.1+win64 on 2024-04-21 at 07:11:25 UTC


;
;
; 

; external perimeters extrusion width = 0.42mm
; perimeters extrusion width = 0.45mm
; infill extrusion width = 0.45mm
; solid infill extrusion width = 0.42mm
; top infill extrusion width = 0.42mm
; first layer extrusion width = 0.50mm

;TYPE:Custom
G9111 bedTemp=60 extruderTemp=220
M117
M900 K0.05
G21 ; set units to millimeters
G90 ; use absolute coordinates
M82 ; use absolute distances for extrusion
G92 E0
M107
;LAYER_CHANGE
;Z:0.3
;HEIGHT:0.3
; BEFORE_LAYER_CHANGE 0 @ 0.3mm
G1 E-1 F2400
G92 E0
G1 Z.3 F600
; AFTER_LAYER_CHANGE 0 @ 0.3mm
G1 X79.281 Y99.596 F18000
G1 Z.3 F600
G1 E1 F2400
M204 S5000
;TYPE:Skirt/Brim
;WIDTH:0.5
G1 F4800
G1 X80.68 Y98.863 E1.08152
G1 F4799.743
G1 X81.894 Y98.597 E1.14567
G1 X83.132 Y98.601 E1.20957
G1 X84.649 Y98.994 E1.29046
G1 X86.007 Y99.707 E1.36963
G1 X87.804 Y101.013 E1.48429
G1 X88.814 Y101.883 E1.5531
G1 X89.781 Y102.847 E1.62358
G1 X90.794 Y104.071 E1.70559
G1 X91.635 Y105.458 E1.78931
G1 X92.708 Y108.09 E1.93602
G1 X93.914 Y109.886 E2.04768
G1 X94.705 Y110.905 E2.11426
G1 X95.03 Y111.212 E2.13734
G1 X95.589 Y111.431 E2.16833
G1 X96.995 Y111.678 E2.24201
G1 X97.947 Y111.72 E2.2912
G1 X98.69 Y111.627 E2.32985
G1 X103.524 Y109.808 E2.59644
G1 X105.244 Y109.348 E2.68834
G1 X106.483 Y109.102 E2.75354
G1 X109.25 Y108.732 E2.89763
G1 X114.026 Y108.267 E3.14531
G1 X117.006 Y107.875 E3.30045
G1 X117.534 Y107.748 E3.32848
G1 X118.866 Y107.006 E3.40718
G1 X122.619 Y104.383 E3.64352
G1 X123.982 Y103.099 E3.74017
G1 X125.515 Y101.889 E3.84098
G1 X126.153 Y101.576 E3.87766
G1 X127.624 Y101.054 E3.95823
G1 X129.838 Y100.794 E4.07329
G1 X131.923 Y101.003 E4.18145
G1 X132.94 Y101.294 E4.23605
G1 X134.463 Y101.925 E4.32114
G1 X135.848 Y102.8 E4.4057
G1 X137.059 Y103.801 E4.4868
G1 X138.046 Y104.792 E4.55899
G1 X139.084 Y106.062 E4.64365
G1 X139.793 Y107.162 E4.7112
G1 X140.452 Y108.475 E4.78703
G1 X140.915 Y109.846 E4.86172
G1 X141.145 Y111.161 E4.93063
G1 X141.162 Y112.543 E5.00197
G1 X140.844 Y113.943 E5.07607
G1 X140.277 Y115.114 E5.14323
G1 X144.525 Y115.113 Z.3 E5.36251
G1 X148.773 Y115.112 Z.3 E5.58179
G1 X153.022 Y115.111 Z.3 E5.80106
G1 X157.27 Y115.11 Z.3 E6.02034
G1 X157.051 Y113.689 E6.09455
G1 X157.019 Y112.573 E6.15218
G1 X157.169 Y111.46 E6.21015
G1 X157.509 Y110.315 E6.2718
G1 X157.929 Y109.5 E6.31912
G1 X158.512 Y108.672 E6.37139
G1 X159.761 Y107.58 E6.45702
G1 X160.927 Y106.998 E6.52429
G1 X162.303 Y106.718 E6.59677
G1 X164.08 Y106.906 E6.689
G1 X165.161 Y107.355 E6.74942
G1 X168.462 Y109.365 E6.94891
G1 X170.051 Y110.748 E7.05764
G1 X171.376 Y112.381 E7.16619
G1 X172.637 Y114.513 E7.29404
G1 X174.359 Y117.993 Z.3 E7.49445
G1 F4800
G1 X176.081 Y121.473 Z.3 E7.69486
G1 F4799.816
G1 X177.159 Y123.078 E7.79466
G1 X178.856 Y125.243 E7.93665
G1 X179.754 Y126.746 E8.02702
G1 X180.277 Y127.942 E8.0944
G1 X180.534 Y128.753 E8.13831
G1 X180.784 Y130.393 E8.22394
G1 X180.613 Y132.022 E8.30848
G1 X180.354 Y132.69 E8.34546
G1 X179.651 Y134 E8.4222
G1 X178.95 Y134.901 E8.48112
G1 X177.039 Y136.27 E8.60246
G1 X175.654 Y136.926 E8.68156
G1 X174.162 Y137.471 E8.76355
G1 X171.852 Y138.127 E8.8875
G1 X166.314 Y139.315 E9.17985
G1 X164.564 Y139.77 E9.27318
G1 X163.042 Y140.333 E9.35694
G1 X160.127 Y141.81 E9.52561
G1 X158.674 Y142.397 E9.6065
G1 X157.243 Y142.83 E9.68367
G1 X154.684 Y143.448 E9.81955
G1 X152.133 Y143.932 E9.95357
G1 X149.702 Y144.277 E10.08031
G1 X147.078 Y144.53 E10.21638
G1 X143.565 Y144.655 E10.39782
G1 X141.009 Y144.527 Z.3 E10.52989
G1 F4800
G1 X138.454 Y144.4 Z.3 E10.66196
G1 F4799.794
G1 X137.207 Y146.649 E10.7947
G1 X136.511 Y147.702 E10.85985
G1 X134.882 Y149.708 E10.99323
G1 X133.244 Y151.362 E11.11338
G1 X132.156 Y152.335 E11.18872
G1 X130.947 Y153.28 E11.26793
G1 X129.669 Y154.11 E11.34659
G1 X128.229 Y154.85 E11.43016
G1 X126.716 Y155.452 E11.51421
G1 X124.339 Y156.122 E11.64168
G1 X123.039 Y156.349 E11.7098
G1 X120.943 Y156.489 E11.81823
G1 X119.75 Y156.407 E11.87995
G1 X118.528 Y156.131 E11.94461
G1 X117.453 Y155.632 E12.00578
G1 X116.629 Y155.045 E12.058
G1 X115.64 Y153.806 E12.13983
G1 X115.245 Y153.034 E12.18459
G1 X115.002 Y152.146 E12.23211
G1 X114.933 Y150.739 E12.30482
G1 X115.313 Y149.147 E12.3893
G1 X116.231 Y147.366 E12.49272
G1 X117.421 Y145.641 E12.60089
G1 X119.344 Y143.247 E12.75939
G1 X116.357 Y142.324 E12.92076
G1 X112.087 Y140.738 Z.3 E13.1559
G1 X107.816 Y139.152 Z.3 E13.39104
G1 X104.825 Y137.833 E13.55977
G1 X102.514 Y136.672 E13.69326
G1 X100.267 Y135.432 E13.82573
G1 X98.105 Y134.12 E13.95626
G1 X96.6 Y133.091 E14.05036
G1 X93.745 Y130.87 E14.23706
G1 X91.915 Y129.165 Z.3 E14.36614
G1 X90.085 Y127.461 Z.3 E14.49523
G1 X88.63 Y125.821 E14.60839
G1 X87.784 Y124.98 E14.66996
G1 X85.023 Y127.713 E14.87048
G1 X84.017 Y128.522 E14.93711
G1 X83.014 Y129.164 E14.99858
G1 X82.024 Y129.676 E15.05611
G1 X80.844 Y130.123 E15.12124
G1 X79.668 Y130.339 E15.18296
G1 X78.461 Y130.293 E15.24531
G1 X76.88 Y129.793 E15.3309
G1 X75.671 Y128.948 E15.40704
G1 X74.776 Y127.844 E15.4804
G1 X74.228 Y126.655 E15.54798
G1 X73.982 Y125.525 E15.60767
G1 X73.922 Y124.319 E15.67
G1 X74.144 Y122.107 E15.78475
G1 X74.946 Y118.578 E15.97155
G1 X75.793 Y116.524 E16.08623
G1 X77.016 Y114.729 E16.19834
G1 X78.756 Y113.279 E16.31525
G1 X77.767 Y111.684 E16.41212
G1 X77.078 Y109.79 E16.51615
G1 X76.903 Y108.889 E16.56353
G1 X76.76 Y107.233 E16.64932
G1 X76.749 Y105.504 E16.73857
G1 X76.844 Y104.206 E16.80575
G1 X77.084 Y102.914 E16.87358
G1 X77.785 Y101.22 E16.96821
G1 X78.363 Y100.445 E17.01811
G1 X79.237 Y99.637 E17.07955
M204 S15000
M204 S10000
G1 X79.512 Y99.967 F18000
M204 S5000
G1 F4799.847
G1 X80.804 Y99.281 E17.15506
G1 X81.92 Y99.033 E17.21407
G1 X83.05 Y99.03 E17.2724
G1 X84.515 Y99.409 E17.35051
G1 X85.791 Y100.086 E17.42507
G1 F4800
G1 X87.535 Y101.356 E17.53643
G1 F4799.889
G1 X88.513 Y102.197 E17.60301
G1 X89.453 Y103.133 E17.67148
G1 X90.43 Y104.311 E17.75047
G1 X91.241 Y105.644 E17.83101
G1 X92.322 Y108.294 E17.97874
G1 X93.56 Y110.14 E18.09347
G1 X94.378 Y111.193 E18.16229
G1 X94.644 Y111.464 E18.18189
G1 X95.02 Y111.698 E18.20475
G1 X95.831 Y111.935 E18.24836
G1 X96.945 Y112.112 E18.30658
G1 X97.959 Y112.156 E18.35897
G1 X98.805 Y112.049 E18.40299
G1 X101.234 Y111.135 Z.3 E18.53693
G1 X103.662 Y110.221 Z.3 E18.67086
G1 X106.563 Y109.53 E18.82479
G1 X109.299 Y109.165 E18.96726
G1 X114.07 Y108.701 E19.21468
G1 X117.076 Y108.306 E19.37117
G1 X117.665 Y108.164 E19.40244
G1 X119.103 Y107.372 E19.48718
G1 X121.655 Y105.627 E19.64675
G1 X122.89 Y104.724 E19.72572
G1 X124.266 Y103.43 E19.82322
G1 X125.728 Y102.269 E19.91958
G1 X126.311 Y101.983 E19.9531
G1 X127.746 Y101.473 E20.03171
G1 X129.864 Y101.23 E20.14175
G1 X131.823 Y101.428 E20.24338
G1 X132.786 Y101.701 E20.29505
G1 X134.246 Y102.303 E20.37656
G1 X135.603 Y103.161 E20.45943
G1 X136.773 Y104.13 E20.53784
G1 X137.715 Y105.076 E20.60675
G1 X138.739 Y106.328 E20.69024
G1 X139.409 Y107.369 E20.75414
G1 X140.044 Y108.629 E20.82697
G1 X140.497 Y109.969 E20.89998
G1 X140.713 Y111.219 E20.96546
G1 X140.732 Y112.472 E21.03014
G1 X140.425 Y113.821 E21.10155
G1 X140.036 Y114.613 E21.14709
G1 X139.325 Y115.546 E21.20764
G1 X157.755 Y115.548 E22.15893
G1 X157.486 Y113.66 E22.25737
G1 X157.455 Y112.579 E22.31319
G1 X157.598 Y111.536 E22.36753
G1 X157.906 Y110.495 E22.42356
G1 X158.294 Y109.739 E22.46742
G1 X158.853 Y108.945 E22.51754
G1 X160.026 Y107.927 E22.59771
G1 X161.045 Y107.418 E22.6565
G1 X162.294 Y107.155 E22.72238
G1 X163.944 Y107.321 E22.80798
G1 X164.955 Y107.74 E22.86447
G1 X168.212 Y109.722 E23.06127
G1 X169.734 Y111.047 E23.16543
G1 X171.008 Y112.614 E23.26967
G1 X172.249 Y114.712 E23.39549
G1 X175.703 Y121.689 E23.79733
G1 X176.812 Y123.343 E23.90012
G1 X178.497 Y125.491 E24.04103
G1 X179.353 Y126.917 E24.12688
G1 X179.868 Y128.093 E24.19315
G1 X180.106 Y128.838 E24.23352
G1 X180.348 Y130.378 E24.31398
G1 X180.196 Y131.893 E24.39257
G1 X179.964 Y132.496 E24.42592
G1 X179.276 Y133.777 E24.50097
G1 X178.628 Y134.605 E24.55524
G1 X176.816 Y135.895 E24.67005
G1 X175.465 Y136.533 E24.74717
G1 X174.03 Y137.056 E24.82601
G1 X171.745 Y137.704 E24.9486
G1 X168.98 Y138.297 Z.3 E25.09457
G1 F4800
G1 X166.215 Y138.89 Z.3 E25.24053
G1 F4799.792
G1 X164.435 Y139.354 E25.33548
G1 X162.867 Y139.934 E25.42177
G1 X159.953 Y141.411 E25.5904
G1 X158.52 Y141.99 E25.67018
G1 X157.121 Y142.412 E25.7456
G1 X154.595 Y143.022 E25.87973
G1 X152.06 Y143.502 E26.0129
G1 X149.653 Y143.844 E26.13839
G1 X147.045 Y144.096 E26.27363
G1 X143.573 Y144.219 E26.45295
G1 X140.887 Y144.083 Z.3 E26.59174
G1 F4800
G1 X138.202 Y143.947 Z.3 E26.73054
G1 F4799.638
G1 X136.833 Y146.425 E26.87667
G1 X136.152 Y147.455 E26.9404
G1 X134.563 Y149.411 E27.07048
G1 X132.944 Y151.047 E27.18928
G1 X131.871 Y152.005 E27.26353
G1 X130.702 Y152.92 E27.34016
G1 X129.441 Y153.739 E27.41777
G1 X128.039 Y154.457 E27.49907
G1 X126.563 Y155.044 E27.58106
G1 X124.256 Y155.694 E27.70477
G1 X122.987 Y155.917 E27.77127
G1 X120.941 Y156.053 E27.87711
G1 X119.828 Y155.978 E27.93469
G1 X118.69 Y155.725 E27.99486
G1 X117.655 Y155.245 E28.05375
G1 X116.909 Y154.71 E28.10113
G1 X115.996 Y153.554 E28.17716
G1 X115.645 Y152.859 E28.21735
G1 X115.429 Y152.057 E28.26022
G1 X115.37 Y150.751 E28.3277
G1 X115.716 Y149.313 E28.40404
G1 X116.607 Y147.586 E28.50435
G1 F4800
G1 X117.768 Y145.904 E28.60984
G1 X120.068 Y142.963 E28.80255
G1 F4799.946
G1 X116.5 Y141.912 E28.99454
G1 X107.983 Y138.75 E29.46347
G1 X105.017 Y137.442 E29.63079
G1 X102.715 Y136.285 E29.76377
G1 X100.491 Y135.058 E29.89488
G1 X98.334 Y133.749 E30.02511
G1 X96.849 Y132.733 E30.11798
G1 X94.029 Y130.54 E30.30237
G1 X90.393 Y127.152 E30.55889
G1 X88.96 Y125.535 E30.67041
G1 X87.758 Y124.388 E30.75617
G1 X84.729 Y127.391 E30.97633
G1 X83.753 Y128.175 E31.04095
G1 X82.789 Y128.792 E31.10003
G1 X81.836 Y129.283 E31.15537
G1 X80.746 Y129.698 E31.21557
G1 X79.613 Y129.906 E31.27503
G1 X78.51 Y129.859 E31.33201
G1 X77.046 Y129.389 E31.41137
G1 X75.947 Y128.61 E31.4809
G1 X75.16 Y127.636 E31.54553
G1 X74.648 Y126.537 E31.60811
G1 X74.416 Y125.484 E31.66377
G1 X74.357 Y124.333 E31.72326
G1 X74.573 Y122.184 E31.83474
G1 X75.367 Y118.694 E32.01948
G1 X76.186 Y116.712 E32.13017
G1 X77.358 Y115.001 E32.23722
G1 X79.083 Y113.575 E32.35274
G1 X79.437 Y113.391 E32.37333
G1 X79.048 Y112.924 E32.4047
G1 X78.168 Y111.513 E32.49053
G1 X77.493 Y109.658 E32.59242
G1 X77.333 Y108.817 E32.63661
G1 X77.195 Y107.215 E32.71961
G1 X77.185 Y105.51 E32.80762
G1 X77.278 Y104.25 E32.87283
G1 X77.508 Y103.016 E32.93762
G1 X78.151 Y101.457 E33.02467
G1 X78.675 Y100.749 E33.07013
G1 X79.468 Y100.008 E33.12615
M204 S15000
M204 S10000
G1 X79.766 Y100.326 F18000
M204 S5000
G1 F4794.509
G1 X79.788 Y100.305 E33.12772
G1 F4799.642
G1 X80.928 Y99.7 E33.19434
G1 X81.99 Y99.463 E33.2505
G1 X83.02 Y99.465 E33.30366
G1 X84.378 Y99.823 E33.37615
G1 X85.574 Y100.463 E33.44617
G1 X87.265 Y101.699 E33.55428
G1 X88.211 Y102.512 E33.61866
G1 X89.125 Y103.42 E33.68516
G1 X90.067 Y104.552 E33.76117
G1 X90.846 Y105.83 E33.83842
G1 X91.936 Y108.498 E33.98718
G1 X93.206 Y110.393 E34.10493
G1 X94.053 Y111.484 E34.17622
G1 X94.356 Y111.792 E34.19852
G1 X94.848 Y112.1 E34.22848
G1 X95.747 Y112.363 E34.27683
G1 X96.894 Y112.545 E34.33677
G1 X97.972 Y112.592 E34.39247
G1 X98.921 Y112.471 E34.44185
G1 X101.361 Y111.553 Z.3 E34.57639
G1 X103.8 Y110.635 Z.3 E34.71093
G1 X106.642 Y109.958 E34.86173
G1 X109.347 Y109.598 E35.00258
G1 X114.114 Y109.134 E35.2498
G1 X117.145 Y108.738 E35.40758
G1 X117.797 Y108.581 E35.4422
G1 X119.34 Y107.738 E35.53296
G1 X121.909 Y105.981 E35.69361
G1 X123.162 Y105.065 E35.77372
G1 X124.048 Y104.298 E35.83421
G1 X124.551 Y103.76 E35.87223
G1 X125.943 Y102.649 E35.96416
G1 X126.469 Y102.389 E35.99445
G1 X127.868 Y101.892 E36.07108
G1 X129.89 Y101.665 E36.1761
G1 X131.723 Y101.852 E36.2712
G1 X132.633 Y102.109 E36.32001
G1 X134.03 Y102.682 E36.39795
G1 X135.359 Y103.522 E36.4791
G1 X136.487 Y104.459 E36.55479
G1 X137.385 Y105.36 E36.62045
G1 X138.38 Y106.575 E36.70151
G1 X139.026 Y107.576 E36.763
G1 X139.636 Y108.783 E36.83281
G1 X140.079 Y110.092 E36.90414
G1 X140.278 Y111.244 E36.96448
G1 X140.301 Y112.402 E37.02426
G1 X140.006 Y113.698 E37.09287
G1 X139.656 Y114.398 E37.13327
G1 X139.181 Y115.015 E37.17346
G1 X138.074 Y115.92 E37.24726
G1 X139.451 Y115.982 E37.31841
G1 X158.24 Y115.985 E38.28823
G1 X157.921 Y113.629 E38.41095
G1 X157.889 Y112.62 E38.46306
G1 X158.027 Y111.611 E38.51563
G1 X158.303 Y110.675 E38.566
G1 X158.66 Y109.977 E38.60647
G1 X159.194 Y109.218 E38.65437
G1 X160.289 Y108.275 E38.72896
G1 X161.165 Y107.837 E38.77951
G1 X162.288 Y107.592 E38.83884
G1 X163.808 Y107.736 E38.91765
G1 X164.75 Y108.124 E38.97024
G1 X167.961 Y110.078 E39.16426
G1 X169.418 Y111.346 E39.26396
G1 X170.64 Y112.848 E39.3639
G1 X171.862 Y114.911 E39.48766
G1 X173.593 Y118.408 Z.3 E39.68904
G1 F4800
G1 X175.324 Y121.904 Z.3 E39.89042
G1 F4799.929
G1 X176.466 Y123.608 E39.9963
G1 X178.139 Y125.738 E40.1361
G1 X178.952 Y127.088 E40.21744
G1 X179.679 Y128.925 E40.31941
G1 X179.912 Y130.366 E40.39475
G1 X179.778 Y131.766 E40.46734
G1 X179.573 Y132.303 E40.49701
G1 X178.902 Y133.554 E40.57028
G1 X178.307 Y134.309 E40.6199
G1 X176.595 Y135.52 E40.72814
G1 X175.276 Y136.14 E40.80337
G1 X173.899 Y136.64 E40.87899
G1 X171.639 Y137.282 E41.00026
G1 X166.117 Y138.466 E41.29176
G1 X164.307 Y138.938 E41.38831
G1 X162.692 Y139.535 E41.47718
G1 X159.778 Y141.012 E41.64581
G1 X158.366 Y141.582 E41.72441
G1 X157.001 Y141.993 E41.79799
G1 X154.506 Y142.595 E41.93047
G1 X151.986 Y143.073 E42.06286
G1 X149.604 Y143.411 E42.18704
G1 X147.012 Y143.661 E42.32145
G1 X143.582 Y143.784 E42.49861
G1 X137.995 Y143.497 E42.78737
G1 X136.46 Y146.2 E42.94782
G1 X135.793 Y147.209 E43.01025
G1 X134.237 Y149.122 E43.13753
G1 X132.644 Y150.731 E43.2544
G1 X131.586 Y151.675 E43.32759
G1 X130.441 Y152.571 E43.40264
G1 X129.214 Y153.367 E43.47813
G1 X127.85 Y154.065 E43.55722
G1 X126.41 Y154.636 E43.63718
G1 X124.173 Y155.267 E43.75715
G1 X122.934 Y155.484 E43.82208
G1 X120.938 Y155.617 E43.92533
G1 X119.904 Y155.549 E43.97882
G1 X118.851 Y155.32 E44.03444
G1 X117.858 Y154.859 E44.09095
G1 X117.19 Y154.376 E44.1335
G1 X116.352 Y153.303 E44.20377
G1 X116.059 Y152.724 E44.23726
G1 X115.856 Y151.967 E44.27771
G1 X115.806 Y150.764 E44.33986
G1 X116.12 Y149.479 E44.40814
G1 X116.983 Y147.807 E44.50526
G1 X118.115 Y146.167 E44.60812
G1 X119.731 Y144.17 E44.74072
G1 X120.801 Y142.693 E44.83486
G1 X119.334 Y142.336 E44.91279
G1 X116.644 Y141.501 E45.05817
G1 X112.397 Y139.924 Z.3 E45.29201
G1 F4800
G1 X108.15 Y138.347 Z.3 E45.52585
G1 F4799.753
G1 X105.208 Y137.051 E45.69179
G1 X102.915 Y135.899 E45.82424
G1 X100.702 Y134.677 E45.95472
G1 X98.562 Y133.378 E46.08394
G1 X97.097 Y132.376 E46.17555
G1 X94.313 Y130.209 E46.35765
G1 X90.7 Y126.844 E46.6125
G1 X88.705 Y124.65 E46.76556
G1 X87.706 Y123.823 E46.8325
G1 X84.435 Y127.069 E47.07036
G1 X83.49 Y127.828 E47.13292
G1 X82.563 Y128.419 E47.18967
G1 X81.647 Y128.891 E47.24286
G1 X80.646 Y129.274 E47.29818
G1 X79.607 Y129.47 E47.35276
G1 X78.559 Y129.425 E47.4069
G1 X77.215 Y128.986 E47.47988
G1 X76.226 Y128.275 E47.54275
G1 X75.542 Y127.426 E47.59902
G1 X75.067 Y126.419 E47.65649
G1 X74.85 Y125.443 E47.7081
G1 X74.793 Y124.346 E47.7648
G1 X75.002 Y122.261 E47.87296
G1 X75.787 Y118.81 E48.05564
G1 X76.58 Y116.9 E48.16239
G1 X77.699 Y115.274 E48.26427
G1 X79.333 Y113.933 E48.37338
G1 X80.15 Y113.558 E48.41978
G1 X79.409 Y112.679 E48.47912
G1 X78.57 Y111.342 E48.56059
G1 X77.909 Y109.526 E48.66034
G1 X77.662 Y107.808 E48.74993
G1 X77.621 Y105.516 E48.86825
G1 X77.708 Y104.318 E48.93025
G1 X77.932 Y103.118 E48.99326
G1 X78.518 Y101.693 E49.07279
G1 X78.988 Y101.053 E49.11378
G1 X79.722 Y100.367 E49.16564
M204 S15000
M204 S10000
G1 X80.019 Y100.686 F18000
M204 S5000
G1 F4799.949
G1 X80.065 Y100.643 E49.16889
G1 X81.051 Y100.119 E49.22652
G1 X82.06 Y99.894 E49.27988
G1 X82.988 Y99.901 E49.32778
G1 X84.24 Y100.237 E49.39469
G1 X85.355 Y100.84 E49.46012
G1 X86.179 Y101.418 E49.51207
G1 X87.91 Y102.827 E49.62728
G1 X88.797 Y103.707 E49.69177
